Dreamlinkage123/action_data_offset_posture_ws/action_data_offset_ws/build_aarch64/orin_root/workspace/action_data_offset_ws/share/action_data_offset/data/bass/glory-bass1_0_20260418_151400_all.csv
time,left_shoulder_pitch_joint,left_shoulder_roll_joint,left_shoulder_yaw_joint,left_elbow_pitch_joint,left_wrist_yaw_joint,left_wrist_pitch_joint,left_wrist_roll_joint,right_shoulder_pitch_joint,right_shoulder_roll_joint,right_shoulder_yaw_joint,right_elbow_pitch_joint,right_wrist_yaw_joint,right_wrist_pitch_joint,right_wrist_roll_joint,null,null,waist_yaw_joint,null,head_yaw_joint,head_pitch_joint,left_thumb_mcp_roll_joint,left_thumb_mcp_pitch_joint,left_index_mcp_joint,left_middle_mcp_joint,left_ring_mcp_joint,left_pinky_mcp_joint,right_thumb_mcp_roll_joint,right_thumb_mcp_pitch_joint,right_index_mcp_joint,right_middle_mcp_joint,right_ring_mcp_joint,right_pinky_mcp_joint
0.010000,0.165261,0.327878,0.441613,-1.109820,1.255600,-0.056649,-1.507673,-0.148965,-0.736331,0.306510,-1.864843,0.258800,0.155726,0.990000,0.000000,0.000000,0.085640,0.000000,-0.261800,0.003242,1.500000,0.200000,0.600000,0.600000,0.600000,0.550000,0.000000,0.200000,0.700000,0.600000,0.550000,0.300000
0.010000,0.165261,0.327878,0.441613,-1.109820,1.255600,-0.056649,-1.507673,-0.148965,-0.736332,0.306510,-1.864843,0.258800,0.155726,0.990001,0.000000,0.000000,0.085640,0.000000,-0.261800,0.003242,1.500000,0.200000,0.600000,0.600000,0.600000,0.550000,0.000000,0.200000,0.699987,0.599992,0.550005,0.300000
0.010000,0.165261,0.327878,0.441613,-1.109820,1.255600,-0.056649,-1.507673,-0.148965,-0.736334,0.306510,-1.864843,0.258800,0.155726,0.990003,0.000000,0.000000,0.085640,0.000000,-0.261800,0.003242,1.500000,0.200000,0.600000,0.600000,0.600000,0.550000,0.000000,0.200000,0.699960,0.599976,0.550016,0.300000
0.010000,0.165261,0.327878,0.441613,-1.109820,1.255600,-0.056649,-1.507673,-0.148965,-0.736337,0.306510,-1.864843,0.258800,0.155726,0.990005,0.000000,0.000000,0.085640,0.000000,-0.261800,0.003242,1.500000,0.200000,0.600000,0.600000,0.600000,0.550000,0.000000,0.200000,0.699920,0.599952,0.550032,0.300000
0.010000,0.165261,0.327878,0.441613,-1.109820,1.255600,-0.056649,-1.507673,-0.148965,-0.736342,0.306510,-1.864843,0.258800,0.155726,0.990009,0.000000,0.000000,0.085640,0.000000,-0.261800,0.003242,1.500000,0.200000,0.600000,0.600000,0.600000,0.550000,0.000000,0.200000,0.699866,0.599920,0.550053,0.300000
0.010000,0.165261,0.327878,0.441613,-1.109820,1.255600,-0.056649,-1.507673,-0.148965,-0.736347,0.306510,-1.864843,0.258800,0.155726,0.990014,0.000000,0.000000,0.085640,0.000000,-0.261800,0.003242,1.500000,0.200000,0.600000,0.600000,0.600000,0.550000,0.000000,0.200000,0.699799,0.599880,0.550080,0.300000
0.010000,0.165261,0.327878,0.441613,-1.109820,1.255600,-0.056649,-1.507673,-0.148965,-0.736354,0.306510,-1.864843,0.258800,0.155726,0.990019,0.000000,0.000000,0.085640,0.000000,-0.261800,0.003242,1.500000,0.200000,0.600000,0.600000,0.600000,0.550000,0.000000,0.200000,0.699719,0.599832,0.550112,0.300000
0.010000,0.165261,0.327878,0.441613,-1.109820,1.255600,-0.056649,-1.507673,-0.148965,-0.736361,0.306510,-1.864843,0.258800,0.155726,0.990025,0.000000,0.000000,0.085640,0.000000,-0.261800,0.003242,1.500000,0.200000,0.600000,0.600000,0.600000,0.550000,0.000000,0.200000,0.699626,0.599775,0.550150,0.300000
0.010000,0.165261,0.327878,0.441613,-1.109820,1.255600,-0.056649,-1.507673,-0.148965,-0.736370,0.306509,-1.864844,0.258800,0.155727,0.990032,0.000000,0.000000,0.085640,0.000000,-0.261800,0.003242,1.500000,0.200000,0.600000,0.600000,0.600000,0.550000,0.000000,0.200000,0.699519,0.599711,0.550193,0.300000
0.010000,0.165261,0.327878,0.441613,-1.109820,1.255600,-0.056649,-1.507673,-0.148965,-0.736380,0.306509,-1.864844,0.258799,0.155727,0.990041,0.000000,0.000000,0.085640,0.000000,-0.261800,0.003242,1.500000,0.200000,0.600000,0.600000,0.600000,0.550000,0.000000,0.200000,0.699398,0.599639,0.550241,0.300000
0.010000,0.165261,0.327878,0.441613,-1.109820,1.255600,-0.056649,-1.507673,-0.148965,-0.736390,0.306509,-1.864844,0.258799,0.155727,0.990050,0.000000,0.000000,0.085640,0.000000,-0.261800,0.003242,1.500000,0.200000,0.600000,0.600000,0.600000,0.550000,0.000000,0.200000,0.699265,0.599559,0.550294,0.300000
0.010000,0.165261,0.327878,0.441613,-1.109820,1.255600,-0.056649,-1.507673,-0.148965,-0.736402,0.306509,-1.864844,0.258799,0.155727,0.990060,0.000000,0.000000,0.085640,0.000000,-0.261800,0.003242,1.500000,0.200000,0.600000,0.600000,0.600000,0.550000,0.000000,0.200000,0.699118,0.599471,0.550353,0.300000
0.010000,0.165261,0.327878,0.441613,-1.109820,1.255600,-0.056649,-1.507673,-0.148965,-0.736415,0.306509,-1.864844,0.258799,0.155727,0.990070,0.000000,0.000000,0.085640,0.000000,-0.261800,0.003242,1.500000,0.200000,0.600000,0.600000,0.600000,0.550000,0.000000,0.200000,0.698957,0.599374,0.550417,0.300000
0.010000,0.165261,0.327878,0.441613,-1.109820,1.255600,-0.056649,-1.507673,-0.148965,-0.736429,0.306509,-1.864844,0.258799,0.155728,0.990082,0.000000,0.000000,0.085640,0.000000,-0.261800,0.003242,1.500000,0.200000,0.600000,0.600000,0.600000,0.550000,0.000000,0.200000,0.698783,0.599270,0.550487,0.300000
0.010000,0.165261,0.327878,0.441613,-1.109820,1.255600,-0.056649,-1.507673,-0.148965,-0.736444,0.306508,-1.864845,0.258799,0.155728,0.990095,0.000000,0.000000,0.085640,0.000000,-0.261800,0.003242,1.500000,0.200000,0.600000,0.600000,0.600000,0.550000,0.000000,0.200000,0.698596,0.599158,0.550561,0.300000
0.010000,0.165261,0.327878,0.441613,-1.109820,1.255600,-0.056649,-1.507673,-0.148965,-0.736460,0.306508,-1.864845,0.258798,0.155728,0.990108,0.000000,0.000000,0.085640,0.000000,-0.261800,0.003242,1.500000,0.200000,0.600000,0.600000,0.600000,0.550000,0.000000,0.200000,0.698396,0.599037,0.550642,0.300000
0.010000,0.165261,0.327878,0.441613,-1.109820,1.255600,-0.056649,-1.507673,-0.148965,-0.736478,0.306508,-1.864845,0.258798,0.155728,0.990123,0.000000,0.000000,0.085640,0.000000,-0.261800,0.003242,1.500000,0.200000,0.600000,0.600000,0.600000,0.550000,0.000000,0.200000,0.698182,0.598909,0.550727,0.300000
0.010000,0.165261,0.327878,0.441613,-1.109820,1.255600,-0.056649,-1.507673,-0.148965,-0.736496,0.306508,-1.864845,0.258798,0.155729,0.990138,0.000000,0.000000,0.085640,0.000000,-0.261800,0.003242,1.500000,0.200000,0.600000,0.600000,0.600000,0.550000,0.000000,0.200000,0.697955,0.598773,0.550818,0.300000
0.010000,0.165261,0.327878,0.441613,-1.109820,1.255600,-0.056649,-1.507673,-0.148965,-0.736516,0.306508,-1.864846,0.258798,0.155729,0.990154,0.000000,0.000000,0.085640,0.000000,-0.261800,0.003242,1.500000,0.200000,0.600000,0.600000,0.600000,0.550000,0.000000,0.200000,0.697714,0.598628,0.550914,0.300000
0.010000,0.165261,0.327878,0.441613,-1.109820,1.255600,-0.056649,-1.507673,-0.148965,-0.736536,0.306507,-1.864846,0.258798,0.155729,0.990171,0.000000,0.000000,0.085640,0.000000,-0.261800,0.003242,1.500000,0.200000,0.600000,0.600000,0.600000,0.550000,0.000000,0.200000,0.697460,0.598476,0.551016,0.300000
0.010000,0.165261,0.327878,0.441613,-1.109820,1.255600,-0.056649,-1.507673,-0.148965,-0.736558,0.306507,-1.864846,0.258797,0.155730,0.990189,0.000000,0.000000,0.085640,0.000000,-0.261800,0.003242,1.500000,0.200000,0.600000,0.600000,0.600000,0.550000,0.000000,0.200000,0.697193,0.598316,0.551123,0.300000
0.010000,0.165261,0.327878,0.441613,-1.109820,1.255600,-0.056649,-1.507673,-0.148965,-0.736580,0.306507,-1.864846,0.258797,0.155730,0.990208,0.000000,0.000000,0.085640,0.000000,-0.261800,0.003242,1.500000,0.200000,0.600000,0.600000,0.600000,0.550000,0.000000,0.200000,0.696912,0.598147,0.551235,0.300000
0.010000,0.165261,0.327878,0.441613,-1.109820,1.255600,-0.056649,-1.507673,-0.148965,-0.736604,0.306506,-1.864847,0.258797,0.155730,0.990228,0.000000,0.000000,0.085640,0.000000,-0.261800,0.003242,1.500000,0.200000,0.600000,0.600000,0.600000,0.550000,0.000000,0.200000,0.696618,0.597971,0.551353,0.300000
0.010000,0.165261,0.327878,0.441613,-1.109820,1.255600,-0.056649,-1.507673,-0.148965,-0.736629,0.306506,-1.864847,0.258796,0.155731,0.990249,0.000000,0.000000,0.085640,0.000000,-0.261800,0.003242,1.500000,0.200000,0.600000,0.600000,0.600000,0.550000,0.000000,0.200000,0.696310,0.597786,0.551476,0.300000
0.010000,0.165261,0.327878,0.441613,-1.109820,1.255600,-0.056649,-1.507673,-0.148965,-0.736655,0.306506,-1.864847,0.258796,0.155731,0.990270,0.000000,0.000000,0.085640,0.000000,-0.261800,0.003242,1.500000,0.200000,0.600000,0.600000,0.600000,0.550000,0.000000,0.200000,0.695989,0.597594,0.551604,0.300000
0.010000,0.165261,0.327878,0.441613,-1.109820,1.255600,-0.056649,-1.507673,-0.148965,-0.736682,0.306505,-1.864848,0.258796,0.155731,0.990293,0.000000,0.000000,0.085640,0.000000,-0.261800,0.003242,1.500000,0.200000,0.600000,0.600000,0.600000,0.550000,0.000000,0.200000,0.695655,0.597393,0.551738,0.300000
0.010000,0.165261,0.327878,0.441613,-1.109820,1.255600,-0.056649,-1.507673,-0.148965,-0.736710,0.306505,-1.864848,0.258796,0.155732,0.990316,0.000000,0.000000,0.085640,0.000000,-0.261800,0.003242,1.500000,0.200000,0.600000,0.600000,0.600000,0.550000,0.000000,0.200000,0.695307,0.597184,0.551877,0.300000
0.010000,0.165261,0.327878,0.441613,-1.109820,1.255600,-0.056649,-1.507673,-0.148965,-0.736739,0.306505,-1.864849,0.258795,0.155732,0.990341,0.000000,0.000000,0.085640,0.000000,-0.261800,0.003242,1.500000,0.200000,0.600000,0.600000,0.600000,0.550000,0.000000,0.200000,0.694947,0.596968,0.552021,0.300000
0.010000,0.165261,0.327878,0.441613,-1.109820,1.255600,-0.056649,-1.507673,-0.148965,-0.736769,0.306504,-1.864849,0.258795,0.155733,0.990366,0.000000,0.000000,0.085640,0.000000,-0.261800,0.003242,1.500000,0.200000,0.600000,0.600000,0.600000,0.550000,0.000000,0.200000,0.694572,0.596743,0.552171,0.300000
0.010000,0.165261,0.327878,0.441613,-1.109820,1.255600,-0.056649,-1.507673,-0.148965,-0.736800,0.306504,-1.864849,0.258795,0.155733,0.990392,0.000000,0.000000,0.085640,0.000000,-0.261800,0.003242,1.500000,0.200000,0.600000,0.600000,0.600000,0.550000,0.000000,0.200000,0.694184,0.596511,0.552326,0.300000
0.010000,0.165261,0.327878,0.441613,-1.109820,1.255600,-0.056649,-1.507673,-0.148965,-0.736833,0.306503,-1.864850,0.258794,0.155734,0.990419,0.000000,0.000000,0.085640,0.000000,-0.261800,0.003242,1.500000,0.200000,0.600000,0.600000,0.600000,0.550000,0.000000,0.200000,0.693783,0.596270,0.552487,0.300000
0.010000,0.165261,0.327878,0.441613,-1.109820,1.255600,-0.056649,-1.507673,-0.148965,-0.736866,0.306503,-1.864850,0.258794,0.155734,0.990447,0.000000,0.000000,0.085640,0.000000,-0.261800,0.003242,1.500000,0.200000,0.600000,0.600000,0.600000,0.550000,0.000000,0.200000,0.693369,0.596021,0.552652,0.300000
0.010000,0.165261,0.327878,0.441613,-1.109820,1.255600,-0.056649,-1.507673,-0.148965,-0.736901,0.306502,-1.864851,0.258793,0.155735,0.990476,0.000000,0.000000,0.085640,0.000000,-0.261800,0.003242,1.500000,0.200000,0.600000,0.600000,0.600000,0.550000,0.000000,0.200000,0.692941,0.595765,0.552824,0.300000
0.010000,0.165261,0.327878,0.441613,-1.109820,1.255600,-0.056649,-1.507673,-0.148965,-0.736936,0.306502,-1.864851,0.258793,0.155735,0.990506,0.000000,0.000000,0.085640,0.000000,-0.261800,0.003242,1.500000,0.200000,0.600000,0.600000,0.600000,0.550000,0.000000,0.200000,0.692500,0.595500,0.553000,0.300000
0.010000,0.165261,0.327878,0.441613,-1.109820,1.255600,-0.056649,-1.507673,-0.148965,-0.736973,0.306502,-1.864852,0.258793,0.155736,0.990536,0.000000,0.000000,0.085640,0.000000,-0.261800,0.003242,1.500000,0.200000,0.600000,0.600000,0.600000,0.550000,0.000000,0.200000,0.692045,0.595227,0.553182,0.300000
0.010000,0.165261,0.327878,0.441613,-1.109820,1.255600,-0.056649,-1.507673,-0.148965,-0.737011,0.306501,-1.864852,0.258792,0.155736,0.990568,0.000000,0.000000,0.085640,0.000000,-0.261800,0.003242,1.500000,0.200000,0.600000,0.600000,0.600000,0.550000,0.000000,0.200000,0.691578,0.594947,0.553369,0.300000
0.010000,0.165261,0.327878,0.441613,-1.109820,1.255600,-0.056649,-1.507673,-0.148965,-0.737050,0.306501,-1.864853,0.258792,0.155737,0.990600,0.000000,0.000000,0.085640,0.000000,-0.261800,0.003242,1.500000,0.200000,0.600000,0.600000,0.600000,0.550000,0.000000,0.200000,0.691096,0.594658,0.553561,0.300000
0.010000,0.165261,0.327878,0.441613,-1.109820,1.255600,-0.056649,-1.507673,-0.148965,-0.737089,0.306500,-1.864853,0.258791,0.155738,0.990633,0.000000,0.000000,0.085640,0.000000,-0.261800,0.003242,1.500000,0.200000,0.600000,0.600000,0.600000,0.550000,0.000000,0.200000,0.690602,0.594361,0.553759,0.300000
0.010000,0.165261,0.327878,0.441613,-1.109820,1.255600,-0.056649,-1.507673,-0.148965,-0.737130,0.306500,-1.864854,0.258791,0.155738,0.990668,0.000000,0.000000,0.085640,0.000000,-0.261800,0.003242,1.500000,0.200000,0.600000,0.600000,0.600000,0.550000,0.000000,0.200000,0.690094,0.594056,0.553963,0.300000
0.010000,0.165261,0.327878,0.441613,-1.109820,1.255600,-0.056649,-1.507673,-0.148965,-0.737172,0.306499,-1.864854,0.258790,0.155739,0.990703,0.000000,0.000000,0.085640,0.000000,-0.261800,0.003242,1.500000,0.200000,0.600000,0.600000,0.600000,0.550000,0.000000,0.200000,0.689572,0.593743,0.554171,0.300000
0.010000,0.165261,0.327878,0.441613,-1.109820,1.255600,-0.056649,-1.507673,-0.148965,-0.737216,0.306498,-1.864855,0.258790,0.155739,0.990739,0.000000,0.000000,0.085640,0.000000,-0.261800,0.003242,1.500000,0.200000,0.600000,0.600000,0.600000,0.550000,0.000000,0.200000,0.689037,0.593422,0.554385,0.300000
0.010000,0.165261,0.327878,0.441613,-1.109820,1.255600,-0.056649,-1.507673,-0.148965,-0.737260,0.306498,-1.864855,0.258789,0.155740,0.990776,0.000000,0.000000,0.085640,0.000000,-0.261800,0.003242,1.500000,0.200000,0.600000,0.600000,0.600000,0.550000,0.000000,0.200000,0.688489,0.593094,0.554604,0.300000
0.010000,0.165261,0.327878,0.441613,-1.109820,1.255600,-0.056649,-1.507673,-0.148965,-0.737305,0.306497,-1.864856,0.258789,0.155741,0.990814,0.000000,0.000000,0.085640,0.000000,-0.261800,0.003242,1.500000,0.200000,0.600000,0.600000,0.600000,0.550000,0.000000,0.200000,0.687928,0.592757,0.554829,0.300000
0.010000,0.165261,0.327878,0.441613,-1.109820,1.255600,-0.056649,-1.507673,-0.148965,-0.737351,0.306497,-1.864856,0.258788,0.155741,0.990852,0.000000,0.000000,0.085640,0.000000,-0.261800,0.003242,1.500000,0.200000,0.600000,0.600000,0.600000,0.550000,0.000000,0.200000,0.687353,0.592412,0.555059,0.300000
0.010000,0.165261,0.327878,0.441613,-1.109820,1.255600,-0.056649,-1.507673,-0.148965,-0.737399,0.306496,-1.864857,0.258788,0.155742,0.990892,0.000000,0.000000,0.085640,0.000000,-0.261800,0.003242,1.500000,0.200000,0.600000,0.600000,0.600000,0.550000,0.000000,0.200000,0.686765,0.592059,0.555294,0.300000
0.010000,0.165261,0.327878,0.441613,-1.109820,1.255600,-0.056649,-1.507673,-0.148965,-0.737447,0.306496,-1.864858,0.258787,0.155743,0.990932,0.000000,0.000000,0.085640,0.000000,-0.261800,0.003242,1.500000,0.200000,0.600000,0.600000,0.600000,0.550000,0.000000,0.200000,0.686163,0.591698,0.555535,0.300000
0.010000,0.165261,0.327878,0.441613,-1.109820,1.255600,-0.056649,-1.507673,-0.148965,-0.737497,0.306495,-1.864858,0.258787,0.155743,0.990974,0.000000,0.000000,0.085640,0.000000,-0.261800,0.003242,1.500000,0.200000,0.600000,0.600000,0.600000,0.550000,0.000000,0.200000,0.685548,0.591329,0.555781,0.300000
0.010000,0.165261,0.327878,0.441613,-1.109820,1.255600,-0.056649,-1.507673,-0.148965,-0.737548,0.306494,-1.864859,0.258786,0.155744,0.991016,0.000000,0.000000,0.085640,0.000000,-0.261800,0.003242,1.500000,0.200000,0.600000,0.600000,0.600000,0.550000,0.000000,0.200000,0.684920,0.590952,0.556032,0.300000
0.010000,0.165261,0.327878,0.441613,-1.109820,1.255600,-0.056649,-1.507673,-0.148965,-0.737599,0.306494,-1.864859,0.258786,0.155745,0.991059,0.000000,0.000000,0.085640,0.000000,-0.261800,0.003242,1.500000,0.200000,0.600000,0.600000,0.600000,0.550000,0.000000,0.200000,0.684278,0.590567,0.556289,0.300000
0.010000,0.165261,0.327878,0.441613,-1.109820,1.255600,-0.056649,-1.507673,-0.148965,-0.737652,0.306493,-1.864860,0.258785,0.155746,0.991103,0.000000,0.000000,0.085640,0.000000,-0.261800,0.003242,1.500000,0.200000,0.600000,0.600000,0.600000,0.550000,0.000000,0.200000,0.683623,0.590174,0.556551,0.300000
0.010000,0.165261,0.327878,0.441613,-1.109820,1.255600,-0.056649,-1.507673,-0.148965,-0.737706,0.306492,-1.864861,0.258785,0.155746,0.991148,0.000000,0.000000,0.085640,0.000000,-0.261800,0.003242,1.500000,0.200000,0.600000,0.600000,0.600000,0.550000,0.000000,0.200000,0.682955,0.589773,0.556818,0.300000
0.010000,0.165261,0.327878,0.441613,-1.109820,1.255600,-0.056649,-1.507673,-0.148965,-0.737761,0.306492,-1.864861,0.258784,0.155747,0.991194,0.000000,0.000000,0.085640,0.000000,-0.261800,0.003242,1.500000,0.200000,0.600000,0.600000,0.600000,0.550000,0.000000,0.200000,0.682273,0.589364,0.557091,0.300000
0.010000,0.165261,0.327878,0.441613,-1.109820,1.255600,-0.056649,-1.507673,-0.148965,-0.737817,0.306491,-1.864862,0.258784,0.155748,0.991241,0.000000,0.000000,0.085640,0.000000,-0.261800,0.003242,1.500000,0.200000,0.600000,0.600000,0.600000,0.550000,0.000000,0.200000,0.681578,0.588947,0.557369,0.300000
0.010000,0.165261,0.327878,0.441613,-1.109820,1.255600,-0.056649,-1.507673,-0.148965,-0.737874,0.306490,-1.864863,0.258783,0.155749,0.991289,0.000000,0.000000,0.085640,0.000000,-0.261800,0.003242,1.500000,0.200000,0.600000,0.600000,0.600000,0.550000,0.000000,0.200000,0.680869,0.588521,0.557652,0.300000
0.010000,0.165261,0.327878,0.441613,-1.109820,1.255600,-0.056649,-1.507673,-0.148965,-0.737932,0.306490,-1.864863,0.258782,0.155749,0.991337,0.000000,0.000000,0.085640,0.000000,-0.261800,0.003242,1.500000,0.200000,0.600000,0.600000,0.600000,0.550000,0.000000,0.200000,0.680147,0.588088,0.557941,0.300000
0.010000,0.165261,0.327878,0.441613,-1.109820,1.255600,-0.056649,-1.507673,-0.148965,-0.737992,0.306489,-1.864864,0.258782,0.155750,0.991387,0.000000,0.000000,0.085640,0.000000,-0.261800,0.003242,1.500000,0.200000,0.600000,0.600000,0.600000,0.550000,0.000000,0.200000,0.679412,0.587647,0.558235,0.300000
0.010000,0.165261,0.327878,0.441613,-1.109820,1.255600,-0.056649,-1.507673,-0.148965,-0.738052,0.306488,-1.864865,0.258781,0.155751,0.991437,0.000000,0.000000,0.085640,0.000000,-0.261800,0.003242,1.500000,0.200000,0.600000,0.600000,0.600000,0.550000,0.000000,0.200000,0.678663,0.587198,0.558535,0.300000
0.010000,0.165261,0.327878,0.441613,-1.109820,1.255600,-0.056649,-1.507673,-0.148965,-0.738114,0.306488,-1.864865,0.258781,0.155752,0.991488,0.000000,0.000000,0.085640,0.000000,-0.261800,0.003242,1.500000,0.200000,0.600000,0.600000,0.600000,0.550000,0.000000,0.200000,0.677901,0.586741,0.558840,0.300000
0.010000,0.165261,0.327878,0.441613,-1.109820,1.255600,-0.056649,-1.507673,-0.148965,-0.738176,0.306487,-1.864866,0.258780,0.155753,0.991540,0.000000,0.000000,0.085640,0.000000,-0.261800,0.003242,1.500000,0.200000,0.600000,0.600000,0.600000,0.550000,0.000000,0.200000,0.677126,0.586275,0.559150,0.300000
0.010000,0.165261,0.327878,0.441613,-1.109820,1.255600,-0.056649,-1.507673,-0.148965,-0.738240,0.306486,-1.864867,0.258779,0.155753,0.991594,0.000000,0.000000,0.085640,0.000000,-0.261800,0.003242,1.500000,0.200000,0.600000,0.600000,0.600000,0.550000,0.000000,0.200000,0.676337,0.585802,0.559465,0.300000
0.010000,0.165261,0.327878,0.441613,-1.109820,1.255600,-0.056649,-1.507673,-0.148965,-0.738304,0.306486,-1.864868,0.258779,0.155754,0.991647,0.000000,0.000000,0.085640,0.000000,-0.261800,0.003242,1.500000,0.200000,0.600000,0.600000,0.600000,0.550000,0.000000,0.200000,0.675535,0.585321,0.559786,0.300000
0.010000,0.165261,0.327878,0.441613,-1.109820,1.255600,-0.056649,-1.507673,-0.148965,-0.738370,0.306485,-1.864868,0.258778,0.155755,0.991702,0.000000,0.000000,0.085640,0.000000,-0.261800,0.003242,1.500000,0.200000,0.600000,0.600000,0.600000,0.550000,0.000000,0.200000,0.674719,0.584832,0.560112,0.300000
0.010000,0.165261,0.327878,0.441613,-1.109820,1.255600,-0.056649,-1.507673,-0.148965,-0.738437,0.306484,-1.864869,0.258777,0.155756,0.991758,0.000000,0.000000,0.085640,0.000000,-0.261800,0.003242,1.500000,0.200000,0.600000,0.600000,0.600000,0.550000,0.000000,0.200000,0.673890,0.584334,0.560444,0.300000
0.010000,0.165261,0.327878,0.441613,-1.109820,1.255600,-0.056649,-1.507673,-0.148965,-0.738505,0.306483,-1.864870,0.258777,0.155757,0.991815,0.000000,0.000000,0.085640,0.000000,-0.261800,0.003242,1.500000,0.200000,0.600000,0.600000,0.600000,0.550000,0.000000,0.200000,0.673048,0.583829,0.560781,0.300000
0.010000,0.165261,0.327878,0.441613,-1.109820,1.255600,-0.056649,-1.507673,-0.148965,-0.738574,0.306483,-1.864871,0.258776,0.155758,0.991872,0.000000,0.000000,0.085640,0.000000,-0.261800,0.003242,1.500000,0.200000,0.600000,0.600000,0.600000,0.550000,0.000000,0.200000,0.672193,0.583316,0.561123,0.300000
0.010000,0.165261,0.327878,0.441613,-1.109820,1.255600,-0.056649,-1.507673,-0.148965,-0.738644,0.306482,-1.864871,0.258776,0.155758,0.991931,0.000000,0.000000,0.085640,0.000000,-0.261800,0.003242,1.500000,0.200000,0.600000,0.600000,0.600000,0.550000,0.000000,0.200000,0.671324,0.582794,0.561471,0.300000
0.010000,0.165261,0.327878,0.441613,-1.109820,1.255600,-0.056649,-1.507673,-0.148965,-0.738715,0.306481,-1.864872,0.258775,0.155759,0.991990,0.000000,0.000000,0.085640,0.000000,-0.261800,0.003242,1.500000,0.200000,0.600000,0.600000,0.600000,0.550000,0.000000,0.200000,0.670441,0.582265,0.561824,0.300000
0.010000,0.165261,0.327878,0.441613,-1.109820,1.255600,-0.056649,-1.507673,-0.148965,-0.738787,0.306480,-1.864873,0.258774,0.155760,0.992050,0.000000,0.000000,0.085640,0.000000,-0.261800,0.003242,1.500000,0.200000,0.600000,0.600000,0.600000,0.550000,0.000000,0.200000,0.669545,0.581727,0.562182,0.300000
0.010000,0.165261,0.327878,0.441613,-1.109820,1.255600,-0.056649,-1.507673,-0.148965,-0.738860,0.306480,-1.864874,0.258774,0.155761,0.992111,0.000000,0.000000,0.085640,0.000000,-0.261800,0.003242,1.500000,0.200000,0.600000,0.600000,0.600000,0.550000,0.000000,0.200000,0.668636,0.581182,0.562545,0.300000
0.010000,0.165261,0.327878,0.441613,-1.109820,1.255600,-0.056649,-1.507673,-0.148965,-0.738933,0.306479,-1.864874,0.258773,0.155762,0.992172,0.000000,0.000000,0.085640,0.000000,-0.261800,0.003242,1.500000,0.200000,0.600000,0.600000,0.600000,0.550000,0.000000,0.200000,0.667727,0.580636,0.562909,0.300000
0.010000,0.165261,0.327878,0.441613,-1.109820,1.255600,-0.056649,-1.507673,-0.148965,-0.739006,0.306478,-1.864875,0.258772,0.155763,0.992233,0.000000,0.000000,0.085640,0.000000,-0.261800,0.003242,1.500000,0.200000,0.600000,0.600000,0.600000,0.550000,0.000000,0.200000,0.666818,0.580091,0.563273,0.300000
0.010000,0.165261,0.327878,0.441613,-1.109820,1.255600,-0.056649,-1.507673,-0.148965,-0.739080,0.306477,-1.864876,0.258772,0.155764,0.992294,0.000000,0.000000,0.085640,0.000000,-0.261800,0.003242,1.500000,0.200000,0.600000,0.600000,0.600000,0.550000,0.000000,0.200000,0.665909,0.579545,0.563636,0.300000
0.010000,0.165261,0.327878,0.441613,-1.109820,1.255600,-0.056649,-1.507673,-0.148965,-0.739153,0.306477,-1.864877,0.258771,0.155764,0.992355,0.000000,0.000000,0.085640,0.000000,-0.261800,0.003242,1.500000,0.200000,0.600000,0.600000,0.600000,0.550000,0.000000,0.200000,0.665000,0.579000,0.564000,0.300000
0.010000,0.165261,0.327878,0.441613,-1.109820,1.255600,-0.056649,-1.507673,-0.148965,-0.739226,0.306476,-1.864877,0.258770,0.155765,0.992416,0.000000,0.000000,0.085640,0.000000,-0.261800,0.003242,1.500000,0.200000,0.600000,0.600000,0.600000,0.550000,0.000000,0.200000,0.664091,0.578455,0.564364,0.300000
0.010000,0.165261,0.327878,0.441613,-1.109820,1.255600,-0.056649,-1.507673,-0.148965,-0.739299,0.306475,-1.864878,0.258770,0.155766,0.992477,0.000000,0.000000,0.085640,0.000000,-0.261800,0.003242,1.500000,0.200000,0.600000,0.600000,0.600000,0.550000,0.000000,0.200000,0.663182,0.577909,0.564727,0.300000
0.010000,0.165261,0.327878,0.441613,-1.109820,1.255600,-0.056649,-1.507673,-0.148965,-0.739372,0.306475,-1.864879,0.258769,0.155767,0.992538,0.000000,0.000000,0.085640,0.000000,-0.261800,0.003242,1.500000,0.200000,0.600000,0.600000,0.600000,0.550000,0.000000,0.200000,0.662273,0.577364,0.565091,0.300000
0.010000,0.165261,0.327878,0.441613,-1.109820,1.255600,-0.056649,-1.507673,-0.148965,-0.739446,0.306474,-1.864879,0.258769,0.155768,0.992599,0.000000,0.000000,0.085640,0.000000,-0.261800,0.003242,1.500000,0.200000,0.600000,0.600000,0.600000,0.550000,0.000000,0.200000,0.661364,0.576818,0.565455,0.300000
0.010000,0.165261,0.327878,0.441613,-1.109820,1.255600,-0.056649,-1.507673,-0.148965,-0.739519,0.306473,-1.864880,0.258768,0.155768,0.992660,0.000000,0.000000,0.085640,0.000000,-0.261800,0.003242,1.500000,0.200000,0.600000,0.600000,0.600000,0.550000,0.000000,0.200000,0.660455,0.576273,0.565818,0.300000
0.010000,0.165261,0.327878,0.441613,-1.109820,1.255600,-0.056649,-1.507673,-0.148965,-0.739592,0.306473,-1.864881,0.258767,0.155769,0.992721,0.000000,0.000000,0.085640,0.000000,-0.261800,0.003242,1.500000,0.200000,0.600000,0.600000,0.600000,0.550000,0.000000,0.200000,0.659545,0.575727,0.566182,0.300000
0.010000,0.165261,0.327878,0.441613,-1.109820,1.255600,-0.056649,-1.507673,-0.148965,-0.739665,0.306472,-1.864881,0.258767,0.155770,0.992782,0.000000,0.000000,0.085640,0.000000,-0.261800,0.003242,1.500000,0.200000,0.600000,0.600000,0.600000,0.550000,0.000000,0.200000,0.658636,0.575182,0.566545,0.300000
0.010000,0.165261,0.327878,0.441613,-1.109820,1.255600,-0.056649,-1.507673,-0.148965,-0.739738,0.306471,-1.864882,0.258766,0.155771,0.992843,0.000000,0.000000,0.085640,0.000000,-0.261800,0.003242,1.500000,0.200000,0.600000,0.600000,0.600000,0.550000,0.000000,0.200000,0.657727,0.574636,0.566909,0.300000
0.010000,0.165261,0.327878,0.441613,-1.109820,1.255600,-0.056649,-1.507673,-0.148965,-0.739811,0.306470,-1.864883,0.258766,0.155772,0.992904,0.000000,0.000000,0.085640,0.000000,-0.261800,0.003242,1.500000,0.200000,0.600000,0.600000,0.600000,0.550000,0.000000,0.200000,0.656818,0.574091,0.567273,0.300000
0.010000,0.165261,0.327878,0.441613,-1.109820,1.255600,-0.056649,-1.507673,-0.148965,-0.739885,0.306470,-1.864883,0.258765,0.155772,0.992965,0.000000,0.000000,0.085640,0.000000,-0.261800,0.003242,1.500000,0.200000,0.600000,0.600000,0.600000,0.550000,0.000000,0.200000,0.655909,0.573545,0.567636,0.300000
0.010000,0.165261,0.327878,0.441613,-1.109820,1.255600,-0.056649,-1.507673,-0.148965,-0.739958,0.306469,-1.864884,0.258764,0.155773,0.993026,0.000000,0.000000,0.085640,0.000000,-0.261800,0.003242,1.500000,0.200000,0.600000,0.600000,0.600000,0.550000,0.000000,0.200000,0.655000,0.573000,0.568000,0.300000
0.010000,0.165261,0.327878,0.441613,-1.109820,1.255600,-0.056649,-1.507673,-0.148965,-0.740031,0.306469,-1.864885,0.258764,0.155774,0.993087,0.000000,0.000000,0.085640,0.000000,-0.261800,0.003242,1.500000,0.200000,0.600000,0.600000,0.600000,0.550000,0.000000,0.200000,0.654091,0.572455,0.568364,0.300000
0.010000,0.165261,0.327878,0.441613,-1.109820,1.255600,-0.056649,-1.507673,-0.148965,-0.740104,0.306468,-1.864885,0.258763,0.155775,0.993148,0.000000,0.000000,0.085640,0.000000,-0.261800,0.003242,1.500000,0.200000,0.600000,0.600000,0.600000,0.550000,0.000000,0.200000,0.653182,0.571909,0.568727,0.300000
0.010000,0.165261,0.327878,0.441613,-1.109820,1.255600,-0.056649,-1.507673,-0.148965,-0.740177,0.306467,-1.864886,0.258763,0.155775,0.993209,0.000000,0.000000,0.085640,0.000000,-0.261800,0.003242,1.500000,0.200000,0.600000,0.600000,0.600000,0.550000,0.000000,0.200000,0.652273,0.571364,0.569091,0.300000
0.010000,0.165261,0.327878,0.441613,-1.109820,1.255600,-0.056649,-1.507673,-0.148965,-0.740250,0.306467,-1.864887,0.258762,0.155776,0.993270,0.000000,0.000000,0.085640,0.000000,-0.261800,0.003242,1.500000,0.200000,0.600000,0.600000,0.600000,0.550000,0.000000,0.200000,0.651364,0.570818,0.569455,0.300000
0.010000,0.165261,0.327878,0.441613,-1.109820,1.255600,-0.056649,-1.507673,-0.148965,-0.740323,0.306466,-1.864887,0.258762,0.155777,0.993331,0.000000,0.000000,0.085640,0.000000,-0.261800,0.003242,1.500000,0.200000,0.600000,0.600000,0.600000,0.550000,0.000000,0.200000,0.650455,0.570273,0.569818,0.300000
0.010000,0.165261,0.327878,0.441613,-1.109820,1.255600,-0.056649,-1.507673,-0.148965,-0.740397,0.306465,-1.864888,0.258761,0.155777,0.993392,0.000000,0.000000,0.085640,0.000000,-0.261800,0.003242,1.500000,0.200000,0.600000,0.600000,0.600000,0.550000,0.000000,0.200000,0.649545,0.569727,0.570182,0.300000
0.010000,0.165261,0.327878,0.441613,-1.109820,1.255600,-0.056649,-1.507673,-0.148965,-0.740470,0.306465,-1.864888,0.258761,0.155778,0.993453,0.000000,0.000000,0.085640,0.000000,-0.261800,0.003242,1.500000,0.200000,0.600000,0.600000,0.600000,0.550000,0.000000,0.200000,0.648636,0.569182,0.570545,0.300000
0.010000,0.165261,0.327878,0.441613,-1.109820,1.255600,-0.056649,-1.507673,-0.148965,-0.740543,0.306464,-1.864889,0.258760,0.155779,0.993514,0.000000,0.000000,0.085640,0.000000,-0.261800,0.003242,1.500000,0.200000,0.600000,0.600000,0.600000,0.550000,0.000000,0.200000,0.647727,0.568636,0.570909,0.300000
0.010000,0.165261,0.327878,0.441613,-1.109820,1.255600,-0.056649,-1.507673,-0.148965,-0.740616,0.306464,-1.864890,0.258760,0.155779,0.993575,0.000000,0.000000,0.085640,0.000000,-0.261800,0.003242,1.500000,0.200000,0.600000,0.600000,0.600000,0.550000,0.000000,0.200000,0.646818,0.568091,0.571273,0.300000
0.010000,0.165261,0.327878,0.441613,-1.109820,1.255600,-0.056649,-1.507673,-0.148965,-0.740689,0.306463,-1.864890,0.258759,0.155780,0.993636,0.000000,0.000000,0.085640,0.000000,-0.261800,0.003242,1.500000,0.200000,0.600000,0.600000,0.600000,0.550000,0.000000,0.200000,0.645909,0.567545,0.571636,0.300000
0.010000,0.165261,0.327878,0.441613,-1.109820,1.255600,-0.056649,-1.507673,-0.148965,-0.740762,0.306463,-1.864891,0.258759,0.155781,0.993697,0.000000,0.000000,0.085640,0.000000,-0.261800,0.003242,1.500000,0.200000,0.600000,0.600000,0.600000,0.550000,0.000000,0.200000,0.645000,0.567000,0.572000,0.300000
0.010000,0.165261,0.327878,0.441613,-1.109820,1.255600,-0.056649,-1.507673,-0.148965,-0.740835,0.306462,-1.864891,0.258758,0.155781,0.993758,0.000000,0.000000,0.085640,0.000000,-0.261800,0.003242,1.500000,0.200000,0.600000,0.600000,0.600000,0.550000,0.000000,0.200000,0.644091,0.566455,0.572364,0.300000
0.010000,0.165261,0.327878,0.441613,-1.109820,1.255600,-0.056649,-1.507673,-0.148965,-0.740908,0.306461,-1.864892,0.258758,0.155782,0.993818,0.000000,0.000000,0.085640,0.000000,-0.261800,0.003242,1.500000,0.200000,0.600000,0.600000,0.600000,0.550000,0.000000,0.200000,0.643182,0.565909,0.572727,0.300000
0.010000,0.165261,0.327878,0.441613,-1.109820,1.255600,-0.056649,-1.507673,-0.148965,-0.740981,0.306461,-1.864892,0.258757,0.155783,0.993879,0.000000,0.000000,0.085640,0.000000,-0.261800,0.003242,1.500000,0.200000,0.600000,0.600000,0.600000,0.550000,0.000000,0.200000,0.642273,0.565364,0.573091,0.300000
0.010000,0.165261,0.327878,0.441613,-1.109820,1.255600,-0.056649,-1.507673,-0.148965,-0.741054,0.306460,-1.864893,0.258757,0.155783,0.993940,0.000000,0.000000,0.085640,0.000000,-0.261800,0.003242,1.500000,0.200000,0.600000,0.600000,0.600000,0.550000,0.000000,0.200000,0.641364,0.564818,0.573455,0.300000
0.010000,0.165261,0.327878,0.441613,-1.109820,1.255600,-0.056649,-1.507673,-0.148965,-0.741127,0.306460,-1.864893,0.258756,0.155784,0.994001,0.000000,0.000000,0.085640,0.000000,-0.261800,0.003242,1.500000,0.200000,0.600000,0.600000,0.600000,0.550000,0.000000,0.200000,0.640455,0.564273,0.573818,0.300000
0.010000,0.165261,0.327878,0.441613,-1.109820,1.255600,-0.056649,-1.507673,-0.148965,-0.741201,0.306459,-1.864894,0.258756,0.155784,0.994062,0.000000,0.000000,0.085640,0.000000,-0.261800,0.003242,1.500000,0.200000,0.600000,0.600000,0.600000,0.550000,0.000000,0.200000,0.639545,0.563727,0.574182,0.300000
0.010000,0.165261,0.327878,0.441613,-1.109820,1.255600,-0.056649,-1.507673,-0.148965,-0.741274,0.306459,-1.864895,0.258755,0.155785,0.994123,0.000000,0.000000,0.085640,0.000000,-0.261800,0.003242,1.500000,0.200000,0.600000,0.600000,0.600000,0.550000,0.000000,0.200000,0.638636,0.563182,0.574545,0.300000
0.010000,0.165261,0.327878,0.441613,-1.109820,1.255600,-0.056649,-1.507673,-0.148965,-0.741347,0.306458,-1.864895,0.258755,0.155786,0.994184,0.000000,0.000000,0.085640,0.000000,-0.261800,0.003242,1.500000,0.200000,0.600000,0.600000,0.600000,0.550000,0.000000,0.200000,0.637727,0.562636,0.574909,0.300000
0.010000,0.165261,0.327878,0.441613,-1.109820,1.255600,-0.056649,-1.507673,-0.148965,-0.741420,0.306458,-1.864896,0.258755,0.155786,0.994244,0.000000,0.000000,0.085640,0.000000,-0.261800,0.003242,1.500000,0.200000,0.600000,0.600000,0.600000,0.550000,0.000000,0.200000,0.636818,0.562091,0.575273,0.300000
0.010000,0.165261,0.327878,0.441613,-1.109820,1.255600,-0.056649,-1.507673,-0.148965,-0.741493,0.306457,-1.864896,0.258754,0.155787,0.994305,0.000000,0.000000,0.085640,0.000000,-0.261800,0.003242,1.500000,0.200000,0.600000,0.600000,0.600000,0.550000,0.000000,0.200000,0.635909,0.561545,0.575636,0.300000
0.010000,0.165261,0.327878,0.441613,-1.109820,1.255600,-0.056649,-1.507673,-0.148965,-0.741566,0.306457,-1.864897,0.258754,0.155787,0.994366,0.000000,0.000000,0.085640,0.000000,-0.261800,0.003242,1.500000,0.200000,0.600000,0.600000,0.600000,0.550000,0.000000,0.200000,0.635000,0.561000,0.576000,0.300000
0.010000,0.165261,0.327878,0.441613,-1.109820,1.255600,-0.056649,-1.507673,-0.148965,-0.741639,0.306456,-1.864897,0.258753,0.155788,0.994427,0.000000,0.000000,0.085640,0.000000,-0.261800,0.003242,1.500000,0.200000,0.600000,0.600000,0.600000,0.550000,0.000000,0.200000,0.634091,0.560455,0.576364,0.300000
0.010000,0.165261,0.327878,0.441613,-1.109820,1.255600,-0.056649,-1.507673,-0.148965,-0.741712,0.306456,-1.864897,0.258753,0.155788,0.994488,0.000000,0.000000,0.085640,0.000000,-0.261800,0.003242,1.500000,0.200000,0.600000,0.600000,0.600000,0.550000,0.000000,0.200000,0.633182,0.559909,0.576727,0.300000
0.010000,0.165261,0.327878,0.441613,-1.109820,1.255600,-0.056649,-1.507673,-0.148965,-0.741785,0.306455,-1.864898,0.258752,0.155789,0.994549,0.000000,0.000000,0.085640,0.000000,-0.261800,0.003242,1.500000,0.200000,0.600000,0.600000,0.600000,0.550000,0.000000,0.200000,0.632273,0.559364,0.577091,0.300000
0.010000,0.165261,0.327878,0.441613,-1.109820,1.255600,-0.056649,-1.507673,-0.148965,-0.741858,0.306455,-1.864898,0.258752,0.155789,0.994609,0.000000,0.000000,0.085640,0.000000,-0.261800,0.003242,1.500000,0.200000,0.600000,0.600000,0.600000,0.550000,0.000000,0.200000,0.631364,0.558818,0.577455,0.300000
0.010000,0.165261,0.327878,0.441613,-1.109820,1.255600,-0.056649,-1.507673,-0.148965,-0.741931,0.306454,-1.864899,0.258752,0.155790,0.994670,0.000000,0.000000,0.085640,0.000000,-0.261800,0.003242,1.500000,0.200000,0.600000,0.600000,0.600000,0.550000,0.000000,0.200000,0.630455,0.558273,0.577818,0.300000
0.010000,0.165261,0.327878,0.441613,-1.109820,1.255600,-0.056649,-1.507673,-0.148965,-0.742004,0.306454,-1.864899,0.258751,0.155790,0.994731,0.000000,0.000000,0.085640,0.000000,-0.261800,0.003242,1.500000,0.200000,0.600000,0.600000,0.600000,0.550000,0.000000,0.200000,0.629545,0.557727,0.578182,0.300000
0.010000,0.165261,0.327878,0.441613,-1.109820,1.255600,-0.056649,-1.507673,-0.148965,-0.742077,0.306453,-1.864900,0.258751,0.155791,0.994792,0.000000,0.000000,0.085640,0.000000,-0.261800,0.003242,1.500000,0.200000,0.600000,0.600000,0.600000,0.550000,0.000000,0.200000,0.628636,0.557182,0.578545,0.300000
0.010000,0.165261,0.327878,0.441613,-1.109820,1.255600,-0.056649,-1.507673,-0.148965,-0.742150,0.306453,-1.864900,0.258751,0.155791,0.994852,0.000000,0.000000,0.085640,0.000000,-0.261800,0.003242,1.500000,0.200000,0.600000,0.600000,0.600000,0.550000,0.000000,0.200000,0.627727,0.556636,0.578909,0.300000
0.010000,0.165261,0.327878,0.441613,-1.109820,1.255600,-0.056649,-1.507673,-0.148965,-0.742223,0.306453,-1.864901,0.258750,0.155792,0.994913,0.000000,0.000000,0.085640,0.000000,-0.261800,0.003242,1.500000,0.200000,0.600000,0.600000,0.600000,0.550000,0.000000,0.200000,0.626818,0.556091,0.579273,0.300000
0.010000,0.165261,0.327878,0.441613,-1.109820,1.255600,-0.056649,-1.507673,-0.148965,-0.742296,0.306452,-1.864901,0.258750,0.155792,0.994974,0.000000,0.000000,0.085640,0.000000,-0.261800,0.003242,1.500000,0.200000,0.600000,0.600000,0.600000,0.550000,0.000000,0.200000,0.625909,0.555545,0.579636,0.300000
0.010000,0.165261,0.327878,0.441613,-1.109820,1.255600,-0.056649,-1.507673,-0.148965,-0.742369,0.306452,-1.864901,0.258750,0.155793,0.995035,0.000000,0.000000,0.085640,0.000000,-0.261800,0.003242,1.500000,0.200000,0.600000,0.600000,0.600000,0.550000,0.000000,0.200000,0.625000,0.555000,0.580000,0.300000
0.010000,0.165261,0.327878,0.441613,-1.109820,1.255600,-0.056649,-1.507673,-0.148965,-0.742442,0.306451,-1.864902,0.258749,0.155793,0.995096,0.000000,0.000000,0.085640,0.000000,-0.261800,0.003242,1.500000,0.200000,0.600000,0.600000,0.600000,0.550000,0.000000,0.200000,0.624091,0.554455,0.580364,0.300000
0.010000,0.165261,0.327878,0.441613,-1.109820,1.255600,-0.056649,-1.507673,-0.148965,-0.742515,0.306451,-1.864902,0.258749,0.155794,0.995156,0.000000,0.000000,0.085640,0.000000,-0.261800,0.003242,1.500000,0.200000,0.600000,0.600000,0.600000,0.550000,0.000000,0.200000,0.623182,0.553909,0.580727,0.300000
0.010000,0.165261,0.327878,0.441613,-1.109820,1.255600,-0.056649,-1.507673,-0.148965,-0.742588,0.306451,-1.864903,0.258748,0.155794,0.995217,0.000000,0.000000,0.085640,0.000000,-0.261800,0.003242,1.500000,0.200000,0.600000,0.600000,0.600000,0.550000,0.000000,0.200000,0.622273,0.553364,0.581091,0.300000
0.010000,0.165261,0.327878,0.441613,-1.109820,1.255600,-0.056649,-1.507673,-0.148965,-0.742661,0.306450,-1.864903,0.258748,0.155795,0.995278,0.000000,0.000000,0.085640,0.000000,-0.261800,0.003242,1.500000,0.200000,0.600000,0.600000,0.600000,0.550000,0.000000,0.200000,0.621364,0.552818,0.581455,0.300000
0.010000,0.165261,0.327878,0.441613,-1.109820,1.255600,-0.056649,-1.507673,-0.148965,-0.742734,0.306450,-1.864903,0.258748,0.155795,0.995338,0.000000,0.000000,0.085640,0.000000,-0.261800,0.003242,1.500000,0.200000,0.600000,0.600000,0.600000,0.550000,0.000000,0.200000,0.620455,0.552273,0.581818,0.300000
0.010000,0.165261,0.327878,0.441613,-1.109820,1.255600,-0.056649,-1.507673,-0.148965,-0.742807,0.306449,-1.864904,0.258748,0.155795,0.995399,0.000000,0.000000,0.085640,0.000000,-0.261800,0.003242,1.500000,0.200000,0.600000,0.600000,0.600000,0.550000,0.000000,0.200000,0.619545,0.551727,0.582182,0.300000
0.010000,0.165261,0.327878,0.441613,-1.109820,1.255600,-0.056649,-1.507673,-0.148965,-0.742880,0.306449,-1.864904,0.258747,0.155796,0.995460,0.000000,0.000000,0.085640,0.000000,-0.261800,0.003242,1.500000,0.200000,0.600000,0.600000,0.600000,0.550000,0.000000,0.200000,0.618636,0.551182,0.582545,0.300000
0.010000,0.165261,0.327878,0.441613,-1.109820,1.255600,-0.056649,-1.507673,-0.148965,-0.742953,0.306449,-1.864904,0.258747,0.155796,0.995521,0.000000,0.000000,0.085640,0.000000,-0.261800,0.003242,1.500000,0.200000,0.600000,0.600000,0.600000,0.550000,0.000000,0.200000,0.617727,0.550636,0.582909,0.300000
0.010000,0.165261,0.327878,0.441613,-1.109820,1.255600,-0.056649,-1.507673,-0.148965,-0.743026,0.306448,-1.864905,0.258747,0.155797,0.995581,0.000000,0.000000,0.085640,0.000000,-0.261800,0.003242,1.500000,0.200000,0.600000,0.600000,0.600000,0.550000,0.000000,0.200000,0.616818,0.550091,0.583273,0.300000
0.010000,0.165261,0.327878,0.441613,-1.109820,1.255600,-0.056649,-1.507673,-0.148965,-0.743099,0.306448,-1.864905,0.258746,0.155797,0.995642,0.000000,0.000000,0.085640,0.000000,-0.261800,0.003242,1.500000,0.200000,0.600000,0.600000,0.600000,0.550000,0.000000,0.200000,0.615909,0.549545,0.583636,0.300000
0.010000,0.165261,0.327878,0.441613,-1.109820,1.255600,-0.056649,-1.507673,-0.148965,-0.743172,0.306448,-1.864905,0.258746,0.155797,0.995703,0.000000,0.000000,0.085640,0.000000,-0.261800,0.003242,1.500000,0.200000,0.600000,0.600000,0.600000,0.550000,0.000000,0.200000,0.615000,0.549000,0.584000,0.300000
0.010000,0.165261,0.327878,0.441613,-1.109820,1.255600,-0.056649,-1.507673,-0.148965,-0.743245,0.306447,-1.864906,0.258746,0.155798,0.995763,0.000000,0.000000,0.085640,0.000000,-0.261800,0.003242,1.500000,0.200000,0.600000,0.600000,0.600000,0.550000,0.000000,0.200000,0.614091,0.548455,0.584364,0.300000
0.010000,0.165261,0.327878,0.441613,-1.109820,1.255600,-0.056649,-1.507673,-0.148964,-0.743317,0.306447,-1.864906,0.258746,0.155798,0.995824,0.000000,0.000000,0.085640,0.000000,-0.261800,0.003242,1.500000,0.200000,0.600000,0.600000,0.600000,0.550000,0.000000,0.200000,0.613182,0.547909,0.584727,0.300000
0.010000,0.165261,0.327878,0.441613,-1.109820,1.255600,-0.056649,-1.507673,-0.148964,-0.743390,0.306447,-1.864906,0.258745,0.155798,0.995885,0.000000,0.000000,0.085640,0.000000,-0.261800,0.003242,1.500000,0.200000,0.600000,0.600000,0.600000,0.550000,0.000000,0.200000,0.612273,0.547364,0.585091,0.300000
0.010000,0.165261,0.327878,0.441613,-1.109820,1.255600,-0.056649,-1.507673,-0.148964,-0.743463,0.306447,-1.864907,0.258745,0.155799,0.995945,0.000000,0.000000,0.085640,0.000000,-0.261800,0.003242,1.500000,0.200000,0.600000,0.600000,0.600000,0.550000,0.000000,0.200000,0.611364,0.546818,0.585455,0.300000
0.010000,0.165261,0.327878,0.441613,-1.109820,1.255600,-0.056649,-1.507673,-0.148964,-0.743536,0.306446,-1.864907,0.258745,0.155799,0.996006,0.000000,0.000000,0.085640,0.000000,-0.261800,0.003242,1.500000,0.200000,0.600000,0.600000,0.600000,0.550000,0.000000,0.200000,0.610455,0.546273,0.585818,0.300000
0.010000,0.165261,0.327878,0.441613,-1.109820,1.255600,-0.056649,-1.507673,-0.148964,-0.743609,0.306446,-1.864907,0.258744,0.155799,0.996066,0.000000,0.000000,0.085640,0.000000,-0.261800,0.003242,1.500000,0.200000,0.600000,0.600000,0.600000,0.550000,0.000000,0.200000,0.609545,0.545727,0.586182,0.300000
0.010000,0.165261,0.327878,0.441613,-1.109820,1.255600,-0.056649,-1.507673,-0.148964,-0.743682,0.306446,-1.864907,0.258744,0.155800,0.996127,0.000000,0.000000,0.085640,0.000000,-0.261800,0.003242,1.500000,0.200000,0.600000,0.600000,0.600000,0.550000,0.000000,0.200000,0.608636,0.545182,0.586545,0.300000
0.010000,0.165261,0.327878,0.441613,-1.109820,1.255600,-0.056649,-1.507673,-0.148964,-0.743755,0.306445,-1.864908,0.258744,0.155800,0.996188,0.000000,0.000000,0.085640,0.000000,-0.261800,0.003242,1.500000,0.200000,0.600000,0.600000,0.600000,0.550000,0.000000,0.200000,0.607727,0.544636,0.586909,0.300000
0.010000,0.165261,0.327878,0.441613,-1.109820,1.255600,-0.056649,-1.507673,-0.148964,-0.743828,0.306445,-1.864908,0.258744,0.155800,0.996248,0.000000,0.000000,0.085640,0.000000,-0.261800,0.003242,1.500000,0.200000,0.600000,0.600000,0.600000,0.550000,0.000000,0.200000,0.606818,0.544091,0.587273,0.300000
0.010000,0.165261,0.327878,0.441613,-1.109820,1.255600,-0.056649,-1.507673,-0.148964,-0.743901,0.306445,-1.864908,0.258744,0.155801,0.996309,0.000000,0.000000,0.085640,0.000000,-0.261800,0.003242,1.500000,0.200000,0.600000,0.600000,0.600000,0.550000,0.000000,0.200000,0.605909,0.543545,0.587636,0.300000
0.010000,0.165261,0.327878,0.441613,-1.109820,1.255600,-0.056649,-1.507673,-0.148964,-0.743974,0.306445,-1.864908,0.258743,0.155801,0.996370,0.000000,0.000000,0.085640,0.000000,-0.261800,0.003242,1.500000,0.200000,0.600000,0.600000,0.600000,0.550000,0.000000,0.200000,0.605000,0.543000,0.588000,0.300000
0.010000,0.165261,0.327878,0.441613,-1.109820,1.255600,-0.056649,-1.507673,-0.148964,-0.744047,0.306444,-1.864909,0.258743,0.155801,0.996430,0.000000,0.000000,0.085640,0.000000,-0.261800,0.003242,1.500000,0.200000,0.600000,0.600000,0.600000,0.550000,0.000000,0.200000,0.604091,0.542455,0.588364,0.300000
0.010000,0.165261,0.327878,0.441613,-1.109820,1.255600,-0.056649,-1.507673,-0.148964,-0.744119,0.306444,-1.864909,0.258743,0.155801,0.996491,0.000000,0.000000,0.085640,0.000000,-0.261800,0.003242,1.500000,0.200000,0.600000,0.600000,0.600000,0.550000,0.000000,0.200000,0.603182,0.541909,0.588727,0.300000
0.010000,0.165261,0.327878,0.441613,-1.109820,1.255600,-0.056649,-1.507673,-0.148964,-0.744192,0.306444,-1.864909,0.258743,0.155802,0.996551,0.000000,0.000000,0.085640,0.000000,-0.261800,0.003242,1.500000,0.200000,0.600000,0.600000,0.600000,0.550000,0.000000,0.200000,0.602273,0.541364,0.589091,0.300000
0.010000,0.165261,0.327878,0.441613,-1.109820,1.255600,-0.056649,-1.507673,-0.148964,-0.744265,0.306444,-1.864909,0.258743,0.155802,0.996612,0.000000,0.000000,0.085640,0.000000,-0.261800,0.003242,1.500000,0.200000,0.600000,0.600000,0.600000,0.550000,0.000000,0.200000,0.601364,0.540818,0.589455,0.300000
0.010000,0.165261,0.327878,0.441613,-1.109820,1.255600,-0.056649,-1.507673,-0.148964,-0.744338,0.306443,-1.864909,0.258742,0.155802,0.996672,0.000000,0.000000,0.085640,0.000000,-0.261800,0.003242,1.500000,0.200000,0.600000,0.600000,0.600000,0.550000,0.000000,0.200000,0.600455,0.540273,0.589818,0.300000
0.010000,0.165261,0.327878,0.441613,-1.109820,1.255600,-0.056649,-1.507673,-0.148964,-0.744411,0.306443,-1.864910,0.258742,0.155802,0.996733,0.000000,0.000000,0.085640,0.000000,-0.261800,0.003242,1.500000,0.200000,0.600000,0.600000,0.600000,0.550000,0.000000,0.200000,0.599545,0.539727,0.590182,0.300000
0.010000,0.165261,0.327878,0.441613,-1.109820,1.255600,-0.056649,-1.507673,-0.148964,-0.744484,0.306443,-1.864910,0.258742,0.155803,0.996794,0.000000,0.000000,0.085640,0.000000,-0.261800,0.003242,1.500000,0.200000,0.600000,0.600000,0.600000,0.550000,0.000000,0.200000,0.598636,0.539182,0.590545,0.300000
0.010000,0.165261,0.327878,0.441613,-1.109820,1.255600,-0.056649,-1.507673,-0.148964,-0.744557,0.306443,-1.864910,0.258742,0.155803,0.996854,0.000000,0.000000,0.085640,0.000000,-0.261800,0.003242,1.500000,0.200000,0.600000,0.600000,0.600000,0.550000,0.000000,0.200000,0.597727,0.538636,0.590909,0.300000
0.010000,0.165261,0.327878,0.441613,-1.109820,1.255600,-0.056649,-1.507673,-0.148964,-0.744629,0.306443,-1.864910,0.258742,0.155803,0.996915,0.000000,0.000000,0.085640,0.000000,-0.261800,0.003242,1.500000,0.200000,0.600000,0.600000,0.600000,0.550000,0.000000,0.200000,0.596818,0.538091,0.591273,0.300000
0.010000,0.165261,0.327878,0.441613,-1.109820,1.255600,-0.056649,-1.507673,-0.148964,-0.744702,0.306443,-1.864910,0.258742,0.155803,0.996975,0.000000,0.000000,0.085640,0.000000,-0.261800,0.003242,1.500000,0.200000,0.600000,0.600000,0.600000,0.550000,0.000000,0.200000,0.595909,0.537545,0.591636,0.300000
0.010000,0.165261,0.327878,0.441613,-1.109820,1.255600,-0.056649,-1.507673,-0.148964,-0.744775,0.306442,-1.864911,0.258741,0.155803,0.997036,0.000000,0.000000,0.085640,0.000000,-0.261800,0.003242,1.500000,0.200000,0.600000,0.600000,0.600000,0.550000,0.000000,0.200000,0.595000,0.537000,0.592000,0.300000
0.010000,0.165261,0.327878,0.441613,-1.109820,1.255600,-0.056649,-1.507673,-0.148964,-0.744848,0.306442,-1.864911,0.258741,0.155803,0.997096,0.000000,0.000000,0.085640,0.000000,-0.261800,0.003242,1.500000,0.200000,0.600000,0.600000,0.600000,0.550000,0.000000,0.200000,0.594091,0.536455,0.592364,0.300000
0.010000,0.165261,0.327878,0.441613,-1.109820,1.255600,-0.056649,-1.507673,-0.148964,-0.744921,0.306442,-1.864911,0.258741,0.155804,0.997157,0.000000,0.000000,0.085640,0.000000,-0.261800,0.003242,1.500000,0.200000,0.600000,0.600000,0.600000,0.550000,0.000000,0.200000,0.593182,0.535909,0.592727,0.300000
0.010000,0.165261,0.327878,0.441613,-1.109820,1.255600,-0.056649,-1.507673,-0.148964,-0.744994,0.306442,-1.864911,0.258741,0.155804,0.997217,0.000000,0.000000,0.085640,0.000000,-0.261800,0.003242,1.500000,0.200000,0.600000,0.600000,0.600000,0.550000,0.000000,0.200000,0.592273,0.535364,0.593091,0.300000
0.010000,0.165261,0.327878,0.441613,-1.109820,1.255600,-0.056649,-1.507673,-0.148964,-0.745066,0.306442,-1.864911,0.258741,0.155804,0.997278,0.000000,0.000000,0.085640,0.000000,-0.261800,0.003242,1.500000,0.200000,0.600000,0.600000,0.600000,0.550000,0.000000,0.200000,0.591364,0.534818,0.593455,0.300000
0.010000,0.165261,0.327878,0.441613,-1.109820,1.255600,-0.056649,-1.507673,-0.148964,-0.745139,0.306442,-1.864911,0.258741,0.155804,0.997338,0.000000,0.000000,0.085640,0.000000,-0.261800,0.003242,1.500000,0.200000,0.600000,0.600000,0.600000,0.550000,0.000000,0.200000,0.590455,0.534273,0.593818,0.300000
0.010000,0.165261,0.327878,0.441613,-1.109820,1.255600,-0.056649,-1.507673,-0.148964,-0.745212,0.306441,-1.864911,0.258741,0.155804,0.997399,0.000000,0.000000,0.085640,0.000000,-0.261800,0.003242,1.500000,0.200000,0.600000,0.600000,0.600000,0.550000,0.000000,0.200000,0.589545,0.533727,0.594182,0.300000
0.010000,0.165261,0.327878,0.441613,-1.109820,1.255600,-0.056649,-1.507673,-0.148964,-0.745285,0.306441,-1.864911,0.258741,0.155804,0.997459,0.000000,0.000000,0.085640,0.000000,-0.261800,0.003242,1.500000,0.200000,0.600000,0.600000,0.600000,0.550000,0.000000,0.200000,0.588636,0.533182,0.594545,0.300000
0.010000,0.165261,0.327878,0.441613,-1.109820,1.255600,-0.056649,-1.507673,-0.148964,-0.745358,0.306441,-1.864912,0.258741,0.155804,0.997520,0.000000,0.000000,0.085640,0.000000,-0.261800,0.003242,1.500000,0.200000,0.600000,0.600000,0.600000,0.550000,0.000000,0.200000,0.587727,0.532636,0.594909,0.300000
0.010000,0.165261,0.327878,0.441613,-1.109820,1.255600,-0.056649,-1.507673,-0.148964,-0.745430,0.306441,-1.864912,0.258740,0.155805,0.997580,0.000000,0.000000,0.085640,0.000000,-0.261800,0.003242,1.500000,0.200000,0.600000,0.600000,0.600000,0.550000,0.000000,0.200000,0.586818,0.532091,0.595273,0.300000
0.010000,0.165261,0.327878,0.441613,-1.109820,1.255600,-0.056649,-1.507673,-0.148964,-0.745503,0.306441,-1.864912,0.258740,0.155805,0.997640,0.000000,0.000000,0.085640,0.000000,-0.261800,0.003242,1.500000,0.200000,0.600000,0.600000,0.600000,0.550000,0.000000,0.200000,0.585909,0.531545,0.595636,0.300000
0.010000,0.165261,0.327878,0.441613,-1.109820,1.255600,-0.056649,-1.507673,-0.148964,-0.745576,0.306441,-1.864912,0.258740,0.155805,0.997701,0.000000,0.000000,0.085640,0.000000,-0.261800,0.003242,1.500000,0.200000,0.600000,0.600000,0.600000,0.550000,0.000000,0.200000,0.585000,0.531000,0.596000,0.300000
0.010000,0.165261,0.327878,0.441613,-1.109820,1.255600,-0.056649,-1.507673,-0.148964,-0.745649,0.306441,-1.864912,0.258740,0.155805,0.997761,0.000000,0.000000,0.085640,0.000000,-0.261800,0.003242,1.500000,0.200000,0.600000,0.600000,0.600000,0.550000,0.000000,0.200000,0.584091,0.530455,0.596364,0.300000
0.010000,0.165261,0.327878,0.441613,-1.109820,1.255600,-0.056649,-1.507673,-0.148964,-0.745721,0.306441,-1.864912,0.258740,0.155805,0.997822,0.000000,0.000000,0.085640,0.000000,-0.261800,0.003242,1.500000,0.200000,0.600000,0.600000,0.600000,0.550000,0.000000,0.200000,0.583182,0.529909,0.596727,0.300000
0.010000,0.165261,0.327878,0.441613,-1.109820,1.255600,-0.056649,-1.507673,-0.148964,-0.745794,0.306441,-1.864912,0.258740,0.155805,0.997882,0.000000,0.000000,0.085640,0.000000,-0.261800,0.003242,1.500000,0.200000,0.600000,0.600000,0.600000,0.550000,0.000000,0.200000,0.582273,0.529364,0.597091,0.300000
0.010000,0.165261,0.327878,0.441613,-1.109820,1.255600,-0.056649,-1.507673,-0.148964,-0.745867,0.306441,-1.864912,0.258740,0.155805,0.997943,0.000000,0.000000,0.085640,0.000000,-0.261800,0.003242,1.500000,0.200000,0.600000,0.600000,0.600000,0.550000,0.000000,0.200000,0.581364,0.528818,0.597455,0.300000
0.010000,0.165261,0.327878,0.441613,-1.109820,1.255600,-0.056649,-1.507673,-0.148964,-0.745940,0.306441,-1.864912,0.258740,0.155805,0.998003,0.000000,0.000000,0.085640,0.000000,-0.261800,0.003242,1.500000,0.200000,0.600000,0.600000,0.600000,0.550000,0.000000,0.200000,0.580455,0.528273,0.597818,0.300000
0.010000,0.165261,0.327878,0.441613,-1.109820,1.255600,-0.056649,-1.507673,-0.148964,-0.746013,0.306441,-1.864912,0.258740,0.155805,0.998063,0.000000,0.000000,0.085640,0.000000,-0.261800,0.003242,1.500000,0.200000,0.600000,0.600000,0.600000,0.550000,0.000000,0.200000,0.579545,0.527727,0.598182,0.300000
0.010000,0.165261,0.327878,0.441613,-1.109820,1.255600,-0.056649,-1.507673,-0.148964,-0.746085,0.306441,-1.864912,0.258740,0.155805,0.998124,0.000000,0.000000,0.085640,0.000000,-0.261800,0.003242,1.500000,0.200000,0.600000,0.600000,0.600000,0.550000,0.000000,0.200000,0.578636,0.527182,0.598545,0.300000
0.010000,0.165261,0.327878,0.441613,-1.109820,1.255600,-0.056649,-1.507673,-0.148964,-0.746158,0.306441,-1.864912,0.258740,0.155805,0.998184,0.000000,0.000000,0.085640,0.000000,-0.261800,0.003242,1.500000,0.200000,0.600000,0.600000,0.600000,0.550000,0.000000,0.200000,0.577727,0.526636,0.598909,0.300000
0.010000,0.165261,0.327878,0.441613,-1.109820,1.255600,-0.056649,-1.507673,-0.148964,-0.746231,0.306440,-1.864912,0.258740,0.155805,0.998245,0.000000,0.000000,0.085640,0.000000,-0.261800,0.003242,1.500000,0.200000,0.600000,0.600000,0.600000,0.550000,0.000000,0.200000,0.576818,0.526091,0.599273,0.300000
0.010000,0.165261,0.327878,0.441613,-1.109820,1.255600,-0.056649,-1.507673,-0.148964,-0.746303,0.306440,-1.864912,0.258740,0.155805,0.998305,0.000000,0.000000,0.085640,0.000000,-0.261800,0.003242,1.500000,0.200000,0.600000,0.600000,0.600000,0.550000,0.000000,0.200000,0.575909,0.525545,0.599636,0.300000
0.010000,0.165261,0.327878,0.441613,-1.109820,1.255600,-0.056649,-1.507673,-0.148964,-0.746376,0.306440,-1.864912,0.258740,0.155805,0.998365,0.000000,0.000000,0.085640,0.000000,-0.261800,0.003242,1.500000,0.200000,0.600000,0.600000,0.600000,0.550000,0.000000,0.200000,0.575000,0.525000,0.600000,0.300000
0.010000,0.165261,0.327878,0.441613,-1.109820,1.255600,-0.056649,-1.507673,-0.148964,-0.746449,0.306440,-1.864912,0.258740,0.155805,0.998426,0.000000,0.000000,0.085640,0.000000,-0.261800,0.003242,1.500000,0.200000,0.600000,0.600000,0.600000,0.550000,0.000000,0.200000,0.574091,0.524455,0.600364,0.300000
0.010000,0.165261,0.327878,0.441613,-1.109820,1.255600,-0.056649,-1.507673,-0.148964,-0.746522,0.306440,-1.864912,0.258740,0.155805,0.998486,0.000000,0.000000,0.085640,0.000000,-0.261800,0.003242,1.500000,0.200000,0.600000,0.600000,0.600000,0.550000,0.000000,0.200000,0.573182,0.523909,0.600727,0.300000
0.010000,0.165261,0.327878,0.441613,-1.109820,1.255600,-0.056649,-1.507673,-0.148964,-0.746594,0.306440,-1.864912,0.258740,0.155805,0.998546,0.000000,0.000000,0.085640,0.000000,-0.261800,0.003242,1.500000,0.200000,0.600000,0.600000,0.600000,0.550000,0.000000,0.200000,0.572273,0.523364,0.601091,0.300000
0.010000,0.165261,0.327878,0.441613,-1.109820,1.255600,-0.056649,-1.507673,-0.148964,-0.746667,0.306441,-1.864912,0.258740,0.155805,0.998607,0.000000,0.000000,0.085640,0.000000,-0.261800,0.003242,1.500000,0.200000,0.600000,0.600000,0.600000,0.550000,0.000000,0.200000,0.571364,0.522818,0.601455,0.300000
0.010000,0.165261,0.327878,0.441613,-1.109820,1.255600,-0.056649,-1.507673,-0.148964,-0.746740,0.306441,-1.864912,0.258740,0.155805,0.998667,0.000000,0.000000,0.085640,0.000000,-0.261800,0.003242,1.500000,0.200000,0.600000,0.600000,0.600000,0.550000,0.000000,0.200000,0.570455,0.522273,0.601818,0.300000
0.010000,0.165261,0.327878,0.441613,-1.109820,1.255600,-0.056649,-1.507673,-0.148964,-0.746812,0.306441,-1.864912,0.258740,0.155805,0.998727,0.000000,0.000000,0.085640,0.000000,-0.261800,0.003242,1.500000,0.200000,0.600000,0.600000,0.600000,0.550000,0.000000,0.200000,0.569545,0.521727,0.602182,0.300000
0.010000,0.165261,0.327878,0.441613,-1.109820,1.255600,-0.056649,-1.507673,-0.148964,-0.746885,0.306441,-1.864912,0.258740,0.155805,0.998788,0.000000,0.000000,0.085640,0.000000,-0.261800,0.003242,1.500000,0.200000,0.600000,0.600000,0.600000,0.550000,0.000000,0.200000,0.568636,0.521182,0.602545,0.300000
0.010000,0.165261,0.327878,0.441613,-1.109820,1.255600,-0.056649,-1.507673,-0.148964,-0.746958,0.306441,-1.864912,0.258740,0.155805,0.998848,0.000000,0.000000,0.085640,0.000000,-0.261800,0.003242,1.500000,0.200000,0.600000,0.600000,0.600000,0.550000,0.000000,0.200000,0.567727,0.520636,0.602909,0.300000
0.010000,0.165261,0.327878,0.441613,-1.109820,1.255600,-0.056649,-1.507673,-0.148964,-0.747031,0.306441,-1.864912,0.258740,0.155805,0.998908,0.000000,0.000000,0.085640,0.000000,-0.261800,0.003242,1.500000,0.200000,0.600000,0.600000,0.600000,0.550000,0.000000,0.200000,0.566818,0.520091,0.603273,0.300000
0.010000,0.165261,0.327878,0.441613,-1.109820,1.255600,-0.056649,-1.507673,-0.148964,-0.747103,0.306441,-1.864912,0.258740,0.155805,0.998969,0.000000,0.000000,0.085640,0.000000,-0.261800,0.003242,1.500000,0.200000,0.600000,0.600000,0.600000,0.550000,0.000000,0.200000,0.565909,0.519545,0.603636,0.300000
0.010000,0.165261,0.327878,0.441613,-1.109820,1.255600,-0.056649,-1.507673,-0.148964,-0.747176,0.306441,-1.864912,0.258740,0.155805,0.999029,0.000000,0.000000,0.085640,0.000000,-0.261800,0.003242,1.500000,0.200000,0.600000,0.600000,0.600000,0.550000,0.000000,0.200000,0.565000,0.519000,0.604000,0.300000
0.010000,0.165261,0.327878,0.441613,-1.109820,1.255600,-0.056649,-1.507673,-0.148964,-0.747249,0.306441,-1.864912,0.258740,0.155805,0.999089,0.000000,0.000000,0.085640,0.000000,-0.261800,0.003242,1.500000,0.200000,0.600000,0.600000,0.600000,0.550000,0.000000,0.200000,0.564091,0.518455,0.604364,0.300000
0.010000,0.165261,0.327878,0.441613,-1.109820,1.255600,-0.056649,-1.507673,-0.148964,-0.747321,0.306441,-1.864912,0.258740,0.155804,0.999150,0.000000,0.000000,0.085640,0.000000,-0.261800,0.003242,1.500000,0.200000,0.600000,0.600000,0.600000,0.550000,0.000000,0.200000,0.563182,0.517909,0.604727,0.300000
0.010000,0.165261,0.327878,0.441613,-1.109820,1.255600,-0.056649,-1.507673,-0.148964,-0.747394,0.306441,-1.864911,0.258741,0.155804,0.999210,0.000000,0.000000,0.085640,0.000000,-0.261800,0.003242,1.500000,0.200000,0.600000,0.600000,0.600000,0.550000,0.000000,0.200000,0.562273,0.517364,0.605091,0.300000
0.010000,0.165261,0.327878,0.441613,-1.109820,1.255600,-0.056649,-1.507673,-0.148964,-0.747467,0.306441,-1.864911,0.258741,0.155804,0.999270,0.000000,0.000000,0.085640,0.000000,-0.261800,0.003242,1.500000,0.200000,0.600000,0.600000,0.600000,0.550000,0.000000,0.200000,0.561364,0.516818,0.605455,0.300000
0.010000,0.165261,0.327878,0.441613,-1.109820,1.255600,-0.056649,-1.507673,-0.148964,-0.747539,0.306441,-1.864911,0.258741,0.155804,0.999330,0.000000,0.000000,0.085640,0.000000,-0.261800,0.003242,1.500000,0.200000,0.600000,0.600000,0.600000,0.550000,0.000000,0.200000,0.560455,0.516273,0.605818,0.300000
0.010000,0.165261,0.327878,0.441613,-1.109820,1.255600,-0.056649,-1.507673,-0.148964,-0.747612,0.306441,-1.864911,0.258741,0.155804,0.999391,0.000000,0.000000,0.085640,0.000000,-0.261800,0.003242,1.500000,0.200000,0.600000,0.600000,0.600000,0.550000,0.000000,0.200000,0.559545,0.515727,0.606182,0.300000
0.010000,0.165261,0.327878,0.441613,-1.109820,1.255600,-0.056649,-1.507673,-0.148964,-0.747685,0.306442,-1.864911,0.258741,0.155804,0.999451,0.000000,0.000000,0.085640,0.000000,-0.261800,0.003242,1.500000,0.200000,0.600000,0.600000,0.600000,0.550000,0.000000,0.200000,0.558636,0.515182,0.606545,0.300000
0.010000,0.165261,0.327878,0.441613,-1.109820,1.255600,-0.056649,-1.507673,-0.148964,-0.747757,0.306442,-1.864911,0.258741,0.155804,0.999511,0.000000,0.000000,0.085640,0.000000,-0.261800,0.003242,1.500000,0.200000,0.600000,0.600000,0.600000,0.550000,0.000000,0.200000,0.557727,0.514636,0.606909,0.300000
0.010000,0.165261,0.327878,0.441613,-1.109820,1.255600,-0.056649,-1.507673,-0.148964,-0.747830,0.306442,-1.864911,0.258741,0.155803,0.999571,0.000000,0.000000,0.085640,0.000000,-0.261800,0.003242,1.500000,0.200000,0.600000,0.600000,0.600000,0.550000,0.000000,0.200000,0.556818,0.514091,0.607273,0.300000
0.010000,0.165261,0.327878,0.441613,-1.109820,1.255600,-0.056649,-1.507673,-0.148964,-0.747902,0.306442,-1.864911,0.258741,0.155803,0.999632,0.000000,0.000000,0.085640,0.000000,-0.261800,0.003242,1.500000,0.200000,0.600000,0.600000,0.600000,0.550000,0.000000,0.200000,0.555909,0.513545,0.607636,0.300000
0.010000,0.165261,0.327878,0.441613,-1.109820,1.255600,-0.056649,-1.507673,-0.148964,-0.747975,0.306442,-1.864910,0.258741,0.155803,0.999692,0.000000,0.000000,0.085640,0.000000,-0.261800,0.003242,1.500000,0.200000,0.600000,0.600000,0.600000,0.550000,0.000000,0.200000,0.555000,0.513000,0.608000,0.300000
0.010000,0.165261,0.327878,0.441613,-1.109820,1.255600,-0.056649,-1.507673,-0.148964,-0.748048,0.306442,-1.864910,0.258742,0.155803,0.999752,0.000000,0.000000,0.085640,0.000000,-0.261800,0.003242,1.500000,0.200000,0.600000,0.600000,0.600000,0.550000,0.000000,0.200000,0.554091,0.512455,0.608364,0.300000
0.010000,0.165261,0.327878,0.441613,-1.109820,1.255600,-0.056649,-1.507673,-0.148964,-0.748120,0.306442,-1.864910,0.258742,0.155803,0.999812,0.000000,0.000000,0.085640,0.000000,-0.261800,0.003242,1.500000,0.200000,0.600000,0.600000,0.600000,0.550000,0.000000,0.200000,0.553182,0.511909,0.608727,0.300000
0.010000,0.165261,0.327878,0.441613,-1.109820,1.255600,-0.056649,-1.507673,-0.148964,-0.748193,0.306443,-1.864910,0.258742,0.155802,0.999872,0.000000,0.000000,0.085640,0.000000,-0.261800,0.003242,1.500000,0.200000,0.600000,0.600000,0.600000,0.550000,0.000000,0.200000,0.552273,0.511364,0.609091,0.300000
0.010000,0.165261,0.327878,0.441613,-1.109820,1.255600,-0.056649,-1.507673,-0.148964,-0.748265,0.306443,-1.864910,0.258742,0.155802,0.999933,0.000000,0.000000,0.085640,0.000000,-0.261800,0.003242,1.500000,0.200000,0.600000,0.600000,0.600000,0.550000,0.000000,0.200000,0.551364,0.510818,0.609455,0.300000
0.010000,0.165261,0.327878,0.441613,-1.109820,1.255600,-0.056649,-1.507673,-0.148964,-0.748338,0.306443,-1.864909,0.258742,0.155802,0.999993,0.000000,0.000000,0.085640,0.000000,-0.261800,0.003242,1.500000,0.200000,0.600000,0.600000,0.600000,0.550000,0.000000,0.200000,0.550455,0.510273,0.609818,0.300000
0.010000,0.165261,0.327878,0.441613,-1.109820,1.255600,-0.056649,-1.507673,-0.148964,-0.748411,0.306443,-1.864909,0.258742,0.155802,1.000053,0.000000,0.000000,0.085640,0.000000,-0.261800,0.003242,1.500000,0.200000,0.600000,0.600000,0.600000,0.550000,0.000000,0.200000,0.549545,0.509727,0.610182,0.300000
0.010000,0.165261,0.327878,0.441613,-1.109820,1.255600,-0.056649,-1.507673,-0.148964,-0.748483,0.306443,-1.864909,0.258743,0.155802,1.000113,0.000000,0.000000,0.085640,0.000000,-0.261800,0.003242,1.500000,0.200000,0.600000,0.600000,0.600000,0.550000,0.000000,0.200000,0.548636,0.509182,0.610545,0.300000
0.010000,0.165261,0.327878,0.441613,-1.109820,1.255600,-0.056649,-1.507673,-0.148964,-0.748556,0.306444,-1.864909,0.258743,0.155801,1.000173,0.000000,0.000000,0.085640,0.000000,-0.261800,0.003242,1.500000,0.200000,0.600000,0.600000,0.600000,0.550000,0.000000,0.200000,0.547727,0.508636,0.610909,0.300000
0.010000,0.165261,0.327878,0.441613,-1.109820,1.255600,-0.056649,-1.507673,-0.148964,-0.748628,0.306444,-1.864909,0.258743,0.155801,1.000233,0.000000,0.000000,0.085640,0.000000,-0.261800,0.003242,1.500000,0.200000,0.600000,0.600000,0.600000,0.550000,0.000000,0.200000,0.546818,0.508091,0.611273,0.300000
0.010000,0.165261,0.327878,0.441613,-1.109820,1.255600,-0.056649,-1.507673,-0.148964,-0.748701,0.306444,-1.864908,0.258743,0.155801,1.000294,0.000000,0.000000,0.085640,0.000000,-0.261800,0.003242,1.500000,0.200000,0.600000,0.600000,0.600000,0.550000,0.000000,0.200000,0.545909,0.507545,0.611636,0.300000
0.010000,0.165261,0.327878,0.441613,-1.109820,1.255600,-0.056649,-1.507673,-0.148964,-0.748774,0.306444,-1.864908,0.258743,0.155800,1.000354,0.000000,0.000000,0.085640,0.000000,-0.261800,0.003242,1.500000,0.200000,0.600000,0.600000,0.600000,0.550000,0.000000,0.200000,0.545000,0.507000,0.612000,0.300000
0.010000,0.165261,0.327878,0.441613,-1.109820,1.255600,-0.056649,-1.507673,-0.148964,-0.748846,0.306445,-1.864908,0.258744,0.155800,1.000414,0.000000,0.000000,0.085640,0.000000,-0.261800,0.003242,1.500000,0.200000,0.600000,0.600000,0.600000,0.550000,0.000000,0.200000,0.544091,0.506455,0.612364,0.300000
0.010000,0.165261,0.327878,0.441613,-1.109820,1.255600,-0.056649,-1.507673,-0.148964,-0.748919,0.306445,-1.864908,0.258744,0.155800,1.000474,0.000000,0.000000,0.085640,0.000000,-0.261800,0.003242,1.500000,0.200000,0.600000,0.600000,0.600000,0.550000,0.000000,0.200000,0.543182,0.505909,0.612727,0.300000
0.010000,0.165261,0.327878,0.441613,-1.109820,1.255600,-0.056649,-1.507673,-0.148964,-0.748991,0.306445,-1.864907,0.258744,0.155800,1.000534,0.000000,0.000000,0.085640,0.000000,-0.261800,0.003242,1.500000,0.200000,0.600000,0.600000,0.600000,0.550000,0.000000,0.200000,0.542273,0.505364,0.613091,0.300000
0.010000,0.165261,0.327878,0.441613,-1.109820,1.255600,-0.056649,-1.507673,-0.148964,-0.749064,0.306445,-1.864907,0.258744,0.155799,1.000594,0.000000,0.000000,0.085640,0.000000,-0.261800,0.003242,1.500000,0.200000,0.600000,0.600000,0.600000,0.550000,0.000000,0.200000,0.541364,0.504818,0.613455,0.300000
0.010000,0.165261,0.327878,0.441613,-1.109820,1.255600,-0.056649,-1.507673,-0.148964,-0.749136,0.306446,-1.864907,0.258745,0.155799,1.000654,0.000000,0.000000,0.085640,0.000000,-0.261800,0.003242,1.500000,0.200000,0.600000,0.600000,0.600000,0.550000,0.000000,0.200000,0.540455,0.504273,0.613818,0.300000
0.010000,0.165261,0.327878,0.441613,-1.109820,1.255600,-0.056649,-1.507673,-0.148964,-0.749209,0.306446,-1.864907,0.258745,0.155799,1.000714,0.000000,0.000000,0.085640,0.000000,-0.261800,0.003242,1.500000,0.200000,0.600000,0.600000,0.600000,0.550000,0.000000,0.200000,0.539545,0.503727,0.614182,0.300000
0.010000,0.165261,0.327878,0.441613,-1.109820,1.255600,-0.056649,-1.507673,-0.148964,-0.749281,0.306446,-1.864906,0.258745,0.155798,1.000775,0.000000,0.000000,0.085640,0.000000,-0.261800,0.003242,1.500000,0.200000,0.600000,0.600000,0.600000,0.550000,0.000000,0.200000,0.538636,0.503182,0.614545,0.300000
0.010000,0.165261,0.327878,0.441613,-1.109820,1.255600,-0.056649,-1.507673,-0.148964,-0.749354,0.306446,-1.864906,0.258745,0.155798,1.000835,0.000000,0.000000,0.085640,0.000000,-0.261800,0.003242,1.500000,0.200000,0.600000,0.600000,0.600000,0.550000,0.000000,0.200000,0.537727,0.502636,0.614909,0.300000
0.010000,0.165261,0.327878,0.441613,-1.109820,1.255600,-0.056649,-1.507673,-0.148964,-0.749426,0.306447,-1.864906,0.258746,0.155798,1.000895,0.000000,0.000000,0.085640,0.000000,-0.261800,0.003242,1.500000,0.200000,0.600000,0.600000,0.600000,0.550000,0.000000,0.200000,0.536818,0.502091,0.615273,0.300000
0.010000,0.165261,0.327878,0.441613,-1.109820,1.255600,-0.056649,-1.507673,-0.148964,-0.749499,0.306447,-1.864905,0.258746,0.155797,1.000955,0.000000,0.000000,0.085640,0.000000,-0.261800,0.003242,1.500000,0.200000,0.600000,0.600000,0.600000,0.550000,0.000000,0.200000,0.535909,0.501545,0.615636,0.300000
0.010000,0.165261,0.327878,0.441613,-1.109820,1.255600,-0.056649,-1.507673,-0.148964,-0.749572,0.306447,-1.864905,0.258746,0.155797,1.001015,0.000000,0.000000,0.085640,0.000000,-0.261800,0.003242,1.500000,0.200000,0.600000,0.600000,0.600000,0.550000,0.000000,0.200000,0.535000,0.501000,0.616000,0.300000
0.010000,0.165261,0.327878,0.441613,-1.109820,1.255600,-0.056649,-1.507673,-0.148964,-0.749644,0.306448,-1.864905,0.258746,0.155797,1.001075,0.000000,0.000000,0.085640,0.000000,-0.261800,0.003242,1.500000,0.200000,0.600000,0.600000,0.600000,0.550000,0.000000,0.200000,0.534091,0.500455,0.616364,0.300000
0.010000,0.165261,0.327878,0.441613,-1.109820,1.255600,-0.056649,-1.507673,-0.148964,-0.749717,0.306448,-1.864904,0.258747,0.155796,1.001135,0.000000,0.000000,0.085640,0.000000,-0.261800,0.003242,1.500000,0.200000,0.600000,0.600000,0.600000,0.550000,0.000000,0.200000,0.533182,0.499909,0.616727,0.300000
0.010000,0.165261,0.327878,0.441613,-1.109820,1.255600,-0.056649,-1.507673,-0.148964,-0.749789,0.306448,-1.864904,0.258747,0.155796,1.001195,0.000000,0.000000,0.085640,0.000000,-0.261800,0.003242,1.500000,0.200000,0.600000,0.600000,0.600000,0.550000,0.000000,0.200000,0.532273,0.499364,0.617091,0.300000
0.010000,0.165261,0.327878,0.441613,-1.109820,1.255600,-0.056649,-1.507673,-0.148964,-0.749862,0.306449,-1.864904,0.258747,0.155795,1.001255,0.000000,0.000000,0.085640,0.000000,-0.261800,0.003242,1.500000,0.200000,0.600000,0.600000,0.600000,0.550000,0.000000,0.200000,0.531364,0.498818,0.617455,0.300000
0.010000,0.165261,0.327878,0.441613,-1.109820,1.255600,-0.056649,-1.507673,-0.148964,-0.749934,0.306449,-1.864903,0.258748,0.155795,1.001315,0.000000,0.000000,0.085640,0.000000,-0.261800,0.003242,1.500000,0.200000,0.600000,0.600000,0.600000,0.550000,0.000000,0.200000,0.530455,0.498273,0.617818,0.300000
0.010000,0.165261,0.327878,0.441613,-1.109820,1.255600,-0.056649,-1.507673,-0.148964,-0.750007,0.306449,-1.864903,0.258748,0.155795,1.001375,0.000000,0.000000,0.085640,0.000000,-0.261800,0.003242,1.500000,0.200000,0.600000,0.600000,0.600000,0.550000,0.000000,0.200000,0.529545,0.497727,0.618182,0.300000
0.010000,0.165261,0.327878,0.441613,-1.109820,1.255600,-0.056649,-1.507673,-0.148964,-0.750079,0.306450,-1.864903,0.258748,0.155794,1.001435,0.000000,0.000000,0.085640,0.000000,-0.261800,0.003242,1.500000,0.200000,0.600000,0.600000,0.600000,0.550000,0.000000,0.200000,0.528636,0.497182,0.618545,0.300000
0.010000,0.165261,0.327878,0.441613,-1.109820,1.255600,-0.056649,-1.507673,-0.148964,-0.750152,0.306450,-1.864902,0.258749,0.155794,1.001495,0.000000,0.000000,0.085640,0.000000,-0.261800,0.003242,1.500000,0.200000,0.600000,0.600000,0.600000,0.550000,0.000000,0.200000,0.527727,0.496636,0.618909,0.300000
0.010000,0.165261,0.327878,0.441613,-1.109820,1.255600,-0.056649,-1.507673,-0.148964,-0.750224,0.306451,-1.864902,0.258749,0.155793,1.001555,0.000000,0.000000,0.085640,0.000000,-0.261800,0.003242,1.500000,0.200000,0.600000,0.600000,0.600000,0.550000,0.000000,0.200000,0.526818,0.496091,0.619273,0.300000
0.010000,0.165261,0.327878,0.441613,-1.109820,1.255600,-0.056649,-1.507673,-0.148964,-0.750296,0.306451,-1.864901,0.258749,0.155793,1.001615,0.000000,0.000000,0.085640,0.000000,-0.261800,0.003242,1.500000,0.200000,0.600000,0.600000,0.600000,0.550000,0.000000,0.200000,0.525909,0.495545,0.619636,0.300000
0.010000,0.165261,0.327878,0.441613,-1.109820,1.255600,-0.056649,-1.507673,-0.148964,-0.750369,0.306451,-1.864901,0.258750,0.155792,1.001675,0.000000,0.000000,0.085640,0.000000,-0.261800,0.003242,1.500000,0.200000,0.600000,0.600000,0.600000,0.550000,0.000000,0.200000,0.525000,0.495000,0.620000,0.300000
0.010000,0.165261,0.327878,0.441613,-1.109820,1.255600,-0.056649,-1.507673,-0.148964,-0.750441,0.306452,-1.864901,0.258750,0.155792,1.001735,0.000000,0.000000,0.085640,0.000000,-0.261800,0.003242,1.500000,0.200000,0.600000,0.600000,0.600000,0.550000,0.000000,0.200000,0.524091,0.494455,0.620364,0.300000
0.010000,0.165261,0.327878,0.441613,-1.109820,1.255600,-0.056649,-1.507673,-0.148964,-0.750514,0.306452,-1.864900,0.258750,0.155791,1.001795,0.000000,0.000000,0.085640,0.000000,-0.261800,0.003242,1.500000,0.200000,0.600000,0.600000,0.600000,0.550000,0.000000,0.200000,0.523182,0.493909,0.620727,0.300000
0.010000,0.165261,0.327878,0.441613,-1.109820,1.255600,-0.056649,-1.507673,-0.148964,-0.750586,0.306453,-1.864900,0.258751,0.155791,1.001855,0.000000,0.000000,0.085640,0.000000,-0.261800,0.003242,1.500000,0.200000,0.600000,0.600000,0.600000,0.550000,0.000000,0.200000,0.522273,0.493364,0.621091,0.300000
0.010000,0.165261,0.327878,0.441613,-1.109820,1.255600,-0.056649,-1.507673,-0.148964,-0.750659,0.306453,-1.864899,0.258751,0.155790,1.001915,0.000000,0.000000,0.085640,0.000000,-0.261800,0.003242,1.500000,0.200000,0.600000,0.600000,0.600000,0.550000,0.000000,0.200000,0.521364,0.492818,0.621455,0.300000
0.010000,0.165261,0.327878,0.441613,-1.109820,1.255600,-0.056649,-1.507673,-0.148964,-0.750731,0.306453,-1.864899,0.258751,0.155790,1.001975,0.000000,0.000000,0.085640,0.000000,-0.261800,0.003242,1.500000,0.200000,0.600000,0.600000,0.600000,0.550000,0.000000,0.200000,0.520455,0.492273,0.621818,0.300000
0.010000,0.165261,0.327878,0.441613,-1.109820,1.255600,-0.056649,-1.507673,-0.148964,-0.750804,0.306454,-1.864898,0.258752,0.155789,1.002035,0.000000,0.000000,0.085640,0.000000,-0.261800,0.003242,1.500000,0.200000,0.600000,0.600000,0.600000,0.550000,0.000000,0.200000,0.519545,0.491727,0.622182,0.300000
0.010000,0.165261,0.327878,0.441613,-1.109820,1.255600,-0.056649,-1.507673,-0.148964,-0.750876,0.306454,-1.864898,0.258752,0.155789,1.002095,0.000000,0.000000,0.085640,0.000000,-0.261800,0.003242,1.500000,0.200000,0.600000,0.600000,0.600000,0.550000,0.000000,0.200000,0.518636,0.491182,0.622545,0.300000
0.010000,0.165261,0.327878,0.441613,-1.109820,1.255600,-0.056649,-1.507673,-0.148964,-0.750948,0.306455,-1.864897,0.258753,0.155788,1.002155,0.000000,0.000000,0.085640,0.000000,-0.261800,0.003242,1.500000,0.200000,0.600000,0.600000,0.600000,0.550000,0.000000,0.200000,0.517727,0.490636,0.622909,0.300000
0.010000,0.165261,0.327878,0.441613,-1.109820,1.255600,-0.056649,-1.507673,-0.148964,-0.751021,0.306455,-1.864897,0.258753,0.155788,1.002215,0.000000,0.000000,0.085640,0.000000,-0.261800,0.003242,1.500000,0.200000,0.600000,0.600000,0.600000,0.550000,0.000000,0.200000,0.516818,0.490091,0.623273,0.300000
0.010000,0.165261,0.327878,0.441613,-1.109820,1.255600,-0.056649,-1.507673,-0.148964,-0.751093,0.306456,-1.864897,0.258753,0.155787,1.002275,0.000000,0.000000,0.085640,0.000000,-0.261800,0.003242,1.500000,0.200000,0.600000,0.600000,0.600000,0.550000,0.000000,0.200000,0.515909,0.489545,0.623636,0.300000
0.010000,0.165261,0.327878,0.441613,-1.109820,1.255600,-0.056649,-1.507673,-0.148964,-0.751166,0.306456,-1.864896,0.258754,0.155787,1.002335,0.000000,0.000000,0.085640,0.000000,-0.261800,0.003242,1.500000,0.200000,0.600000,0.600000,0.600000,0.550000,0.000000,0.200000,0.515000,0.489000,0.624000,0.300000
0.010000,0.165261,0.327878,0.441613,-1.109820,1.255600,-0.056649,-1.507673,-0.148964,-0.751238,0.306457,-1.864896,0.258754,0.155786,1.002394,0.000000,0.000000,0.085640,0.000000,-0.261800,0.003242,1.500000,0.200000,0.600000,0.600000,0.600000,0.550000,0.000000,0.200000,0.514091,0.488455,0.624364,0.300000
0.010000,0.165261,0.327878,0.441613,-1.109820,1.255600,-0.056649,-1.507673,-0.148964,-0.751311,0.306457,-1.864895,0.258755,0.155786,1.002454,0.000000,0.000000,0.085640,0.000000,-0.261800,0.003242,1.500000,0.200000,0.600000,0.600000,0.600000,0.550000,0.000000,0.200000,0.513182,0.487909,0.624727,0.300000
0.010000,0.165261,0.327878,0.441613,-1.109820,1.255600,-0.056649,-1.507673,-0.148964,-0.751383,0.306458,-1.864895,0.258755,0.155785,1.002514,0.000000,0.000000,0.085640,0.000000,-0.261800,0.003242,1.500000,0.200000,0.600000,0.600000,0.600000,0.550000,0.000000,0.200000,0.512273,0.487364,0.625091,0.300000
0.010000,0.165261,0.327878,0.441613,-1.109820,1.255600,-0.056649,-1.507673,-0.148964,-0.751455,0.306458,-1.864894,0.258756,0.155784,1.002574,0.000000,0.000000,0.085640,0.000000,-0.261800,0.003242,1.500000,0.200000,0.600000,0.600000,0.600000,0.550000,0.000000,0.200000,0.511364,0.486818,0.625455,0.300000
0.010000,0.165261,0.327878,0.441613,-1.109820,1.255600,-0.056649,-1.507673,-0.148965,-0.751528,0.306459,-1.864894,0.258756,0.155784,1.002634,0.000000,0.000000,0.085640,0.000000,-0.261800,0.003242,1.500000,0.200000,0.600000,0.600000,0.600000,0.550000,0.000000,0.200000,0.510455,0.486273,0.625818,0.300000
0.010000,0.165261,0.327878,0.441613,-1.109820,1.255600,-0.056649,-1.507673,-0.148965,-0.751600,0.306459,-1.864893,0.258756,0.155783,1.002694,0.000000,0.000000,0.085640,0.000000,-0.261800,0.003242,1.500000,0.200000,0.600000,0.600000,0.600000,0.550000,0.000000,0.200000,0.509545,0.485727,0.626182,0.300000
0.010000,0.165261,0.327878,0.441613,-1.109820,1.255600,-0.056649,-1.507673,-0.148965,-0.751673,0.306460,-1.864893,0.258757,0.155783,1.002754,0.000000,0.000000,0.085640,0.000000,-0.261800,0.003242,1.500000,0.200000,0.600000,0.600000,0.600000,0.550000,0.000000,0.200000,0.508636,0.485182,0.626545,0.300000
0.010000,0.165261,0.327878,0.441613,-1.109820,1.255600,-0.056649,-1.507673,-0.148965,-0.751745,0.306460,-1.864892,0.258757,0.155782,1.002814,0.000000,0.000000,0.085640,0.000000,-0.261800,0.003242,1.500000,0.200000,0.600000,0.600000,0.600000,0.550000,0.000000,0.200000,0.507727,0.484636,0.626909,0.300000
0.010000,0.165261,0.327878,0.441613,-1.109820,1.255600,-0.056649,-1.507673,-0.148965,-0.751817,0.306461,-1.864891,0.258758,0.155781,1.002873,0.000000,0.000000,0.085640,0.000000,-0.261800,0.003242,1.500000,0.200000,0.600000,0.600000,0.600000,0.550000,0.000000,0.200000,0.506818,0.484091,0.627273,0.300000
0.010000,0.165261,0.327878,0.441613,-1.109820,1.255600,-0.056649,-1.507673,-0.148965,-0.751890,0.306461,-1.864891,0.258758,0.155781,1.002933,0.000000,0.000000,0.085640,0.000000,-0.261800,0.003242,1.500000,0.200000,0.600000,0.600000,0.600000,0.550000,0.000000,0.200000,0.505909,0.483545,0.627636,0.300000
0.010000,0.165261,0.327878,0.441613,-1.109820,1.255600,-0.056649,-1.507673,-0.148965,-0.751962,0.306462,-1.864890,0.258759,0.155780,1.002993,0.000000,0.000000,0.085640,0.000000,-0.261800,0.003242,1.500000,0.200000,0.600000,0.600000,0.600000,0.550000,0.000000,0.200000,0.505000,0.483000,0.628000,0.300000
0.010000,0.165261,0.327878,0.441613,-1.109820,1.255600,-0.056649,-1.507673,-0.148965,-0.752034,0.306463,-1.864890,0.258759,0.155779,1.003053,0.000000,0.000000,0.085640,0.000000,-0.261800,0.003242,1.500000,0.200000,0.600000,0.600000,0.600000,0.550000,0.000000,0.200000,0.504091,0.482455,0.628364,0.300000
0.010000,0.165261,0.327878,0.441613,-1.109820,1.255600,-0.056649,-1.507673,-0.148965,-0.752107,0.306463,-1.864889,0.258760,0.155779,1.003113,0.000000,0.000000,0.085640,0.000000,-0.261800,0.003242,1.500000,0.200000,0.600000,0.600000,0.600000,0.550000,0.000000,0.200000,0.503182,0.481909,0.628727,0.300000
0.010000,0.165261,0.327878,0.441613,-1.109820,1.255600,-0.056649,-1.507673,-0.148965,-0.752179,0.306464,-1.864889,0.258760,0.155778,1.003173,0.000000,0.000000,0.085640,0.000000,-0.261800,0.003242,1.500000,0.200000,0.600000,0.600000,0.600000,0.550000,0.000000,0.200000,0.502273,0.481364,0.629091,0.300000
0.010000,0.165261,0.327878,0.441613,-1.109820,1.255600,-0.056649,-1.507673,-0.148965,-0.752251,0.306464,-1.864888,0.258761,0.155777,1.003232,0.000000,0.000000,0.085640,0.000000,-0.261800,0.003242,1.500000,0.200000,0.600000,0.600000,0.600000,0.550000,0.000000,0.200000,0.501364,0.480818,0.629455,0.300000
0.010000,0.165261,0.327878,0.441613,-1.109820,1.255600,-0.056649,-1.507673,-0.148965,-0.752324,0.306465,-1.864887,0.258761,0.155777,1.003292,0.000000,0.000000,0.085640,0.000000,-0.261800,0.003242,1.500000,0.200000,0.600000,0.600000,0.600000,0.550000,0.000000,0.200000,0.500455,0.480273,0.629818,0.300000
0.010000,0.165261,0.327878,0.441613,-1.109820,1.255600,-0.056649,-1.507673,-0.148965,-0.752396,0.306466,-1.864887,0.258762,0.155776,1.003352,0.000000,0.000000,0.085640,0.000000,-0.261800,0.003242,1.500000,0.200000,0.600000,0.600000,0.600000,0.550000,0.000000,0.200000,0.499545,0.479727,0.630182,0.300000
0.010000,0.165261,0.327878,0.441613,-1.109820,1.255600,-0.056649,-1.507673,-0.148965,-0.752468,0.306466,-1.864886,0.258762,0.155775,1.003412,0.000000,0.000000,0.085640,0.000000,-0.261800,0.003242,1.500000,0.200000,0.600000,0.600000,0.600000,0.550000,0.000000,0.200000,0.498636,0.479182,0.630545,0.300000
0.010000,0.165261,0.327878,0.441613,-1.109820,1.255600,-0.056649,-1.507673,-0.148965,-0.752541,0.306467,-1.864886,0.258763,0.155775,1.003472,0.000000,0.000000,0.085640,0.000000,-0.261800,0.003242,1.500000,0.200000,0.600000,0.600000,0.600000,0.550000,0.000000,0.200000,0.497727,0.478636,0.630909,0.300000
0.010000,0.165261,0.327878,0.441613,-1.109820,1.255600,-0.056649,-1.507673,-0.148965,-0.752613,0.306467,-1.864885,0.258763,0.155774,1.003531,0.000000,0.000000,0.085640,0.000000,-0.261800,0.003242,1.500000,0.200000,0.600000,0.600000,0.600000,0.550000,0.000000,0.200000,0.496818,0.478091,0.631273,0.300000
0.010000,0.165261,0.327878,0.441613,-1.109820,1.255600,-0.056649,-1.507673,-0.148965,-0.752685,0.306468,-1.864884,0.258764,0.155773,1.003591,0.000000,0.000000,0.085640,0.000000,-0.261800,0.003242,1.500000,0.200000,0.600000,0.600000,0.600000,0.550000,0.000000,0.200000,0.495909,0.477545,0.631636,0.300000
0.010000,0.165261,0.327878,0.441613,-1.109820,1.255600,-0.056649,-1.507673,-0.148965,-0.752758,0.306469,-1.864884,0.258765,0.155772,1.003651,0.000000,0.000000,0.085640,0.000000,-0.261800,0.003242,1.500000,0.200000,0.600000,0.600000,0.600000,0.550000,0.000000,0.200000,0.495000,0.477000,0.632000,0.300000
0.010000,0.165261,0.327878,0.441613,-1.109820,1.255600,-0.056649,-1.507673,-0.148965,-0.752830,0.306469,-1.864883,0.258765,0.155772,1.003711,0.000000,0.000000,0.085640,0.000000,-0.261800,0.003242,1.500000,0.200000,0.600000,0.600000,0.600000,0.550000,0.000000,0.200000,0.494091,0.476455,0.632364,0.300000
0.010000,0.165261,0.327878,0.441613,-1.109820,1.255600,-0.056649,-1.507673,-0.148965,-0.752902,0.306470,-1.864882,0.258766,0.155771,1.003770,0.000000,0.000000,0.085640,0.000000,-0.261800,0.003242,1.500000,0.200000,0.600000,0.600000,0.600000,0.550000,0.000000,0.200000,0.493182,0.475909,0.632727,0.300000
0.010000,0.165261,0.327878,0.441613,-1.109820,1.255600,-0.056649,-1.507673,-0.148965,-0.752975,0.306471,-1.864882,0.258766,0.155770,1.003830,0.000000,0.000000,0.085640,0.000000,-0.261800,0.003242,1.500000,0.200000,0.600000,0.600000,0.600000,0.550000,0.000000,0.200000,0.492273,0.475364,0.633091,0.300000
0.010000,0.165261,0.327878,0.441613,-1.109820,1.255600,-0.056649,-1.507673,-0.148965,-0.753047,0.306471,-1.864881,0.258767,0.155769,1.003890,0.000000,0.000000,0.085640,0.000000,-0.261800,0.003242,1.500000,0.200000,0.600000,0.600000,0.600000,0.550000,0.000000,0.200000,0.491364,0.474818,0.633455,0.300000
0.010000,0.165261,0.327878,0.441613,-1.109820,1.255600,-0.056649,-1.507673,-0.148965,-0.753119,0.306472,-1.864880,0.258767,0.155769,1.003949,0.000000,0.000000,0.085640,0.000000,-0.261800,0.003242,1.500000,0.200000,0.600000,0.600000,0.600000,0.550000,0.000000,0.200000,0.490455,0.474273,0.633818,0.300000
0.010000,0.165261,0.327878,0.441613,-1.109820,1.255600,-0.056649,-1.507673,-0.148965,-0.753191,0.306473,-1.864880,0.258768,0.155768,1.004009,0.000000,0.000000,0.085640,0.000000,-0.261800,0.003242,1.500000,0.200000,0.600000,0.600000,0.600000,0.550000,0.000000,0.200000,0.489545,0.473727,0.634182,0.300000
0.010000,0.165261,0.327878,0.441613,-1.109820,1.255600,-0.056649,-1.507673,-0.148965,-0.753264,0.306473,-1.864879,0.258769,0.155767,1.004069,0.000000,0.000000,0.085640,0.000000,-0.261800,0.003242,1.500000,0.200000,0.600000,0.600000,0.600000,0.550000,0.000000,0.200000,0.488636,0.473182,0.634545,0.300000
0.010000,0.165261,0.327878,0.441613,-1.109820,1.255600,-0.056649,-1.507673,-0.148965,-0.753336,0.306474,-1.864878,0.258769,0.155766,1.004129,0.000000,0.000000,0.085640,0.000000,-0.261800,0.003242,1.500000,0.200000,0.600000,0.600000,0.600000,0.550000,0.000000,0.200000,0.487727,0.472636,0.634909,0.300000
0.010000,0.165261,0.327878,0.441613,-1.109820,1.255600,-0.056649,-1.507673,-0.148965,-0.753408,0.306475,-1.864878,0.258770,0.155766,1.004188,0.000000,0.000000,0.085640,0.000000,-0.261800,0.003242,1.500000,0.200000,0.600000,0.600000,0.600000,0.550000,0.000000,0.200000,0.486818,0.472091,0.635273,0.300000
0.010000,0.165261,0.327878,0.441613,-1.109820,1.255600,-0.056649,-1.507673,-0.148965,-0.753480,0.306476,-1.864877,0.258770,0.155765,1.004248,0.000000,0.000000,0.085640,0.000000,-0.261800,0.003242,1.500000,0.200000,0.600000,0.600000,0.600000,0.550000,0.000000,0.200000,0.485909,0.471545,0.635636,0.300000
0.010000,0.165261,0.327878,0.441613,-1.109820,1.255600,-0.056649,-1.507673,-0.148965,-0.753553,0.306476,-1.864876,0.258771,0.155764,1.004308,0.000000,0.000000,0.085640,0.000000,-0.261800,0.003242,1.500000,0.200000,0.600000,0.600000,0.600000,0.550000,0.000000,0.200000,0.485000,0.471000,0.636000,0.300000
0.010000,0.165261,0.327878,0.441613,-1.109820,1.255600,-0.056649,-1.507673,-0.148965,-0.753625,0.306477,-1.864875,0.258772,0.155763,1.004367,0.000000,0.000000,0.085640,0.000000,-0.261800,0.003242,1.500000,0.200000,0.600000,0.600000,0.600000,0.550000,0.000000,0.200000,0.484091,0.470455,0.636364,0.300000
0.010000,0.165261,0.327878,0.441613,-1.109820,1.255600,-0.056649,-1.507673,-0.148965,-0.753697,0.306478,-1.864875,0.258772,0.155762,1.004427,0.000000,0.000000,0.085640,0.000000,-0.261800,0.003242,1.500000,0.200000,0.600000,0.600000,0.600000,0.550000,0.000000,0.200000,0.483182,0.469909,0.636727,0.300000
0.010000,0.165261,0.327878,0.441613,-1.109820,1.255600,-0.056649,-1.507673,-0.148965,-0.753769,0.306479,-1.864874,0.258773,0.155761,1.004487,0.000000,0.000000,0.085640,0.000000,-0.261800,0.003242,1.500000,0.200000,0.600000,0.600000,0.600000,0.550000,0.000000,0.200000,0.482273,0.469364,0.637091,0.300000
0.010000,0.165261,0.327878,0.441613,-1.109820,1.255600,-0.056649,-1.507673,-0.148965,-0.753842,0.306479,-1.864873,0.258774,0.155761,1.004546,0.000000,0.000000,0.085640,0.000000,-0.261800,0.003242,1.500000,0.200000,0.600000,0.600000,0.600000,0.550000,0.000000,0.200000,0.481364,0.468818,0.637455,0.300000
0.010000,0.165261,0.327878,0.441613,-1.109820,1.255600,-0.056649,-1.507673,-0.148965,-0.753914,0.306480,-1.864872,0.258774,0.155760,1.004606,0.000000,0.000000,0.085640,0.000000,-0.261800,0.003242,1.500000,0.200000,0.600000,0.600000,0.600000,0.550000,0.000000,0.200000,0.480455,0.468273,0.637818,0.300000
0.010000,0.165261,0.327878,0.441613,-1.109820,1.255600,-0.056649,-1.507673,-0.148965,-0.753985,0.306481,-1.864872,0.258775,0.155759,1.004665,0.000000,0.000000,0.085640,0.000000,-0.261800,0.003242,1.500000,0.200000,0.600000,0.600000,0.600000,0.550000,0.000000,0.200000,0.479559,0.467735,0.638176,0.300000
0.010000,0.165261,0.327878,0.441613,-1.109820,1.255600,-0.056649,-1.507673,-0.148965,-0.754055,0.306482,-1.864871,0.258776,0.155758,1.004723,0.000000,0.000000,0.085640,0.000000,-0.261800,0.003242,1.500000,0.200000,0.600000,0.600000,0.600000,0.550000,0.000000,0.200000,0.478676,0.467206,0.638529,0.300000
0.010000,0.165261,0.327878,0.441613,-1.109820,1.255600,-0.056649,-1.507673,-0.148965,-0.754124,0.306482,-1.864870,0.258776,0.155757,1.004780,0.000000,0.000000,0.085640,0.000000,-0.261800,0.003242,1.500000,0.200000,0.600000,0.600000,0.600000,0.550000,0.000000,0.200000,0.477807,0.466684,0.638877,0.300000
0.010000,0.165261,0.327878,0.441613,-1.109820,1.255600,-0.056649,-1.507673,-0.148965,-0.754192,0.306483,-1.864869,0.258777,0.155756,1.004836,0.000000,0.000000,0.085640,0.000000,-0.261800,0.003242,1.500000,0.200000,0.600000,0.600000,0.600000,0.550000,0.000000,0.200000,0.476952,0.466171,0.639219,0.300000
0.010000,0.165261,0.327878,0.441613,-1.109820,1.255600,-0.056649,-1.507673,-0.148965,-0.754259,0.306484,-1.864869,0.258778,0.155755,1.004891,0.000000,0.000000,0.085640,0.000000,-0.261800,0.003242,1.500000,0.200000,0.600000,0.600000,0.600000,0.550000,0.000000,0.200000,0.476110,0.465666,0.639556,0.300000
0.010000,0.165261,0.327878,0.441613,-1.109820,1.255600,-0.056649,-1.507673,-0.148965,-0.754325,0.306485,-1.864868,0.258778,0.155755,1.004945,0.000000,0.000000,0.085640,0.000000,-0.261800,0.003242,1.500000,0.200000,0.600000,0.600000,0.600000,0.550000,0.000000,0.200000,0.475281,0.465168,0.639888,0.300000
0.010000,0.165261,0.327878,0.441613,-1.109820,1.255600,-0.056649,-1.507673,-0.148965,-0.754390,0.306485,-1.864867,0.258779,0.155754,1.004999,0.000000,0.000000,0.085640,0.000000,-0.261800,0.003242,1.500000,0.200000,0.600000,0.600000,0.600000,0.550000,0.000000,0.200000,0.474465,0.464679,0.640214,0.300000
0.010000,0.165261,0.327878,0.441613,-1.109820,1.255600,-0.056649,-1.507673,-0.148965,-0.754453,0.306486,-1.864867,0.258779,0.155753,1.005051,0.000000,0.000000,0.085640,0.000000,-0.261800,0.003242,1.500000,0.200000,0.600000,0.600000,0.600000,0.550000,0.000000,0.200000,0.473663,0.464198,0.640535,0.300000
0.010000,0.165261,0.327878,0.441613,-1.109820,1.255600,-0.056649,-1.507673,-0.148965,-0.754516,0.306487,-1.864866,0.258780,0.155752,1.005103,0.000000,0.000000,0.085640,0.000000,-0.261800,0.003242,1.500000,0.200000,0.600000,0.600000,0.600000,0.550000,0.000000,0.200000,0.472874,0.463725,0.640850,0.300000
0.010000,0.165261,0.327878,0.441613,-1.109820,1.255600,-0.056649,-1.507673,-0.148965,-0.754578,0.306487,-1.864865,0.258781,0.155751,1.005154,0.000000,0.000000,0.085640,0.000000,-0.261800,0.003242,1.500000,0.200000,0.600000,0.600000,0.600000,0.550000,0.000000,0.200000,0.472099,0.463259,0.641160,0.300000
0.010000,0.165261,0.327878,0.441613,-1.109820,1.255600,-0.056649,-1.507673,-0.148965,-0.754638,0.306488,-1.864864,0.258781,0.155751,1.005204,0.000000,0.000000,0.085640,0.000000,-0.261800,0.003242,1.500000,0.200000,0.600000,0.600000,0.600000,0.550000,0.000000,0.200000,0.471337,0.462802,0.641465,0.300000
0.010000,0.165261,0.327878,0.441613,-1.109820,1.255600,-0.056649,-1.507673,-0.148965,-0.754698,0.306489,-1.864864,0.258782,0.155750,1.005253,0.000000,0.000000,0.085640,0.000000,-0.261800,0.003242,1.500000,0.200000,0.600000,0.600000,0.600000,0.550000,0.000000,0.200000,0.470588,0.462353,0.641765,0.300000
0.010000,0.165261,0.327878,0.441613,-1.109820,1.255600,-0.056649,-1.507673,-0.148965,-0.754756,0.306490,-1.864863,0.258782,0.155749,1.005301,0.000000,0.000000,0.085640,0.000000,-0.261800,0.003242,1.500000,0.200000,0.600000,0.600000,0.600000,0.550000,0.000000,0.200000,0.469853,0.461912,0.642059,0.300000
0.010000,0.165261,0.327878,0.441613,-1.109820,1.255600,-0.056649,-1.507673,-0.148965,-0.754813,0.306490,-1.864862,0.258783,0.155748,1.005348,0.000000,0.000000,0.085640,0.000000,-0.261800,0.003242,1.500000,0.200000,0.600000,0.600000,0.600000,0.550000,0.000000,0.200000,0.469131,0.461479,0.642348,0.300000
0.010000,0.165261,0.327878,0.441613,-1.109820,1.255600,-0.056649,-1.507673,-0.148965,-0.754870,0.306491,-1.864862,0.258784,0.155747,1.005395,0.000000,0.000000,0.085640,0.000000,-0.261800,0.003242,1.500000,0.200000,0.600000,0.600000,0.600000,0.550000,0.000000,0.200000,0.468422,0.461053,0.642631,0.300000
0.010000,0.165261,0.327878,0.441613,-1.109820,1.255600,-0.056649,-1.507673,-0.148965,-0.754925,0.306492,-1.864861,0.258784,0.155747,1.005440,0.000000,0.000000,0.085640,0.000000,-0.261800,0.003242,1.500000,0.200000,0.600000,0.600000,0.600000,0.550000,0.000000,0.200000,0.467727,0.460636,0.642909,0.300000
0.010000,0.165261,0.327878,0.441613,-1.109820,1.255600,-0.056649,-1.507673,-0.148965,-0.754979,0.306492,-1.864860,0.258785,0.155746,1.005485,0.000000,0.000000,0.085640,0.000000,-0.261800,0.003242,1.500000,0.200000,0.600000,0.600000,0.600000,0.550000,0.000000,0.200000,0.467045,0.460227,0.643182,0.300000
0.010000,0.165261,0.327878,0.441613,-1.109820,1.255600,-0.056649,-1.507673,-0.148965,-0.755032,0.306493,-1.864860,0.258785,0.155745,1.005529,0.000000,0.000000,0.085640,0.000000,-0.261800,0.003242,1.500000,0.200000,0.600000,0.600000,0.600000,0.550000,0.000000,0.200000,0.466377,0.459826,0.643449,0.300000
0.010000,0.165261,0.327878,0.441613,-1.109820,1.255600,-0.056649,-1.507673,-0.148965,-0.755084,0.306493,-1.864859,0.258786,0.155745,1.005572,0.000000,0.000000,0.085640,0.000000,-0.261800,0.003242,1.500000,0.200000,0.600000,0.600000,0.600000,0.550000,0.000000,0.200000,0.465722,0.459433,0.643711,0.300000
0.010000,0.165261,0.327878,0.441613,-1.109820,1.255600,-0.056649,-1.507673,-0.148965,-0.755135,0.306494,-1.864859,0.258786,0.155744,1.005614,0.000000,0.000000,0.085640,0.000000,-0.261800,0.003242,1.500000,0.200000,0.600000,0.600000,0.600000,0.550000,0.000000,0.200000,0.465080,0.459048,0.643968,0.300000
0.010000,0.165261,0.327878,0.441613,-1.109820,1.255600,-0.056649,-1.507673,-0.148965,-0.755185,0.306495,-1.864858,0.258787,0.155743,1.005655,0.000000,0.000000,0.085640,0.000000,-0.261800,0.003242,1.500000,0.200000,0.600000,0.600000,0.600000,0.550000,0.000000,0.200000,0.464452,0.458671,0.644219,0.300000
0.010000,0.165261,0.327878,0.441613,-1.109820,1.255600,-0.056649,-1.507673,-0.148965,-0.755233,0.306495,-1.864857,0.258787,0.155742,1.005695,0.000000,0.000000,0.085640,0.000000,-0.261800,0.003242,1.500000,0.200000,0.600000,0.600000,0.600000,0.550000,0.000000,0.200000,0.463837,0.458302,0.644465,0.300000
0.010000,0.165261,0.327878,0.441613,-1.109820,1.255600,-0.056649,-1.507673,-0.148965,-0.755281,0.306496,-1.864857,0.258788,0.155742,1.005734,0.000000,0.000000,0.085640,0.000000,-0.261800,0.003242,1.500000,0.200000,0.600000,0.600000,0.600000,0.550000,0.000000,0.200000,0.463235,0.457941,0.644706,0.300000
0.010000,0.165261,0.327878,0.441613,-1.109820,1.255600,-0.056649,-1.507673,-0.148965,-0.755328,0.306497,-1.864856,0.258788,0.155741,1.005773,0.000000,0.000000,0.085640,0.000000,-0.261800,0.003242,1.500000,0.200000,0.600000,0.600000,0.600000,0.550000,0.000000,0.200000,0.462647,0.457588,0.644941,0.300000
0.010000,0.165261,0.327878,0.441613,-1.109820,1.255600,-0.056649,-1.507673,-0.148965,-0.755374,0.306497,-1.864856,0.258789,0.155740,1.005811,0.000000,0.000000,0.085640,0.000000,-0.261800,0.003242,1.500000,0.200000,0.600000,0.600000,0.600000,0.550000,0.000000,0.200000,0.462072,0.457243,0.645171,0.300000
0.010000,0.165261,0.327878,0.441613,-1.109820,1.255600,-0.056649,-1.507673,-0.148965,-0.755418,0.306498,-1.864855,0.258789,0.155740,1.005847,0.000000,0.000000,0.085640,0.000000,-0.261800,0.003242,1.500000,0.200000,0.600000,0.600000,0.600000,0.550000,0.000000,0.200000,0.461511,0.456906,0.645396,0.300000
0.010000,0.165261,0.327878,0.441613,-1.109820,1.255600,-0.056649,-1.507673,-0.148965,-0.755462,0.306498,-1.864855,0.258790,0.155739,1.005883,0.000000,0.000000,0.085640,0.000000,-0.261800,0.003242,1.500000,0.200000,0.600000,0.600000,0.600000,0.550000,0.000000,0.200000,0.460963,0.456578,0.645615,0.300000
0.010000,0.165261,0.327878,0.441613,-1.109820,1.255600,-0.056649,-1.507673,-0.148965,-0.755504,0.306499,-1.864854,0.258790,0.155739,1.005918,0.000000,0.000000,0.085640,0.000000,-0.261800,0.003242,1.500000,0.200000,0.600000,0.600000,0.600000,0.550000,0.000000,0.200000,0.460428,0.456257,0.645829,0.300000
0.010000,0.165261,0.327878,0.441613,-1.109820,1.255600,-0.056649,-1.507673,-0.148965,-0.755545,0.306499,-1.864853,0.258791,0.155738,1.005952,0.000000,0.000000,0.085640,0.000000,-0.261800,0.003242,1.500000,0.200000,0.600000,0.600000,0.600000,0.550000,0.000000,0.200000,0.459906,0.455944,0.646037,0.300000
0.010000,0.165261,0.327878,0.441613,-1.109820,1.255600,-0.056649,-1.507673,-0.148965,-0.755586,0.306500,-1.864853,0.258791,0.155737,1.005985,0.000000,0.000000,0.085640,0.000000,-0.261800,0.003242,1.500000,0.200000,0.600000,0.600000,0.600000,0.550000,0.000000,0.200000,0.459398,0.455639,0.646241,0.300000
0.010000,0.165261,0.327878,0.441613,-1.109820,1.255600,-0.056649,-1.507673,-0.148965,-0.755625,0.306500,-1.864852,0.258792,0.155737,1.006018,0.000000,0.000000,0.085640,0.000000,-0.261800,0.003242,1.500000,0.200000,0.600000,0.600000,0.600000,0.550000,0.000000,0.200000,0.458904,0.455342,0.646439,0.300000
0.010000,0.165261,0.327878,0.441613,-1.109820,1.255600,-0.056649,-1.507673,-0.148965,-0.755663,0.306501,-1.864852,0.258792,0.155736,1.006049,0.000000,0.000000,0.085640,0.000000,-0.261800,0.003242,1.500000,0.200000,0.600000,0.600000,0.600000,0.550000,0.000000,0.200000,0.458422,0.455053,0.646631,0.300000
0.010000,0.165261,0.327878,0.441613,-1.109820,1.255600,-0.056649,-1.507673,-0.148965,-0.755700,0.306501,-1.864851,0.258793,0.155736,1.006080,0.000000,0.000000,0.085640,0.000000,-0.261800,0.003242,1.500000,0.200000,0.600000,0.600000,0.600000,0.550000,0.000000,0.200000,0.457955,0.454773,0.646818,0.300000
0.010000,0.165261,0.327878,0.441613,-1.109820,1.255600,-0.056649,-1.507673,-0.148965,-0.755736,0.306502,-1.864851,0.258793,0.155735,1.006110,0.000000,0.000000,0.085640,0.000000,-0.261800,0.003242,1.500000,0.200000,0.600000,0.600000,0.600000,0.550000,0.000000,0.200000,0.457500,0.454500,0.647000,0.300000
0.010000,0.165261,0.327878,0.441613,-1.109820,1.255600,-0.056649,-1.507673,-0.148965,-0.755771,0.306502,-1.864851,0.258793,0.155735,1.006139,0.000000,0.000000,0.085640,0.000000,-0.261800,0.003242,1.500000,0.200000,0.600000,0.600000,0.600000,0.550000,0.000000,0.200000,0.457059,0.454235,0.647176,0.300000
0.010000,0.165261,0.327878,0.441613,-1.109820,1.255600,-0.056649,-1.507673,-0.148965,-0.755805,0.306503,-1.864850,0.258794,0.155734,1.006167,0.000000,0.000000,0.085640,0.000000,-0.261800,0.003242,1.500000,0.200000,0.600000,0.600000,0.600000,0.550000,0.000000,0.200000,0.456631,0.453979,0.647348,0.300000
0.010000,0.165261,0.327878,0.441613,-1.109820,1.255600,-0.056649,-1.507673,-0.148965,-0.755838,0.306503,-1.864850,0.258794,0.155734,1.006194,0.000000,0.000000,0.085640,0.000000,-0.261800,0.003242,1.500000,0.200000,0.600000,0.600000,0.600000,0.550000,0.000000,0.200000,0.456217,0.453730,0.647513,0.300000
0.010000,0.165261,0.327878,0.441613,-1.109820,1.255600,-0.056649,-1.507673,-0.148965,-0.755870,0.306504,-1.864849,0.258795,0.155733,1.006220,0.000000,0.000000,0.085640,0.000000,-0.261800,0.003242,1.500000,0.200000,0.600000,0.600000,0.600000,0.550000,0.000000,0.200000,0.455816,0.453489,0.647674,0.300000
0.010000,0.165261,0.327878,0.441613,-1.109820,1.255600,-0.056649,-1.507673,-0.148965,-0.755901,0.306504,-1.864849,0.258795,0.155733,1.006245,0.000000,0.000000,0.085640,0.000000,-0.261800,0.003242,1.500000,0.200000,0.600000,0.600000,0.600000,0.550000,0.000000,0.200000,0.455428,0.453257,0.647829,0.300000
0.010000,0.165261,0.327878,0.441613,-1.109820,1.255600,-0.056649,-1.507673,-0.148965,-0.755930,0.306504,-1.864848,0.258795,0.155732,1.006270,0.000000,0.000000,0.085640,0.000000,-0.261800,0.003242,1.500000,0.200000,0.600000,0.600000,0.600000,0.550000,0.000000,0.200000,0.455053,0.453032,0.647979,0.300000
0.010000,0.165261,0.327878,0.441613,-1.109820,1.255600,-0.056649,-1.507673,-0.148965,-0.755959,0.306505,-1.864848,0.258796,0.155732,1.006293,0.000000,0.000000,0.085640,0.000000,-0.261800,0.003242,1.500000,0.200000,0.600000,0.600000,0.600000,0.550000,0.000000,0.200000,0.454693,0.452816,0.648123,0.300000
0.010000,0.165261,0.327878,0.441613,-1.109820,1.255600,-0.056649,-1.507673,-0.148965,-0.755986,0.306505,-1.864848,0.258796,0.155731,1.006316,0.000000,0.000000,0.085640,0.000000,-0.261800,0.003242,1.500000,0.200000,0.600000,0.600000,0.600000,0.550000,0.000000,0.200000,0.454345,0.452607,0.648262,0.300000
0.010000,0.165261,0.327878,0.441613,-1.109820,1.255600,-0.056649,-1.507673,-0.148965,-0.756013,0.306506,-1.864847,0.258796,0.155731,1.006338,0.000000,0.000000,0.085640,0.000000,-0.261800,0.003242,1.500000,0.200000,0.600000,0.600000,0.600000,0.550000,0.000000,0.200000,0.454011,0.452406,0.648396,0.300000
0.010000,0.165261,0.327878,0.441613,-1.109820,1.255600,-0.056649,-1.507673,-0.148965,-0.756038,0.306506,-1.864847,0.258797,0.155731,1.006359,0.000000,0.000000,0.085640,0.000000,-0.261800,0.003242,1.500000,0.200000,0.600000,0.600000,0.600000,0.550000,0.000000,0.200000,0.453690,0.452214,0.648524,0.300000
0.010000,0.165261,0.327878,0.441613,-1.109820,1.255600,-0.056649,-1.507673,-0.148965,-0.756063,0.306506,-1.864847,0.258797,0.155730,1.006379,0.000000,0.000000,0.085640,0.000000,-0.261800,0.003242,1.500000,0.200000,0.600000,0.600000,0.600000,0.550000,0.000000,0.200000,0.453382,0.452029,0.648647,0.300000
0.010000,0.165261,0.327878,0.441613,-1.109820,1.255600,-0.056649,-1.507673,-0.148965,-0.756086,0.306507,-1.864846,0.258797,0.155730,1.006398,0.000000,0.000000,0.085640,0.000000,-0.261800,0.003242,1.500000,0.200000,0.600000,0.600000,0.600000,0.550000,0.000000,0.200000,0.453088,0.451853,0.648765,0.300000
0.010000,0.165261,0.327878,0.441613,-1.109820,1.255600,-0.056649,-1.507673,-0.148965,-0.756108,0.306507,-1.864846,0.258797,0.155729,1.006417,0.000000,0.000000,0.085640,0.000000,-0.261800,0.003242,1.500000,0.200000,0.600000,0.600000,0.600000,0.550000,0.000000,0.200000,0.452807,0.451684,0.648877,0.300000
0.010000,0.165261,0.327878,0.441613,-1.109820,1.255600,-0.056649,-1.507673,-0.148965,-0.756130,0.306507,-1.864846,0.258798,0.155729,1.006434,0.000000,0.000000,0.085640,0.000000,-0.261800,0.003242,1.500000,0.200000,0.600000,0.600000,0.600000,0.550000,0.000000,0.200000,0.452540,0.451524,0.648984,0.300000
0.010000,0.165261,0.327878,0.441613,-1.109820,1.255600,-0.056649,-1.507673,-0.148965,-0.756150,0.306507,-1.864845,0.258798,0.155729,1.006451,0.000000,0.000000,0.085640,0.000000,-0.261800,0.003242,1.500000,0.200000,0.600000,0.600000,0.600000,0.550000,0.000000,0.200000,0.452286,0.451372,0.649086,0.300000
0.010000,0.165261,0.327878,0.441613,-1.109820,1.255600,-0.056649,-1.507673,-0.148965,-0.756169,0.306508,-1.864845,0.258798,0.155729,1.006466,0.000000,0.000000,0.085640,0.000000,-0.261800,0.003242,1.500000,0.200000,0.600000,0.600000,0.600000,0.550000,0.000000,0.200000,0.452045,0.451227,0.649182,0.300000
