Dreamlinkage123/action_data_offset_posture_ws/action_data_offset_ws/build_aarch64/orin_root/workspace/action_data_offset_ws/share/action_data_offset/data/光辉岁月-20260413.csv
time,left_shoulder_pitch_joint,left_shoulder_roll_joint,left_shoulder_yaw_joint,left_elbow_pitch_joint,left_wrist_yaw_joint,left_wrist_pitch_joint,left_wrist_roll_joint,right_shoulder_pitch_joint,right_shoulder_roll_joint,right_shoulder_yaw_joint,right_elbow_pitch_joint,right_wrist_yaw_joint,right_wrist_pitch_joint,right_wrist_roll_joint,null,null,waist_yaw_joint,null,head_yaw_joint,head_pitch_joint,left_thumb_mcp_roll_joint,left_thumb_mcp_pitch_joint,left_index_mcp_joint,left_middle_mcp_joint,left_ring_mcp_joint,left_pinky_mcp_joint,right_thumb_mcp_roll_joint,right_thumb_mcp_pitch_joint,right_index_mcp_joint,right_middle_mcp_joint,right_ring_mcp_joint,right_pinky_mcp_joint
0.01,0.165261,0.327878,0.441613,-1.10982,1.2556,-0.056649,-1.507673,-0.148965,-0.736331,0.30651,-1.864843,0.2588,0.155726,1,0,0,-0.030326,0,-0.2618,-0.010108,1.5,0.2,0.6,0.6,0.6,0.55,0,0.2,0.75,0.6,0.55,0.3
0.01,0.165261,0.327878,0.441613,-1.10982,1.2556,-0.056649,-1.507673,-0.148965,-0.736332,0.30651,-1.864843,0.2588,0.155726,1,0,0,-0.030326,0,-0.2618,-0.010108,1.5,0.2,0.6,0.6,0.6,0.55,0,0.2,0.749984,0.599992,0.550003,0.3
0.01,0.165261,0.327878,0.441613,-1.10982,1.2556,-0.056649,-1.507673,-0.148965,-0.736334,0.30651,-1.864843,0.2588,0.155726,1.000001,0,0,-0.030326,0,-0.2618,-0.010108,1.5,0.2,0.6,0.6,0.6,0.55,0,0.2,0.749952,0.599976,0.550008,0.3
0.01,0.165261,0.327878,0.441613,-1.10982,1.2556,-0.056649,-1.507673,-0.148965,-0.736337,0.30651,-1.864843,0.2588,0.155726,1.000002,0,0,-0.030326,0,-0.2618,-0.010108,1.5,0.2,0.6,0.6,0.6,0.55,0,0.2,0.749904,0.599952,0.550016,0.3
0.01,0.165261,0.327878,0.441613,-1.10982,1.2556,-0.056649,-1.507673,-0.148965,-0.736342,0.30651,-1.864843,0.2588,0.155726,1.000004,0,0,-0.030326,0,-0.2618,-0.010108,1.5,0.2,0.6,0.6,0.6,0.55,0,0.2,0.74984,0.59992,0.550027,0.3
0.01,0.165261,0.327878,0.441613,-1.10982,1.2556,-0.056649,-1.507673,-0.148965,-0.736347,0.30651,-1.864843,0.2588,0.155726,1.000005,0,0,-0.030326,0,-0.2618,-0.010108,1.5,0.2,0.6,0.6,0.6,0.55,0,0.2,0.749759,0.59988,0.55004,0.3
0.01,0.165261,0.327878,0.441613,-1.10982,1.2556,-0.056649,-1.507673,-0.148965,-0.736354,0.30651,-1.864843,0.2588,0.155726,1.000008,0,0,-0.030326,0,-0.2618,-0.010108,1.5,0.2,0.6,0.6,0.6,0.55,0,0.2,0.749663,0.599832,0.550056,0.3
0.01,0.165261,0.327878,0.441613,-1.10982,1.2556,-0.056649,-1.507673,-0.148965,-0.736361,0.30651,-1.864843,0.2588,0.155726,1.00001,0,0,-0.030326,0,-0.2618,-0.010108,1.5,0.2,0.6,0.6,0.6,0.55,0,0.2,0.749551,0.599775,0.550075,0.3
0.01,0.165261,0.327878,0.441613,-1.10982,1.2556,-0.056649,-1.507673,-0.148965,-0.73637,0.30651,-1.864843,0.2588,0.155726,1.000013,0,0,-0.030326,0,-0.2618,-0.010108,1.5,0.2,0.6,0.6,0.6,0.55,0,0.2,0.749422,0.599711,0.550096,0.3
0.01,0.165261,0.327878,0.441613,-1.10982,1.2556,-0.056649,-1.507673,-0.148965,-0.736379,0.30651,-1.864844,0.2588,0.155726,1.000016,0,0,-0.030326,0,-0.2618,-0.010108,1.5,0.2,0.6,0.6,0.6,0.55,0,0.2,0.749278,0.599639,0.55012,0.3
0.01,0.165261,0.327878,0.441613,-1.10982,1.2556,-0.056649,-1.507673,-0.148965,-0.73639,0.306509,-1.864844,0.2588,0.155727,1.00002,0,0,-0.030326,0,-0.2618,-0.010108,1.5,0.2,0.6,0.6,0.6,0.55,0,0.2,0.749118,0.599559,0.550147,0.3
0.01,0.165261,0.327878,0.441613,-1.10982,1.2556,-0.056649,-1.507673,-0.148965,-0.736402,0.306509,-1.864844,0.258799,0.155727,1.000024,0,0,-0.030326,0,-0.2618,-0.010108,1.5,0.2,0.6,0.6,0.6,0.55,0,0.2,0.748941,0.599471,0.550176,0.3
0.01,0.165261,0.327878,0.441613,-1.10982,1.2556,-0.056649,-1.507673,-0.148965,-0.736415,0.306509,-1.864844,0.258799,0.155727,1.000028,0,0,-0.030326,0,-0.2618,-0.010108,1.5,0.2,0.6,0.6,0.6,0.55,0,0.2,0.748749,0.599374,0.550209,0.3
0.01,0.165261,0.327878,0.441613,-1.10982,1.2556,-0.056649,-1.507673,-0.148965,-0.736429,0.306509,-1.864844,0.258799,0.155727,1.000033,0,0,-0.030326,0,-0.2618,-0.010108,1.5,0.2,0.6,0.6,0.6,0.55,0,0.2,0.74854,0.59927,0.550243,0.3
0.01,0.165261,0.327878,0.441613,-1.10982,1.2556,-0.056649,-1.507673,-0.148965,-0.736444,0.306509,-1.864844,0.258799,0.155727,1.000038,0,0,-0.030326,0,-0.2618,-0.010108,1.5,0.2,0.6,0.6,0.6,0.55,0,0.2,0.748316,0.599158,0.550281,0.3
0.01,0.165261,0.327878,0.441613,-1.10982,1.2556,-0.056649,-1.507673,-0.148965,-0.73646,0.306509,-1.864844,0.258799,0.155727,1.000043,0,0,-0.030326,0,-0.2618,-0.010108,1.5,0.2,0.6,0.6,0.6,0.55,0,0.2,0.748075,0.599037,0.550321,0.3
0.01,0.165261,0.327878,0.441613,-1.10982,1.2556,-0.056649,-1.507673,-0.148965,-0.736477,0.306509,-1.864845,0.258799,0.155727,1.000049,0,0,-0.030326,0,-0.2618,-0.010108,1.5,0.2,0.6,0.6,0.6,0.55,0,0.2,0.747818,0.598909,0.550364,0.3
0.01,0.165261,0.327878,0.441613,-1.10982,1.2556,-0.056649,-1.507673,-0.148965,-0.736496,0.306509,-1.864845,0.258799,0.155728,1.000055,0,0,-0.030326,0,-0.2618,-0.010108,1.5,0.2,0.6,0.6,0.6,0.55,0,0.2,0.747545,0.598773,0.550409,0.3
0.01,0.165261,0.327878,0.441613,-1.10982,1.2556,-0.056649,-1.507673,-0.148965,-0.736515,0.306508,-1.864845,0.258799,0.155728,1.000062,0,0,-0.030326,0,-0.2618,-0.010108,1.5,0.2,0.6,0.6,0.6,0.55,0,0.2,0.747257,0.598628,0.550457,0.3
0.01,0.165261,0.327878,0.441613,-1.10982,1.2556,-0.056649,-1.507673,-0.148965,-0.736536,0.306508,-1.864845,0.258798,0.155728,1.000069,0,0,-0.030326,0,-0.2618,-0.010108,1.5,0.2,0.6,0.6,0.6,0.55,0,0.2,0.746952,0.598476,0.550508,0.3
0.01,0.165261,0.327878,0.441613,-1.10982,1.2556,-0.056649,-1.507673,-0.148965,-0.736557,0.306508,-1.864845,0.258798,0.155728,1.000076,0,0,-0.030326,0,-0.2618,-0.010108,1.5,0.2,0.6,0.6,0.6,0.55,0,0.2,0.746631,0.598316,0.550561,0.3
0.01,0.165261,0.327878,0.441613,-1.10982,1.2556,-0.056649,-1.507673,-0.148965,-0.73658,0.306508,-1.864846,0.258798,0.155728,1.000084,0,0,-0.030326,0,-0.2618,-0.010108,1.5,0.2,0.6,0.6,0.6,0.55,0,0.2,0.746294,0.598147,0.550618,0.3
0.01,0.165261,0.327878,0.441613,-1.10982,1.2556,-0.056649,-1.507673,-0.148965,-0.736603,0.306508,-1.864846,0.258798,0.155729,1.000092,0,0,-0.030326,0,-0.2618,-0.010108,1.5,0.2,0.6,0.6,0.6,0.55,0,0.2,0.745941,0.597971,0.550676,0.3
0.01,0.165261,0.327878,0.441613,-1.10982,1.2556,-0.056649,-1.507673,-0.148965,-0.736628,0.306507,-1.864846,0.258798,0.155729,1.0001,0,0,-0.030326,0,-0.2618,-0.010108,1.5,0.2,0.6,0.6,0.6,0.55,0,0.2,0.745572,0.597786,0.550738,0.3
0.01,0.165261,0.327878,0.441613,-1.10982,1.2556,-0.056649,-1.507673,-0.148965,-0.736654,0.306507,-1.864846,0.258797,0.155729,1.000109,0,0,-0.030326,0,-0.2618,-0.010108,1.5,0.2,0.6,0.6,0.6,0.55,0,0.2,0.745187,0.597594,0.550802,0.3
0.01,0.165261,0.327878,0.441613,-1.10982,1.2556,-0.056649,-1.507673,-0.148965,-0.736681,0.306507,-1.864847,0.258797,0.155729,1.000118,0,0,-0.030326,0,-0.2618,-0.010108,1.5,0.2,0.6,0.6,0.6,0.55,0,0.2,0.744786,0.597393,0.550869,0.3
0.01,0.165261,0.327878,0.441613,-1.10982,1.2556,-0.056649,-1.507673,-0.148965,-0.736709,0.306507,-1.864847,0.258797,0.15573,1.000127,0,0,-0.030326,0,-0.2618,-0.010108,1.5,0.2,0.6,0.6,0.6,0.55,0,0.2,0.744369,0.597184,0.550939,0.3
0.01,0.165261,0.327878,0.441613,-1.10982,1.2556,-0.056649,-1.507673,-0.148965,-0.736738,0.306507,-1.864847,0.258797,0.15573,1.000137,0,0,-0.030326,0,-0.2618,-0.010108,1.5,0.2,0.6,0.6,0.6,0.55,0,0.2,0.743936,0.596968,0.551011,0.3
0.01,0.165261,0.327878,0.441613,-1.10982,1.2556,-0.056649,-1.507673,-0.148965,-0.736768,0.306506,-1.864848,0.258797,0.15573,1.000147,0,0,-0.030326,0,-0.2618,-0.010108,1.5,0.2,0.6,0.6,0.6,0.55,0,0.2,0.743487,0.596743,0.551086,0.3
0.01,0.165261,0.327878,0.441613,-1.10982,1.2556,-0.056649,-1.507673,-0.148965,-0.736799,0.306506,-1.864848,0.258796,0.155731,1.000158,0,0,-0.030326,0,-0.2618,-0.010108,1.5,0.2,0.6,0.6,0.6,0.55,0,0.2,0.743021,0.596511,0.551163,0.3
0.01,0.165261,0.327878,0.441613,-1.10982,1.2556,-0.056649,-1.507673,-0.148965,-0.736831,0.306506,-1.864848,0.258796,0.155731,1.000168,0,0,-0.030326,0,-0.2618,-0.010108,1.5,0.2,0.6,0.6,0.6,0.55,0,0.2,0.74254,0.59627,0.551243,0.3
0.01,0.165261,0.327878,0.441613,-1.10982,1.2556,-0.056649,-1.507673,-0.148965,-0.736865,0.306506,-1.864848,0.258796,0.155731,1.00018,0,0,-0.030326,0,-0.2618,-0.010108,1.5,0.2,0.6,0.6,0.6,0.55,0,0.2,0.742043,0.596021,0.551326,0.3
0.01,0.165261,0.327878,0.441613,-1.10982,1.2556,-0.056649,-1.507673,-0.148965,-0.736899,0.306505,-1.864849,0.258796,0.155732,1.000191,0,0,-0.030326,0,-0.2618,-0.010108,1.5,0.2,0.6,0.6,0.6,0.55,0,0.2,0.741529,0.595765,0.551412,0.3
0.01,0.165261,0.327878,0.441613,-1.10982,1.2556,-0.056649,-1.507673,-0.148965,-0.736935,0.306505,-1.864849,0.258795,0.155732,1.000203,0,0,-0.030326,0,-0.2618,-0.010108,1.5,0.2,0.6,0.6,0.6,0.55,0,0.2,0.741,0.5955,0.5515,0.3
0.01,0.165261,0.327878,0.441613,-1.10982,1.2556,-0.056649,-1.507673,-0.148965,-0.736971,0.306505,-1.86485,0.258795,0.155732,1.000215,0,0,-0.030326,0,-0.2618,-0.010108,1.5,0.2,0.6,0.6,0.6,0.55,0,0.2,0.740455,0.595227,0.551591,0.3
0.01,0.165261,0.327878,0.441613,-1.10982,1.2556,-0.056649,-1.507673,-0.148965,-0.737009,0.306504,-1.86485,0.258795,0.155733,1.000228,0,0,-0.030326,0,-0.2618,-0.010108,1.5,0.2,0.6,0.6,0.6,0.55,0,0.2,0.739893,0.594947,0.551684,0.3
0.01,0.165261,0.327878,0.441613,-1.10982,1.2556,-0.056649,-1.507673,-0.148965,-0.737048,0.306504,-1.86485,0.258795,0.155733,1.000241,0,0,-0.030326,0,-0.2618,-0.010108,1.5,0.2,0.6,0.6,0.6,0.55,0,0.2,0.739316,0.594658,0.551781,0.3
0.01,0.165261,0.327878,0.441613,-1.10982,1.2556,-0.056649,-1.507673,-0.148965,-0.737088,0.306504,-1.864851,0.258794,0.155733,1.000254,0,0,-0.030326,0,-0.2618,-0.010108,1.5,0.2,0.6,0.6,0.6,0.55,0,0.2,0.738722,0.594361,0.55188,0.3
0.01,0.165261,0.327878,0.441613,-1.10982,1.2556,-0.056649,-1.507673,-0.148965,-0.737128,0.306503,-1.864851,0.258794,0.155734,1.000268,0,0,-0.030326,0,-0.2618,-0.010108,1.5,0.2,0.6,0.6,0.6,0.55,0,0.2,0.738112,0.594056,0.551981,0.3
0.01,0.165261,0.327878,0.441613,-1.10982,1.2556,-0.056649,-1.507673,-0.148965,-0.73717,0.306503,-1.864852,0.258794,0.155734,1.000282,0,0,-0.030326,0,-0.2618,-0.010108,1.5,0.2,0.6,0.6,0.6,0.55,0,0.2,0.737487,0.593743,0.552086,0.3
0.01,0.165261,0.327878,0.441613,-1.10982,1.2556,-0.056649,-1.507673,-0.148965,-0.737213,0.306503,-1.864852,0.258793,0.155734,1.000297,0,0,-0.030326,0,-0.2618,-0.010108,1.5,0.2,0.6,0.6,0.6,0.55,0,0.2,0.736845,0.593422,0.552193,0.3
0.01,0.165261,0.327878,0.441613,-1.10982,1.2556,-0.056649,-1.507673,-0.148965,-0.737258,0.306502,-1.864852,0.258793,0.155735,1.000312,0,0,-0.030326,0,-0.2618,-0.010108,1.5,0.2,0.6,0.6,0.6,0.55,0,0.2,0.736187,0.593094,0.552302,0.3
0.01,0.165261,0.327878,0.441613,-1.10982,1.2556,-0.056649,-1.507673,-0.148965,-0.737303,0.306502,-1.864853,0.258793,0.155735,1.000327,0,0,-0.030326,0,-0.2618,-0.010108,1.5,0.2,0.6,0.6,0.6,0.55,0,0.2,0.735513,0.592757,0.552414,0.3
0.01,0.165261,0.327878,0.441613,-1.10982,1.2556,-0.056649,-1.507673,-0.148965,-0.737349,0.306502,-1.864853,0.258792,0.155736,1.000342,0,0,-0.030326,0,-0.2618,-0.010108,1.5,0.2,0.6,0.6,0.6,0.55,0,0.2,0.734824,0.592412,0.552529,0.3
0.01,0.165261,0.327878,0.441613,-1.10982,1.2556,-0.056649,-1.507673,-0.148965,-0.737396,0.306501,-1.864854,0.258792,0.155736,1.000358,0,0,-0.030326,0,-0.2618,-0.010108,1.5,0.2,0.6,0.6,0.6,0.55,0,0.2,0.734118,0.592059,0.552647,0.3
0.01,0.165261,0.327878,0.441613,-1.10982,1.2556,-0.056649,-1.507673,-0.148965,-0.737445,0.306501,-1.864854,0.258792,0.155737,1.000374,0,0,-0.030326,0,-0.2618,-0.010108,1.5,0.2,0.6,0.6,0.6,0.55,0,0.2,0.733396,0.591698,0.552767,0.3
0.01,0.165261,0.327878,0.441613,-1.10982,1.2556,-0.056649,-1.507673,-0.148965,-0.737494,0.306501,-1.864855,0.258791,0.155737,1.000391,0,0,-0.030326,0,-0.2618,-0.010108,1.5,0.2,0.6,0.6,0.6,0.55,0,0.2,0.732658,0.591329,0.55289,0.3
0.01,0.165261,0.327878,0.441613,-1.10982,1.2556,-0.056649,-1.507673,-0.148965,-0.737545,0.3065,-1.864855,0.258791,0.155737,1.000408,0,0,-0.030326,0,-0.2618,-0.010108,1.5,0.2,0.6,0.6,0.6,0.55,0,0.2,0.731904,0.590952,0.553016,0.3
0.01,0.165261,0.327878,0.441613,-1.10982,1.2556,-0.056649,-1.507673,-0.148965,-0.737596,0.3065,-1.864856,0.258791,0.155738,1.000425,0,0,-0.030326,0,-0.2618,-0.010108,1.5,0.2,0.6,0.6,0.6,0.55,0,0.2,0.731134,0.590567,0.553144,0.3
0.01,0.165261,0.327878,0.441613,-1.10982,1.2556,-0.056649,-1.507673,-0.148965,-0.737649,0.306499,-1.864856,0.25879,0.155738,1.000443,0,0,-0.030326,0,-0.2618,-0.010108,1.5,0.2,0.6,0.6,0.6,0.55,0,0.2,0.730348,0.590174,0.553275,0.3
0.01,0.165261,0.327878,0.441613,-1.10982,1.2556,-0.056649,-1.507673,-0.148965,-0.737703,0.306499,-1.864857,0.25879,0.155739,1.000461,0,0,-0.030326,0,-0.2618,-0.010108,1.5,0.2,0.6,0.6,0.6,0.55,0,0.2,0.729545,0.589773,0.553409,0.3
0.01,0.165261,0.327878,0.441613,-1.10982,1.2556,-0.056649,-1.507673,-0.148966,-0.737758,0.306499,-1.864857,0.25879,0.155739,1.00048,0,0,-0.030326,0,-0.2618,-0.010108,1.5,0.2,0.6,0.6,0.6,0.55,0,0.2,0.728727,0.589364,0.553545,0.3
0.01,0.165261,0.327878,0.441613,-1.10982,1.2556,-0.056649,-1.507673,-0.148966,-0.737814,0.306498,-1.864858,0.258789,0.15574,1.000498,0,0,-0.030326,0,-0.2618,-0.010108,1.5,0.2,0.6,0.6,0.6,0.55,0,0.2,0.727893,0.588947,0.553684,0.3
0.01,0.165261,0.327878,0.441613,-1.10982,1.2556,-0.056649,-1.507673,-0.148966,-0.737871,0.306498,-1.864858,0.258789,0.15574,1.000517,0,0,-0.030326,0,-0.2618,-0.010108,1.5,0.2,0.6,0.6,0.6,0.55,0,0.2,0.727043,0.588521,0.553826,0.3
0.01,0.165261,0.327878,0.441613,-1.10982,1.2556,-0.056649,-1.507673,-0.148966,-0.737929,0.306497,-1.864859,0.258788,0.155741,1.000537,0,0,-0.030326,0,-0.2618,-0.010108,1.5,0.2,0.6,0.6,0.6,0.55,0,0.2,0.726176,0.588088,0.553971,0.3
0.01,0.165261,0.327878,0.441613,-1.10982,1.2556,-0.056649,-1.507673,-0.148966,-0.737988,0.306497,-1.864859,0.258788,0.155741,1.000557,0,0,-0.030326,0,-0.2618,-0.010108,1.5,0.2,0.6,0.6,0.6,0.55,0,0.2,0.725294,0.587647,0.554118,0.3
0.01,0.165261,0.327878,0.441613,-1.10982,1.2556,-0.056649,-1.507673,-0.148966,-0.738048,0.306497,-1.86486,0.258788,0.155742,1.000577,0,0,-0.030326,0,-0.2618,-0.010108,1.5,0.2,0.6,0.6,0.6,0.55,0,0.2,0.724396,0.587198,0.554267,0.3
0.01,0.165261,0.327878,0.441613,-1.10982,1.2556,-0.056649,-1.507673,-0.148966,-0.738109,0.306496,-1.86486,0.258787,0.155742,1.000598,0,0,-0.030326,0,-0.2618,-0.010108,1.5,0.2,0.6,0.6,0.6,0.55,0,0.2,0.723481,0.586741,0.55442,0.3
0.01,0.165261,0.327878,0.441613,-1.10982,1.2556,-0.056649,-1.507673,-0.148966,-0.738172,0.306496,-1.864861,0.258787,0.155743,1.000618,0,0,-0.030326,0,-0.2618,-0.010108,1.5,0.2,0.6,0.6,0.6,0.55,0,0.2,0.722551,0.586275,0.554575,0.3
0.01,0.165261,0.327878,0.441613,-1.10982,1.2556,-0.056649,-1.507673,-0.148966,-0.738235,0.306495,-1.864861,0.258786,0.155743,1.00064,0,0,-0.030326,0,-0.2618,-0.010108,1.5,0.2,0.6,0.6,0.6,0.55,0,0.2,0.721604,0.585802,0.554733,0.3
0.01,0.165261,0.327878,0.441613,-1.10982,1.2556,-0.056649,-1.507673,-0.148966,-0.7383,0.306495,-1.864862,0.258786,0.155744,1.000661,0,0,-0.030326,0,-0.2618,-0.010108,1.5,0.2,0.6,0.6,0.6,0.55,0,0.2,0.720642,0.585321,0.554893,0.3
0.01,0.165261,0.327878,0.441613,-1.10982,1.2556,-0.056649,-1.507673,-0.148966,-0.738365,0.306494,-1.864862,0.258786,0.155744,1.000683,0,0,-0.030326,0,-0.2618,-0.010108,1.5,0.2,0.6,0.6,0.6,0.55,0,0.2,0.719663,0.584832,0.555056,0.3
0.01,0.165261,0.327878,0.441613,-1.10982,1.2556,-0.056649,-1.507673,-0.148966,-0.738432,0.306494,-1.864863,0.258785,0.155745,1.000706,0,0,-0.030326,0,-0.2618,-0.010108,1.5,0.2,0.6,0.6,0.6,0.55,0,0.2,0.718668,0.584334,0.555222,0.3
0.01,0.165261,0.327878,0.441613,-1.10982,1.2556,-0.056649,-1.507673,-0.148966,-0.7385,0.306493,-1.864863,0.258785,0.155745,1.000728,0,0,-0.030326,0,-0.2618,-0.010108,1.5,0.2,0.6,0.6,0.6,0.55,0,0.2,0.717658,0.583829,0.55539,0.3
0.01,0.165261,0.327878,0.441613,-1.10982,1.2556,-0.056649,-1.507673,-0.148966,-0.738568,0.306493,-1.864864,0.258784,0.155746,1.000751,0,0,-0.030326,0,-0.2618,-0.010108,1.5,0.2,0.6,0.6,0.6,0.55,0,0.2,0.716631,0.583316,0.555561,0.3
0.01,0.165261,0.327878,0.441613,-1.10982,1.2556,-0.056649,-1.507673,-0.148966,-0.738638,0.306492,-1.864865,0.258784,0.155746,1.000775,0,0,-0.030326,0,-0.2618,-0.010108,1.5,0.2,0.6,0.6,0.6,0.55,0,0.2,0.715588,0.582794,0.555735,0.3
0.01,0.165261,0.327878,0.441613,-1.10982,1.2556,-0.056649,-1.507673,-0.148966,-0.738709,0.306492,-1.864865,0.258783,0.155747,1.000799,0,0,-0.030326,0,-0.2618,-0.010108,1.5,0.2,0.6,0.6,0.6,0.55,0,0.2,0.714529,0.582265,0.555912,0.3
0.01,0.165261,0.327878,0.441613,-1.10982,1.2556,-0.056649,-1.507673,-0.148966,-0.738781,0.306491,-1.864866,0.258783,0.155748,1.000823,0,0,-0.030326,0,-0.2618,-0.010108,1.5,0.2,0.6,0.6,0.6,0.55,0,0.2,0.713455,0.581727,0.556091,0.3
0.01,0.165261,0.327878,0.441613,-1.10982,1.2556,-0.056649,-1.507673,-0.148966,-0.738854,0.306491,-1.864866,0.258783,0.155748,1.000847,0,0,-0.030326,0,-0.2618,-0.010108,1.5,0.2,0.6,0.6,0.6,0.55,0,0.2,0.712364,0.581182,0.556273,0.3
0.01,0.165261,0.327878,0.441613,-1.10982,1.2556,-0.056649,-1.507673,-0.148966,-0.738927,0.306491,-1.864867,0.258782,0.155749,1.000872,0,0,-0.030326,0,-0.2618,-0.010108,1.5,0.2,0.6,0.6,0.6,0.55,0,0.2,0.711273,0.580636,0.556455,0.3
0.01,0.165261,0.327878,0.441613,-1.10982,1.2556,-0.056649,-1.507673,-0.148966,-0.739,0.30649,-1.864867,0.258782,0.155749,1.000896,0,0,-0.030326,0,-0.2618,-0.010108,1.5,0.2,0.6,0.6,0.6,0.55,0,0.2,0.710182,0.580091,0.556636,0.3
0.01,0.165261,0.327878,0.441613,-1.10982,1.2556,-0.056649,-1.507673,-0.148966,-0.739074,0.30649,-1.864868,0.258781,0.15575,1.000921,0,0,-0.030326,0,-0.2618,-0.010108,1.5,0.2,0.6,0.6,0.6,0.55,0,0.2,0.709091,0.579545,0.556818,0.3
0.01,0.165261,0.327878,0.441613,-1.10982,1.2556,-0.056649,-1.507673,-0.148966,-0.739147,0.306489,-1.864869,0.258781,0.15575,1.000945,0,0,-0.030326,0,-0.2618,-0.010108,1.5,0.2,0.6,0.6,0.6,0.55,0,0.2,0.708,0.579,0.557,0.3
0.01,0.165261,0.327878,0.441613,-1.10982,1.2556,-0.056649,-1.507673,-0.148966,-0.73922,0.306489,-1.864869,0.25878,0.155751,1.00097,0,0,-0.030326,0,-0.2618,-0.010108,1.5,0.2,0.6,0.6,0.6,0.55,0,0.2,0.706909,0.578455,0.557182,0.3
0.01,0.165261,0.327878,0.441613,-1.10982,1.2556,-0.056649,-1.507673,-0.148966,-0.739293,0.306488,-1.86487,0.25878,0.155751,1.000994,0,0,-0.030326,0,-0.2618,-0.010108,1.5,0.2,0.6,0.6,0.6,0.55,0,0.2,0.705818,0.577909,0.557364,0.3
0.01,0.165261,0.327878,0.441613,-1.10982,1.2556,-0.056649,-1.507673,-0.148966,-0.739366,0.306488,-1.86487,0.25878,0.155752,1.001018,0,0,-0.030326,0,-0.2618,-0.010108,1.5,0.2,0.6,0.6,0.6,0.55,0,0.2,0.704727,0.577364,0.557545,0.3
0.01,0.165261,0.327878,0.441613,-1.10982,1.2556,-0.056649,-1.507673,-0.148966,-0.739439,0.306487,-1.864871,0.258779,0.155752,1.001043,0,0,-0.030326,0,-0.2618,-0.010108,1.5,0.2,0.6,0.6,0.6,0.55,0,0.2,0.703636,0.576818,0.557727,0.3
0.01,0.165261,0.327878,0.441613,-1.10982,1.2556,-0.056649,-1.507673,-0.148966,-0.739512,0.306487,-1.864871,0.258779,0.155753,1.001067,0,0,-0.030326,0,-0.2618,-0.010108,1.5,0.2,0.6,0.6,0.6,0.55,0,0.2,0.702545,0.576273,0.557909,0.3
0.01,0.165261,0.327878,0.441613,-1.10982,1.2556,-0.056649,-1.507673,-0.148966,-0.739585,0.306487,-1.864872,0.258778,0.155753,1.001092,0,0,-0.030326,0,-0.2618,-0.010108,1.5,0.2,0.6,0.6,0.6,0.55,0,0.2,0.701455,0.575727,0.558091,0.3
0.01,0.165261,0.327878,0.441613,-1.10982,1.2556,-0.056649,-1.507673,-0.148966,-0.739658,0.306486,-1.864872,0.258778,0.155754,1.001116,0,0,-0.030326,0,-0.2618,-0.010108,1.5,0.2,0.6,0.6,0.6,0.55,0,0.2,0.700364,0.575182,0.558273,0.3
0.01,0.165261,0.327878,0.441613,-1.10982,1.2556,-0.056649,-1.507673,-0.148966,-0.739731,0.306486,-1.864873,0.258778,0.155754,1.001141,0,0,-0.030326,0,-0.2618,-0.010108,1.5,0.2,0.6,0.6,0.6,0.55,0,0.2,0.699273,0.574636,0.558455,0.3
0.01,0.165261,0.327878,0.441613,-1.10982,1.2556,-0.056649,-1.507673,-0.148966,-0.739804,0.306485,-1.864873,0.258777,0.155755,1.001165,0,0,-0.030326,0,-0.2618,-0.010108,1.5,0.2,0.6,0.6,0.6,0.55,0,0.2,0.698182,0.574091,0.558636,0.3
0.01,0.165261,0.327878,0.441613,-1.10982,1.2556,-0.056649,-1.507673,-0.148966,-0.739877,0.306485,-1.864874,0.258777,0.155755,1.001189,0,0,-0.030326,0,-0.2618,-0.010108,1.5,0.2,0.6,0.6,0.6,0.55,0,0.2,0.697091,0.573545,0.558818,0.3
0.01,0.165261,0.327878,0.441613,-1.10982,1.2556,-0.056649,-1.507673,-0.148966,-0.73995,0.306484,-1.864874,0.258777,0.155756,1.001214,0,0,-0.030326,0,-0.2618,-0.010108,1.5,0.2,0.6,0.6,0.6,0.55,0,0.2,0.696,0.573,0.559,0.3
0.01,0.165261,0.327878,0.441613,-1.10982,1.2556,-0.056649,-1.507673,-0.148966,-0.740023,0.306484,-1.864875,0.258776,0.155756,1.001238,0,0,-0.030326,0,-0.2618,-0.010108,1.5,0.2,0.6,0.6,0.6,0.55,0,0.2,0.694909,0.572455,0.559182,0.3
0.01,0.165261,0.327878,0.441613,-1.10982,1.2556,-0.056649,-1.507673,-0.148966,-0.740096,0.306484,-1.864875,0.258776,0.155757,1.001263,0,0,-0.030326,0,-0.2618,-0.010108,1.5,0.2,0.6,0.6,0.6,0.55,0,0.2,0.693818,0.571909,0.559364,0.3
0.01,0.165261,0.327878,0.441613,-1.10982,1.2556,-0.056649,-1.507673,-0.148966,-0.740169,0.306483,-1.864876,0.258776,0.155757,1.001287,0,0,-0.030326,0,-0.2618,-0.010108,1.5,0.2,0.6,0.6,0.6,0.55,0,0.2,0.692727,0.571364,0.559545,0.3
0.01,0.165261,0.327878,0.441613,-1.10982,1.2556,-0.056649,-1.507673,-0.148966,-0.740242,0.306483,-1.864876,0.258775,0.155758,1.001312,0,0,-0.030326,0,-0.2618,-0.010108,1.5,0.2,0.6,0.6,0.6,0.55,0,0.2,0.691636,0.570818,0.559727,0.3
0.01,0.165261,0.327878,0.441613,-1.10982,1.2556,-0.056649,-1.507673,-0.148966,-0.740315,0.306482,-1.864877,0.258775,0.155758,1.001336,0,0,-0.030326,0,-0.2618,-0.010108,1.5,0.2,0.6,0.6,0.6,0.55,0,0.2,0.690545,0.570273,0.559909,0.3
0.01,0.165261,0.327878,0.441613,-1.10982,1.2556,-0.056649,-1.507673,-0.148966,-0.740388,0.306482,-1.864877,0.258774,0.155758,1.00136,0,0,-0.030326,0,-0.2618,-0.010108,1.5,0.2,0.6,0.6,0.6,0.55,0,0.2,0.689455,0.569727,0.560091,0.3
0.01,0.165261,0.327878,0.441613,-1.10982,1.2556,-0.056649,-1.507673,-0.148966,-0.740461,0.306482,-1.864878,0.258774,0.155759,1.001385,0,0,-0.030326,0,-0.2618,-0.010108,1.5,0.2,0.6,0.6,0.6,0.55,0,0.2,0.688364,0.569182,0.560273,0.3
0.01,0.165261,0.327878,0.441613,-1.10982,1.2556,-0.056649,-1.507673,-0.148966,-0.740534,0.306481,-1.864878,0.258774,0.155759,1.001409,0,0,-0.030326,0,-0.2618,-0.010108,1.5,0.2,0.6,0.6,0.6,0.55,0,0.2,0.687273,0.568636,0.560455,0.3
0.01,0.165261,0.327878,0.441613,-1.10982,1.2556,-0.056649,-1.507673,-0.148966,-0.740607,0.306481,-1.864879,0.258773,0.15576,1.001433,0,0,-0.030326,0,-0.2618,-0.010108,1.5,0.2,0.6,0.6,0.6,0.55,0,0.2,0.686182,0.568091,0.560636,0.3
0.01,0.165261,0.327878,0.441613,-1.10982,1.2556,-0.056649,-1.507673,-0.148966,-0.74068,0.306481,-1.864879,0.258773,0.15576,1.001458,0,0,-0.030326,0,-0.2618,-0.010108,1.5,0.2,0.6,0.6,0.6,0.55,0,0.2,0.685091,0.567545,0.560818,0.3
0.01,0.165261,0.327878,0.441613,-1.10982,1.2556,-0.056649,-1.507673,-0.148966,-0.740753,0.30648,-1.864879,0.258773,0.155761,1.001482,0,0,-0.030326,0,-0.2618,-0.010108,1.5,0.2,0.6,0.6,0.6,0.55,0,0.2,0.684,0.567,0.561,0.3
0.01,0.165261,0.327878,0.441613,-1.10982,1.2556,-0.056649,-1.507673,-0.148966,-0.740826,0.30648,-1.86488,0.258772,0.155761,1.001506,0,0,-0.030326,0,-0.2618,-0.010108,1.5,0.2,0.6,0.6,0.6,0.55,0,0.2,0.682909,0.566455,0.561182,0.3
0.01,0.165261,0.327878,0.441613,-1.10982,1.2556,-0.056649,-1.507673,-0.148966,-0.740899,0.30648,-1.86488,0.258772,0.155761,1.001531,0,0,-0.030326,0,-0.2618,-0.010108,1.5,0.2,0.6,0.6,0.6,0.55,0,0.2,0.681818,0.565909,0.561364,0.3
0.01,0.165261,0.327878,0.441613,-1.10982,1.2556,-0.056649,-1.507673,-0.148966,-0.740972,0.306479,-1.864881,0.258772,0.155762,1.001555,0,0,-0.030326,0,-0.2618,-0.010108,1.5,0.2,0.6,0.6,0.6,0.55,0,0.2,0.680727,0.565364,0.561545,0.3
0.01,0.165261,0.327878,0.441613,-1.10982,1.2556,-0.056649,-1.507673,-0.148966,-0.741045,0.306479,-1.864881,0.258772,0.155762,1.00158,0,0,-0.030326,0,-0.2618,-0.010108,1.5,0.2,0.6,0.6,0.6,0.55,0,0.2,0.679636,0.564818,0.561727,0.3
0.01,0.165261,0.327878,0.441613,-1.10982,1.2556,-0.056649,-1.507673,-0.148966,-0.741118,0.306479,-1.864882,0.258771,0.155763,1.001604,0,0,-0.030326,0,-0.2618,-0.010108,1.5,0.2,0.6,0.6,0.6,0.55,0,0.2,0.678545,0.564273,0.561909,0.3
0.01,0.165261,0.327878,0.441613,-1.10982,1.2556,-0.056649,-1.507673,-0.148966,-0.741191,0.306478,-1.864882,0.258771,0.155763,1.001628,0,0,-0.030326,0,-0.2618,-0.010108,1.5,0.2,0.6,0.6,0.6,0.55,0,0.2,0.677455,0.563727,0.562091,0.3
0.01,0.165261,0.327878,0.441613,-1.10982,1.2556,-0.056649,-1.507673,-0.148966,-0.741264,0.306478,-1.864882,0.258771,0.155763,1.001653,0,0,-0.030326,0,-0.2618,-0.010108,1.5,0.2,0.6,0.6,0.6,0.55,0,0.2,0.676364,0.563182,0.562273,0.3
0.01,0.165261,0.327878,0.441613,-1.10982,1.2556,-0.056649,-1.507673,-0.148966,-0.741337,0.306478,-1.864883,0.25877,0.155764,1.001677,0,0,-0.030326,0,-0.2618,-0.010108,1.5,0.2,0.6,0.6,0.6,0.55,0,0.2,0.675273,0.562636,0.562455,0.3
0.01,0.165261,0.327878,0.441613,-1.10982,1.2556,-0.056649,-1.507673,-0.148966,-0.74141,0.306477,-1.864883,0.25877,0.155764,1.001701,0,0,-0.030326,0,-0.2618,-0.010108,1.5,0.2,0.6,0.6,0.6,0.55,0,0.2,0.674182,0.562091,0.562636,0.3
0.01,0.165261,0.327878,0.441613,-1.10982,1.2556,-0.056649,-1.507673,-0.148966,-0.741483,0.306477,-1.864883,0.25877,0.155764,1.001725,0,0,-0.030326,0,-0.2618,-0.010108,1.5,0.2,0.6,0.6,0.6,0.55,0,0.2,0.673091,0.561545,0.562818,0.3
0.01,0.165261,0.327878,0.441613,-1.10982,1.2556,-0.056649,-1.507673,-0.148966,-0.741556,0.306477,-1.864884,0.258769,0.155765,1.00175,0,0,-0.030326,0,-0.2618,-0.010108,1.5,0.2,0.6,0.6,0.6,0.55,0,0.2,0.672,0.561,0.563,0.3
0.01,0.165261,0.327878,0.441613,-1.10982,1.2556,-0.056649,-1.507673,-0.148966,-0.741629,0.306476,-1.864884,0.258769,0.155765,1.001774,0,0,-0.030326,0,-0.2618,-0.010108,1.5,0.2,0.6,0.6,0.6,0.55,0,0.2,0.670909,0.560455,0.563182,0.3
0.01,0.165261,0.327878,0.441613,-1.10982,1.2556,-0.056649,-1.507673,-0.148966,-0.741702,0.306476,-1.864885,0.258769,0.155765,1.001798,0,0,-0.030326,0,-0.2618,-0.010108,1.5,0.2,0.6,0.6,0.6,0.55,0,0.2,0.669818,0.559909,0.563364,0.3
0.01,0.165261,0.327878,0.441613,-1.10982,1.2556,-0.056649,-1.507673,-0.148966,-0.741775,0.306476,-1.864885,0.258769,0.155766,1.001823,0,0,-0.030326,0,-0.2618,-0.010108,1.5,0.2,0.6,0.6,0.6,0.55,0,0.2,0.668727,0.559364,0.563545,0.3
0.01,0.165261,0.327878,0.441613,-1.10982,1.2556,-0.056649,-1.507673,-0.148966,-0.741848,0.306475,-1.864885,0.258768,0.155766,1.001847,0,0,-0.030326,0,-0.2618,-0.010108,1.5,0.2,0.6,0.6,0.6,0.55,0,0.2,0.667636,0.558818,0.563727,0.3
0.01,0.165261,0.327878,0.441613,-1.10982,1.2556,-0.056649,-1.507673,-0.148966,-0.741921,0.306475,-1.864886,0.258768,0.155766,1.001871,0,0,-0.030326,0,-0.2618,-0.010108,1.5,0.2,0.6,0.6,0.6,0.55,0,0.2,0.666545,0.558273,0.563909,0.3
0.01,0.165261,0.327878,0.441613,-1.10982,1.2556,-0.056649,-1.507673,-0.148967,-0.741994,0.306475,-1.864886,0.258768,0.155767,1.001896,0,0,-0.030326,0,-0.2618,-0.010108,1.5,0.2,0.6,0.6,0.6,0.55,0,0.2,0.665455,0.557727,0.564091,0.3
0.01,0.165261,0.327878,0.441613,-1.10982,1.2556,-0.056649,-1.507673,-0.148967,-0.742066,0.306475,-1.864886,0.258768,0.155767,1.00192,0,0,-0.030326,0,-0.2618,-0.010108,1.5,0.2,0.6,0.6,0.6,0.55,0,0.2,0.664364,0.557182,0.564273,0.3
0.01,0.165261,0.327878,0.441613,-1.10982,1.2556,-0.056649,-1.507673,-0.148967,-0.742139,0.306474,-1.864887,0.258767,0.155767,1.001944,0,0,-0.030326,0,-0.2618,-0.010108,1.5,0.2,0.6,0.6,0.6,0.55,0,0.2,0.663273,0.556636,0.564455,0.3
0.01,0.165261,0.327878,0.441613,-1.10982,1.2556,-0.056649,-1.507673,-0.148967,-0.742212,0.306474,-1.864887,0.258767,0.155768,1.001968,0,0,-0.030326,0,-0.2618,-0.010108,1.5,0.2,0.6,0.6,0.6,0.55,0,0.2,0.662182,0.556091,0.564636,0.3
0.01,0.165261,0.327878,0.441613,-1.10982,1.2556,-0.056649,-1.507673,-0.148967,-0.742285,0.306474,-1.864887,0.258767,0.155768,1.001993,0,0,-0.030326,0,-0.2618,-0.010108,1.5,0.2,0.6,0.6,0.6,0.55,0,0.2,0.661091,0.555545,0.564818,0.3
0.01,0.165261,0.327878,0.441613,-1.10982,1.2556,-0.056649,-1.507673,-0.148967,-0.742358,0.306474,-1.864888,0.258767,0.155768,1.002017,0,0,-0.030326,0,-0.2618,-0.010108,1.5,0.2,0.6,0.6,0.6,0.55,0,0.2,0.66,0.555,0.565,0.3
0.01,0.165261,0.327878,0.441613,-1.10982,1.2556,-0.056649,-1.507673,-0.148967,-0.742431,0.306473,-1.864888,0.258766,0.155768,1.002041,0,0,-0.030326,0,-0.2618,-0.010108,1.5,0.2,0.6,0.6,0.6,0.55,0,0.2,0.658909,0.554455,0.565182,0.3
0.01,0.165261,0.327878,0.441613,-1.10982,1.2556,-0.056649,-1.507673,-0.148967,-0.742504,0.306473,-1.864888,0.258766,0.155769,1.002065,0,0,-0.030326,0,-0.2618,-0.010108,1.5,0.2,0.6,0.6,0.6,0.55,0,0.2,0.657818,0.553909,0.565364,0.3
0.01,0.165261,0.327878,0.441613,-1.10982,1.2556,-0.056649,-1.507673,-0.148967,-0.742577,0.306473,-1.864888,0.258766,0.155769,1.00209,0,0,-0.030326,0,-0.2618,-0.010108,1.5,0.2,0.6,0.6,0.6,0.55,0,0.2,0.656727,0.553364,0.565545,0.3
0.01,0.165261,0.327878,0.441613,-1.10982,1.2556,-0.056649,-1.507673,-0.148967,-0.74265,0.306473,-1.864889,0.258766,0.155769,1.002114,0,0,-0.030326,0,-0.2618,-0.010108,1.5,0.2,0.6,0.6,0.6,0.55,0,0.2,0.655636,0.552818,0.565727,0.3
0.01,0.165261,0.327878,0.441613,-1.10982,1.2556,-0.056649,-1.507673,-0.148967,-0.742723,0.306472,-1.864889,0.258766,0.15577,1.002138,0,0,-0.030326,0,-0.2618,-0.010108,1.5,0.2,0.6,0.6,0.6,0.55,0,0.2,0.654545,0.552273,0.565909,0.3
0.01,0.165261,0.327878,0.441613,-1.10982,1.2556,-0.056649,-1.507673,-0.148967,-0.742796,0.306472,-1.864889,0.258765,0.15577,1.002162,0,0,-0.030326,0,-0.2618,-0.010108,1.5,0.2,0.6,0.6,0.6,0.55,0,0.2,0.653455,0.551727,0.566091,0.3
0.01,0.165261,0.327878,0.441613,-1.10982,1.2556,-0.056649,-1.507673,-0.148967,-0.742868,0.306472,-1.86489,0.258765,0.15577,1.002187,0,0,-0.030326,0,-0.2618,-0.010108,1.5,0.2,0.6,0.6,0.6,0.55,0,0.2,0.652364,0.551182,0.566273,0.3
0.01,0.165261,0.327878,0.441613,-1.10982,1.2556,-0.056649,-1.507673,-0.148967,-0.742941,0.306472,-1.86489,0.258765,0.15577,1.002211,0,0,-0.030326,0,-0.2618,-0.010108,1.5,0.2,0.6,0.6,0.6,0.55,0,0.2,0.651273,0.550636,0.566455,0.3
0.01,0.165261,0.327878,0.441613,-1.10982,1.2556,-0.056649,-1.507673,-0.148967,-0.743014,0.306471,-1.86489,0.258765,0.155771,1.002235,0,0,-0.030326,0,-0.2618,-0.010108,1.5,0.2,0.6,0.6,0.6,0.55,0,0.2,0.650182,0.550091,0.566636,0.3
0.01,0.165261,0.327878,0.441613,-1.10982,1.2556,-0.056649,-1.507673,-0.148967,-0.743087,0.306471,-1.86489,0.258765,0.155771,1.002259,0,0,-0.030326,0,-0.2618,-0.010108,1.5,0.2,0.6,0.6,0.6,0.55,0,0.2,0.649091,0.549545,0.566818,0.3
0.01,0.165261,0.327878,0.441613,-1.10982,1.2556,-0.056649,-1.507673,-0.148967,-0.74316,0.306471,-1.864891,0.258764,0.155771,1.002283,0,0,-0.030326,0,-0.2618,-0.010108,1.5,0.2,0.6,0.6,0.6,0.55,0,0.2,0.648,0.549,0.567,0.3
0.01,0.165261,0.327878,0.441613,-1.10982,1.2556,-0.056649,-1.507673,-0.148967,-0.743233,0.306471,-1.864891,0.258764,0.155771,1.002308,0,0,-0.030326,0,-0.2618,-0.010108,1.5,0.2,0.6,0.6,0.6,0.55,0,0.2,0.646909,0.548455,0.567182,0.3
0.01,0.165261,0.327878,0.441613,-1.10982,1.2556,-0.056649,-1.507673,-0.148967,-0.743306,0.306471,-1.864891,0.258764,0.155772,1.002332,0,0,-0.030326,0,-0.2618,-0.010108,1.5,0.2,0.6,0.6,0.6,0.55,0,0.2,0.645818,0.547909,0.567364,0.3
0.01,0.165261,0.327878,0.441613,-1.10982,1.2556,-0.056649,-1.507673,-0.148967,-0.743379,0.30647,-1.864891,0.258764,0.155772,1.002356,0,0,-0.030326,0,-0.2618,-0.010108,1.5,0.2,0.6,0.6,0.6,0.55,0,0.2,0.644727,0.547364,0.567545,0.3
0.01,0.165261,0.327878,0.441613,-1.10982,1.2556,-0.056649,-1.507673,-0.148967,-0.743452,0.30647,-1.864892,0.258764,0.155772,1.00238,0,0,-0.030326,0,-0.2618,-0.010108,1.5,0.2,0.6,0.6,0.6,0.55,0,0.2,0.643636,0.546818,0.567727,0.3
0.01,0.165261,0.327878,0.441613,-1.10982,1.2556,-0.056649,-1.507673,-0.148967,-0.743524,0.30647,-1.864892,0.258764,0.155772,1.002404,0,0,-0.030326,0,-0.2618,-0.010108,1.5,0.2,0.6,0.6,0.6,0.55,0,0.2,0.642545,0.546273,0.567909,0.3
0.01,0.165261,0.327878,0.441613,-1.10982,1.2556,-0.056649,-1.507673,-0.148967,-0.743597,0.30647,-1.864892,0.258763,0.155772,1.002429,0,0,-0.030326,0,-0.2618,-0.010108,1.5,0.2,0.6,0.6,0.6,0.55,0,0.2,0.641455,0.545727,0.568091,0.3
0.01,0.165261,0.327878,0.441613,-1.10982,1.2556,-0.056649,-1.507673,-0.148967,-0.74367,0.30647,-1.864892,0.258763,0.155773,1.002453,0,0,-0.030326,0,-0.2618,-0.010108,1.5,0.2,0.6,0.6,0.6,0.55,0,0.2,0.640364,0.545182,0.568273,0.3
0.01,0.165261,0.327878,0.441613,-1.10982,1.2556,-0.056649,-1.507673,-0.148967,-0.743743,0.306469,-1.864892,0.258763,0.155773,1.002477,0,0,-0.030326,0,-0.2618,-0.010108,1.5,0.2,0.6,0.6,0.6,0.55,0,0.2,0.639273,0.544636,0.568455,0.3
0.01,0.165261,0.327878,0.441613,-1.10982,1.2556,-0.056649,-1.507673,-0.148967,-0.743816,0.306469,-1.864893,0.258763,0.155773,1.002501,0,0,-0.030326,0,-0.2618,-0.010108,1.5,0.2,0.6,0.6,0.6,0.55,0,0.2,0.638182,0.544091,0.568636,0.3
0.01,0.165261,0.327878,0.441613,-1.10982,1.2556,-0.056649,-1.507673,-0.148967,-0.743889,0.306469,-1.864893,0.258763,0.155773,1.002525,0,0,-0.030326,0,-0.2618,-0.010108,1.5,0.2,0.6,0.6,0.6,0.55,0,0.2,0.637091,0.543545,0.568818,0.3
0.01,0.165261,0.327878,0.441613,-1.10982,1.2556,-0.056649,-1.507673,-0.148967,-0.743961,0.306469,-1.864893,0.258763,0.155773,1.002549,0,0,-0.030326,0,-0.2618,-0.010108,1.5,0.2,0.6,0.6,0.6,0.55,0,0.2,0.636,0.543,0.569,0.3
0.01,0.165261,0.327878,0.441613,-1.10982,1.2556,-0.056649,-1.507673,-0.148967,-0.744034,0.306469,-1.864893,0.258763,0.155773,1.002574,0,0,-0.030326,0,-0.2618,-0.010108,1.5,0.2,0.6,0.6,0.6,0.55,0,0.2,0.634909,0.542455,0.569182,0.3
0.01,0.165261,0.327878,0.441613,-1.10982,1.2556,-0.056649,-1.507673,-0.148967,-0.744107,0.306469,-1.864893,0.258762,0.155774,1.002598,0,0,-0.030326,0,-0.2618,-0.010108,1.5,0.2,0.6,0.6,0.6,0.55,0,0.2,0.633818,0.541909,0.569364,0.3
0.01,0.165261,0.327878,0.441613,-1.10982,1.2556,-0.056649,-1.507673,-0.148967,-0.74418,0.306469,-1.864893,0.258762,0.155774,1.002622,0,0,-0.030326,0,-0.2618,-0.010108,1.5,0.2,0.6,0.6,0.6,0.55,0,0.2,0.632727,0.541364,0.569545,0.3
0.01,0.165261,0.327878,0.441613,-1.10982,1.2556,-0.056649,-1.507673,-0.148967,-0.744253,0.306468,-1.864894,0.258762,0.155774,1.002646,0,0,-0.030326,0,-0.2618,-0.010108,1.5,0.2,0.6,0.6,0.6,0.55,0,0.2,0.631636,0.540818,0.569727,0.3
0.01,0.165261,0.327878,0.441613,-1.10982,1.2556,-0.056649,-1.507673,-0.148967,-0.744326,0.306468,-1.864894,0.258762,0.155774,1.00267,0,0,-0.030326,0,-0.2618,-0.010108,1.5,0.2,0.6,0.6,0.6,0.55,0,0.2,0.630545,0.540273,0.569909,0.3
0.01,0.165261,0.327878,0.441613,-1.10982,1.2556,-0.056649,-1.507673,-0.148967,-0.744398,0.306468,-1.864894,0.258762,0.155774,1.002694,0,0,-0.030326,0,-0.2618,-0.010108,1.5,0.2,0.6,0.6,0.6,0.55,0,0.2,0.629455,0.539727,0.570091,0.3
0.01,0.165261,0.327878,0.441613,-1.10982,1.2556,-0.056649,-1.507673,-0.148967,-0.744471,0.306468,-1.864894,0.258762,0.155774,1.002718,0,0,-0.030326,0,-0.2618,-0.010108,1.5,0.2,0.6,0.6,0.6,0.55,0,0.2,0.628364,0.539182,0.570273,0.3
0.01,0.165261,0.327878,0.441613,-1.10982,1.2556,-0.056649,-1.507673,-0.148967,-0.744544,0.306468,-1.864894,0.258762,0.155774,1.002743,0,0,-0.030326,0,-0.2618,-0.010108,1.5,0.2,0.6,0.6,0.6,0.55,0,0.2,0.627273,0.538636,0.570455,0.3
0.01,0.165261,0.327878,0.441613,-1.10982,1.2556,-0.056649,-1.507673,-0.148967,-0.744617,0.306468,-1.864894,0.258762,0.155775,1.002767,0,0,-0.030326,0,-0.2618,-0.010108,1.5,0.2,0.6,0.6,0.6,0.55,0,0.2,0.626182,0.538091,0.570636,0.3
0.01,0.165261,0.327878,0.441613,-1.10982,1.2556,-0.056649,-1.507673,-0.148967,-0.74469,0.306468,-1.864895,0.258761,0.155775,1.002791,0,0,-0.030326,0,-0.2618,-0.010108,1.5,0.2,0.6,0.6,0.6,0.55,0,0.2,0.625091,0.537545,0.570818,0.3
0.01,0.165261,0.327878,0.441613,-1.10982,1.2556,-0.056649,-1.507673,-0.148967,-0.744763,0.306468,-1.864895,0.258761,0.155775,1.002815,0,0,-0.030326,0,-0.2618,-0.010108,1.5,0.2,0.6,0.6,0.6,0.55,0,0.2,0.624,0.537,0.571,0.3
0.01,0.165261,0.327878,0.441613,-1.10982,1.2556,-0.056649,-1.507673,-0.148967,-0.744835,0.306467,-1.864895,0.258761,0.155775,1.002839,0,0,-0.030326,0,-0.2618,-0.010108,1.5,0.2,0.6,0.6,0.6,0.55,0,0.2,0.622909,0.536455,0.571182,0.3
0.01,0.165261,0.327878,0.441613,-1.10982,1.2556,-0.056649,-1.507673,-0.148967,-0.744908,0.306467,-1.864895,0.258761,0.155775,1.002863,0,0,-0.030326,0,-0.2618,-0.010108,1.5,0.2,0.6,0.6,0.6,0.55,0,0.2,0.621818,0.535909,0.571364,0.3
0.01,0.165261,0.327878,0.441613,-1.10982,1.2556,-0.056649,-1.507673,-0.148967,-0.744981,0.306467,-1.864895,0.258761,0.155775,1.002887,0,0,-0.030326,0,-0.2618,-0.010108,1.5,0.2,0.6,0.6,0.6,0.55,0,0.2,0.620727,0.535364,0.571545,0.3
0.01,0.165261,0.327878,0.441613,-1.10982,1.2556,-0.056649,-1.507673,-0.148967,-0.745054,0.306467,-1.864895,0.258761,0.155775,1.002911,0,0,-0.030326,0,-0.2618,-0.010108,1.5,0.2,0.6,0.6,0.6,0.55,0,0.2,0.619636,0.534818,0.571727,0.3
0.01,0.165261,0.327878,0.441613,-1.10982,1.2556,-0.056649,-1.507673,-0.148967,-0.745126,0.306467,-1.864895,0.258761,0.155775,1.002935,0,0,-0.030326,0,-0.2618,-0.010108,1.5,0.2,0.6,0.6,0.6,0.55,0,0.2,0.618545,0.534273,0.571909,0.3
0.01,0.165261,0.327878,0.441613,-1.10982,1.2556,-0.056649,-1.507673,-0.148967,-0.745199,0.306467,-1.864895,0.258761,0.155775,1.002959,0,0,-0.030326,0,-0.2618,-0.010108,1.5,0.2,0.6,0.6,0.6,0.55,0,0.2,0.617455,0.533727,0.572091,0.3
0.01,0.165261,0.327878,0.441613,-1.10982,1.2556,-0.056649,-1.507673,-0.148967,-0.745272,0.306467,-1.864895,0.258761,0.155775,1.002984,0,0,-0.030326,0,-0.2618,-0.010108,1.5,0.2,0.6,0.6,0.6,0.55,0,0.2,0.616364,0.533182,0.572273,0.3
0.01,0.165261,0.327878,0.441613,-1.10982,1.2556,-0.056649,-1.507673,-0.148967,-0.745345,0.306467,-1.864895,0.258761,0.155776,1.003008,0,0,-0.030326,0,-0.2618,-0.010108,1.5,0.2,0.6,0.6,0.6,0.55,0,0.2,0.615273,0.532636,0.572455,0.3
0.01,0.165261,0.327878,0.441613,-1.10982,1.2556,-0.056649,-1.507673,-0.148967,-0.745418,0.306467,-1.864895,0.258761,0.155776,1.003032,0,0,-0.030326,0,-0.2618,-0.010108,1.5,0.2,0.6,0.6,0.6,0.55,0,0.2,0.614182,0.532091,0.572636,0.3
0.01,0.165261,0.327878,0.441613,-1.10982,1.2556,-0.056649,-1.507673,-0.148967,-0.74549,0.306467,-1.864896,0.258761,0.155776,1.003056,0,0,-0.030326,0,-0.2618,-0.010108,1.5,0.2,0.6,0.6,0.6,0.55,0,0.2,0.613091,0.531545,0.572818,0.3
0.01,0.165261,0.327878,0.441613,-1.10982,1.2556,-0.056649,-1.507673,-0.148967,-0.745563,0.306467,-1.864896,0.258761,0.155776,1.00308,0,0,-0.030326,0,-0.2618,-0.010108,1.5,0.2,0.6,0.6,0.6,0.55,0,0.2,0.612,0.531,0.573,0.3
0.01,0.165261,0.327878,0.441613,-1.10982,1.2556,-0.056649,-1.507673,-0.148967,-0.745636,0.306467,-1.864896,0.258761,0.155776,1.003104,0,0,-0.030326,0,-0.2618,-0.010108,1.5,0.2,0.6,0.6,0.6,0.55,0,0.2,0.610909,0.530455,0.573182,0.3
0.01,0.165261,0.327878,0.441613,-1.10982,1.2556,-0.056649,-1.507673,-0.148967,-0.745709,0.306467,-1.864896,0.258761,0.155776,1.003128,0,0,-0.030326,0,-0.2618,-0.010108,1.5,0.2,0.6,0.6,0.6,0.55,0,0.2,0.609818,0.529909,0.573364,0.3
0.01,0.165261,0.327878,0.441613,-1.10982,1.2556,-0.056649,-1.507673,-0.148967,-0.745781,0.306467,-1.864896,0.25876,0.155776,1.003152,0,0,-0.030326,0,-0.2618,-0.010108,1.5,0.2,0.6,0.6,0.6,0.55,0,0.2,0.608727,0.529364,0.573545,0.3
0.01,0.165261,0.327878,0.441613,-1.10982,1.2556,-0.056649,-1.507673,-0.148967,-0.745854,0.306467,-1.864896,0.25876,0.155776,1.003176,0,0,-0.030326,0,-0.2618,-0.010108,1.5,0.2,0.6,0.6,0.6,0.55,0,0.2,0.607636,0.528818,0.573727,0.3
0.01,0.165261,0.327878,0.441613,-1.10982,1.2556,-0.056649,-1.507673,-0.148967,-0.745927,0.306466,-1.864896,0.25876,0.155776,1.0032,0,0,-0.030326,0,-0.2618,-0.010108,1.5,0.2,0.6,0.6,0.6,0.55,0,0.2,0.606545,0.528273,0.573909,0.3
0.01,0.165261,0.327878,0.441613,-1.10982,1.2556,-0.056649,-1.507673,-0.148967,-0.746,0.306466,-1.864896,0.25876,0.155776,1.003224,0,0,-0.030326,0,-0.2618,-0.010108,1.5,0.2,0.6,0.6,0.6,0.55,0,0.2,0.605455,0.527727,0.574091,0.3
0.01,0.165261,0.327878,0.441613,-1.10982,1.2556,-0.056649,-1.507673,-0.148967,-0.746072,0.306466,-1.864896,0.25876,0.155776,1.003248,0,0,-0.030326,0,-0.2618,-0.010108,1.5,0.2,0.6,0.6,0.6,0.55,0,0.2,0.604364,0.527182,0.574273,0.3
0.01,0.165261,0.327878,0.441613,-1.10982,1.2556,-0.056649,-1.507673,-0.148967,-0.746145,0.306466,-1.864896,0.25876,0.155776,1.003272,0,0,-0.030326,0,-0.2618,-0.010108,1.5,0.2,0.6,0.6,0.6,0.55,0,0.2,0.603273,0.526636,0.574455,0.3
0.01,0.165261,0.327878,0.441613,-1.10982,1.2556,-0.056649,-1.507673,-0.148967,-0.746218,0.306466,-1.864896,0.25876,0.155776,1.003296,0,0,-0.030326,0,-0.2618,-0.010108,1.5,0.2,0.6,0.6,0.6,0.55,0,0.2,0.602182,0.526091,0.574636,0.3
0.01,0.165261,0.327878,0.441613,-1.10982,1.2556,-0.056649,-1.507673,-0.148967,-0.746291,0.306466,-1.864896,0.25876,0.155776,1.00332,0,0,-0.030326,0,-0.2618,-0.010108,1.5,0.2,0.6,0.6,0.6,0.55,0,0.2,0.601091,0.525545,0.574818,0.3
0.01,0.165261,0.327878,0.441613,-1.10982,1.2556,-0.056649,-1.507673,-0.148967,-0.746363,0.306466,-1.864896,0.25876,0.155776,1.003344,0,0,-0.030326,0,-0.2618,-0.010108,1.5,0.2,0.6,0.6,0.6,0.55,0,0.2,0.6,0.525,0.575,0.3
0.01,0.165261,0.327878,0.441613,-1.10982,1.2556,-0.056649,-1.507673,-0.148967,-0.746436,0.306466,-1.864896,0.25876,0.155776,1.003368,0,0,-0.030326,0,-0.2618,-0.010108,1.5,0.2,0.6,0.6,0.6,0.55,0,0.2,0.598909,0.524455,0.575182,0.3
0.01,0.165261,0.327878,0.441613,-1.10982,1.2556,-0.056649,-1.507673,-0.148967,-0.746509,0.306466,-1.864896,0.25876,0.155776,1.003392,0,0,-0.030326,0,-0.2618,-0.010108,1.5,0.2,0.6,0.6,0.6,0.55,0,0.2,0.597818,0.523909,0.575364,0.3
0.01,0.165261,0.327878,0.441613,-1.10982,1.2556,-0.056649,-1.507673,-0.148967,-0.746582,0.306466,-1.864896,0.25876,0.155776,1.003416,0,0,-0.030326,0,-0.2618,-0.010108,1.5,0.2,0.6,0.6,0.6,0.55,0,0.2,0.596727,0.523364,0.575545,0.3
0.01,0.165261,0.327878,0.441613,-1.10982,1.2556,-0.056649,-1.507673,-0.148967,-0.746654,0.306466,-1.864896,0.25876,0.155776,1.00344,0,0,-0.030326,0,-0.2618,-0.010108,1.5,0.2,0.6,0.6,0.6,0.55,0,0.2,0.595636,0.522818,0.575727,0.3
0.01,0.165261,0.327878,0.441613,-1.10982,1.2556,-0.056649,-1.507673,-0.148967,-0.746727,0.306466,-1.864896,0.25876,0.155776,1.003464,0,0,-0.030326,0,-0.2618,-0.010108,1.5,0.2,0.6,0.6,0.6,0.55,0,0.2,0.594545,0.522273,0.575909,0.3
0.01,0.165261,0.327878,0.441613,-1.10982,1.2556,-0.056649,-1.507673,-0.148967,-0.7468,0.306466,-1.864896,0.25876,0.155776,1.003488,0,0,-0.030326,0,-0.2618,-0.010108,1.5,0.2,0.6,0.6,0.6,0.55,0,0.2,0.593455,0.521727,0.576091,0.3
0.01,0.165261,0.327878,0.441613,-1.10982,1.2556,-0.056649,-1.507673,-0.148967,-0.746872,0.306466,-1.864896,0.25876,0.155776,1.003512,0,0,-0.030326,0,-0.2618,-0.010108,1.5,0.2,0.6,0.6,0.6,0.55,0,0.2,0.592364,0.521182,0.576273,0.3
0.01,0.165261,0.327878,0.441613,-1.10982,1.2556,-0.056649,-1.507673,-0.148967,-0.746945,0.306466,-1.864896,0.25876,0.155776,1.003536,0,0,-0.030326,0,-0.2618,-0.010108,1.5,0.2,0.6,0.6,0.6,0.55,0,0.2,0.591273,0.520636,0.576455,0.3
0.01,0.165261,0.327878,0.441613,-1.10982,1.2556,-0.056649,-1.507673,-0.148967,-0.747018,0.306467,-1.864896,0.258761,0.155776,1.00356,0,0,-0.030326,0,-0.2618,-0.010108,1.5,0.2,0.6,0.6,0.6,0.55,0,0.2,0.590182,0.520091,0.576636,0.3
0.01,0.165261,0.327878,0.441613,-1.10982,1.2556,-0.056649,-1.507673,-0.148967,-0.74709,0.306467,-1.864896,0.258761,0.155776,1.003584,0,0,-0.030326,0,-0.2618,-0.010108,1.5,0.2,0.6,0.6,0.6,0.55,0,0.2,0.589091,0.519545,0.576818,0.3
0.01,0.165261,0.327878,0.441613,-1.10982,1.2556,-0.056649,-1.507673,-0.148967,-0.747163,0.306467,-1.864896,0.258761,0.155776,1.003608,0,0,-0.030326,0,-0.2618,-0.010108,1.5,0.2,0.6,0.6,0.6,0.55,0,0.2,0.588,0.519,0.577,0.3
0.01,0.165261,0.327878,0.441613,-1.10982,1.2556,-0.056649,-1.507673,-0.148967,-0.747236,0.306467,-1.864896,0.258761,0.155776,1.003632,0,0,-0.030326,0,-0.2618,-0.010108,1.5,0.2,0.6,0.6,0.6,0.55,0,0.2,0.586909,0.518455,0.577182,0.3
0.01,0.165261,0.327878,0.441613,-1.10982,1.2556,-0.056649,-1.507673,-0.148967,-0.747308,0.306467,-1.864895,0.258761,0.155776,1.003656,0,0,-0.030326,0,-0.2618,-0.010108,1.5,0.2,0.6,0.6,0.6,0.55,0,0.2,0.585818,0.517909,0.577364,0.3
0.01,0.165261,0.327878,0.441613,-1.10982,1.2556,-0.056649,-1.507673,-0.148967,-0.747381,0.306467,-1.864895,0.258761,0.155775,1.00368,0,0,-0.030326,0,-0.2618,-0.010108,1.5,0.2,0.6,0.6,0.6,0.55,0,0.2,0.584727,0.517364,0.577545,0.3
0.01,0.165261,0.327878,0.441613,-1.10982,1.2556,-0.056649,-1.507673,-0.148967,-0.747454,0.306467,-1.864895,0.258761,0.155775,1.003704,0,0,-0.030326,0,-0.2618,-0.010108,1.5,0.2,0.6,0.6,0.6,0.55,0,0.2,0.583636,0.516818,0.577727,0.3
0.01,0.165261,0.327878,0.441613,-1.10982,1.2556,-0.056649,-1.507673,-0.148967,-0.747527,0.306467,-1.864895,0.258761,0.155775,1.003727,0,0,-0.030326,0,-0.2618,-0.010108,1.5,0.2,0.6,0.6,0.6,0.55,0,0.2,0.582545,0.516273,0.577909,0.3
0.01,0.165261,0.327878,0.441613,-1.10982,1.2556,-0.056649,-1.507673,-0.148967,-0.747599,0.306467,-1.864895,0.258761,0.155775,1.003751,0,0,-0.030326,0,-0.2618,-0.010108,1.5,0.2,0.6,0.6,0.6,0.55,0,0.2,0.581455,0.515727,0.578091,0.3
0.01,0.165261,0.327878,0.441613,-1.10982,1.2556,-0.056649,-1.507673,-0.148967,-0.747672,0.306467,-1.864895,0.258761,0.155775,1.003775,0,0,-0.030326,0,-0.2618,-0.010108,1.5,0.2,0.6,0.6,0.6,0.55,0,0.2,0.580364,0.515182,0.578273,0.3
0.01,0.165261,0.327878,0.441613,-1.10982,1.2556,-0.056649,-1.507673,-0.148967,-0.747745,0.306467,-1.864895,0.258761,0.155775,1.003799,0,0,-0.030326,0,-0.2618,-0.010108,1.5,0.2,0.6,0.6,0.6,0.55,0,0.2,0.579273,0.514636,0.578455,0.3
0.01,0.165261,0.327878,0.441613,-1.10982,1.2556,-0.056649,-1.507673,-0.148967,-0.747817,0.306467,-1.864895,0.258761,0.155775,1.003823,0,0,-0.030326,0,-0.2618,-0.010108,1.5,0.2,0.6,0.6,0.6,0.55,0,0.2,0.578182,0.514091,0.578636,0.3
0.01,0.165261,0.327878,0.441613,-1.10982,1.2556,-0.056649,-1.507673,-0.148967,-0.74789,0.306467,-1.864895,0.258761,0.155775,1.003847,0,0,-0.030326,0,-0.2618,-0.010108,1.5,0.2,0.6,0.6,0.6,0.55,0,0.2,0.577091,0.513545,0.578818,0.3
0.01,0.165261,0.327878,0.441613,-1.10982,1.2556,-0.056649,-1.507673,-0.148967,-0.747963,0.306467,-1.864895,0.258761,0.155775,1.003871,0,0,-0.030326,0,-0.2618,-0.010108,1.5,0.2,0.6,0.6,0.6,0.55,0,0.2,0.576,0.513,0.579,0.3
0.01,0.165261,0.327878,0.441613,-1.10982,1.2556,-0.056649,-1.507673,-0.148967,-0.748035,0.306468,-1.864894,0.258761,0.155775,1.003895,0,0,-0.030326,0,-0.2618,-0.010108,1.5,0.2,0.6,0.6,0.6,0.55,0,0.2,0.574909,0.512455,0.579182,0.3
0.01,0.165261,0.327878,0.441613,-1.10982,1.2556,-0.056649,-1.507673,-0.148967,-0.748108,0.306468,-1.864894,0.258762,0.155774,1.003919,0,0,-0.030326,0,-0.2618,-0.010108,1.5,0.2,0.6,0.6,0.6,0.55,0,0.2,0.573818,0.511909,0.579364,0.3
0.01,0.165261,0.327878,0.441613,-1.10982,1.2556,-0.056649,-1.507673,-0.148967,-0.74818,0.306468,-1.864894,0.258762,0.155774,1.003943,0,0,-0.030326,0,-0.2618,-0.010108,1.5,0.2,0.6,0.6,0.6,0.55,0,0.2,0.572727,0.511364,0.579545,0.3
0.01,0.165261,0.327878,0.441613,-1.10982,1.2556,-0.056649,-1.507673,-0.148967,-0.748253,0.306468,-1.864894,0.258762,0.155774,1.003967,0,0,-0.030326,0,-0.2618,-0.010108,1.5,0.2,0.6,0.6,0.6,0.55,0,0.2,0.571636,0.510818,0.579727,0.3
0.01,0.165261,0.327878,0.441613,-1.10982,1.2556,-0.056649,-1.507673,-0.148967,-0.748326,0.306468,-1.864894,0.258762,0.155774,1.00399,0,0,-0.030326,0,-0.2618,-0.010108,1.5,0.2,0.6,0.6,0.6,0.55,0,0.2,0.570545,0.510273,0.579909,0.3
0.01,0.165261,0.327878,0.441613,-1.10982,1.2556,-0.056649,-1.507673,-0.148967,-0.748398,0.306468,-1.864894,0.258762,0.155774,1.004014,0,0,-0.030326,0,-0.2618,-0.010108,1.5,0.2,0.6,0.6,0.6,0.55,0,0.2,0.569455,0.509727,0.580091,0.3
0.01,0.165261,0.327878,0.441613,-1.10982,1.2556,-0.056649,-1.507673,-0.148967,-0.748471,0.306468,-1.864894,0.258762,0.155774,1.004038,0,0,-0.030326,0,-0.2618,-0.010108,1.5,0.2,0.6,0.6,0.6,0.55,0,0.2,0.568364,0.509182,0.580273,0.3
0.01,0.165261,0.327878,0.441613,-1.10982,1.2556,-0.056649,-1.507673,-0.148967,-0.748544,0.306468,-1.864893,0.258762,0.155774,1.004062,0,0,-0.030326,0,-0.2618,-0.010108,1.5,0.2,0.6,0.6,0.6,0.55,0,0.2,0.567273,0.508636,0.580455,0.3
0.01,0.165261,0.327878,0.441613,-1.10982,1.2556,-0.056649,-1.507673,-0.148967,-0.748616,0.306468,-1.864893,0.258762,0.155773,1.004086,0,0,-0.030326,0,-0.2618,-0.010108,1.5,0.2,0.6,0.6,0.6,0.55,0,0.2,0.566182,0.508091,0.580636,0.3
0.01,0.165261,0.327878,0.441613,-1.10982,1.2556,-0.056649,-1.507673,-0.148967,-0.748689,0.306469,-1.864893,0.258763,0.155773,1.00411,0,0,-0.030326,0,-0.2618,-0.010108,1.5,0.2,0.6,0.6,0.6,0.55,0,0.2,0.565091,0.507545,0.580818,0.3
0.01,0.165261,0.327878,0.441613,-1.10982,1.2556,-0.056649,-1.507673,-0.148967,-0.748761,0.306469,-1.864893,0.258763,0.155773,1.004134,0,0,-0.030326,0,-0.2618,-0.010108,1.5,0.2,0.6,0.6,0.6,0.55,0,0.2,0.564,0.507,0.581,0.3
0.01,0.165261,0.327878,0.441613,-1.10982,1.2556,-0.056649,-1.507673,-0.148967,-0.748834,0.306469,-1.864893,0.258763,0.155773,1.004157,0,0,-0.030326,0,-0.2618,-0.010108,1.5,0.2,0.6,0.6,0.6,0.55,0,0.2,0.562909,0.506455,0.581182,0.3
0.01,0.165261,0.327878,0.441613,-1.10982,1.2556,-0.056649,-1.507673,-0.148967,-0.748907,0.306469,-1.864892,0.258763,0.155773,1.004181,0,0,-0.030326,0,-0.2618,-0.010108,1.5,0.2,0.6,0.6,0.6,0.55,0,0.2,0.561818,0.505909,0.581364,0.3
0.01,0.165261,0.327878,0.441613,-1.10982,1.2556,-0.056649,-1.507673,-0.148967,-0.748979,0.306469,-1.864892,0.258763,0.155772,1.004205,0,0,-0.030326,0,-0.2618,-0.010108,1.5,0.2,0.6,0.6,0.6,0.55,0,0.2,0.560727,0.505364,0.581545,0.3
0.01,0.165261,0.327878,0.441613,-1.10982,1.2556,-0.056649,-1.507673,-0.148967,-0.749052,0.306469,-1.864892,0.258763,0.155772,1.004229,0,0,-0.030326,0,-0.2618,-0.010108,1.5,0.2,0.6,0.6,0.6,0.55,0,0.2,0.559636,0.504818,0.581727,0.3
0.01,0.165261,0.327878,0.441613,-1.10982,1.2556,-0.056649,-1.507673,-0.148967,-0.749124,0.30647,-1.864892,0.258763,0.155772,1.004253,0,0,-0.030326,0,-0.2618,-0.010108,1.5,0.2,0.6,0.6,0.6,0.55,0,0.2,0.558545,0.504273,0.581909,0.3
0.01,0.165261,0.327878,0.441613,-1.10982,1.2556,-0.056649,-1.507673,-0.148967,-0.749197,0.30647,-1.864892,0.258764,0.155772,1.004277,0,0,-0.030326,0,-0.2618,-0.010108,1.5,0.2,0.6,0.6,0.6,0.55,0,0.2,0.557455,0.503727,0.582091,0.3
0.01,0.165261,0.327878,0.441613,-1.10982,1.2556,-0.056649,-1.507673,-0.148967,-0.74927,0.30647,-1.864891,0.258764,0.155772,1.0043,0,0,-0.030326,0,-0.2618,-0.010108,1.5,0.2,0.6,0.6,0.6,0.55,0,0.2,0.556364,0.503182,0.582273,0.3
0.01,0.165261,0.327878,0.441613,-1.10982,1.2556,-0.056649,-1.507673,-0.148967,-0.749342,0.30647,-1.864891,0.258764,0.155771,1.004324,0,0,-0.030326,0,-0.2618,-0.010108,1.5,0.2,0.6,0.6,0.6,0.55,0,0.2,0.555273,0.502636,0.582455,0.3
0.01,0.165261,0.327878,0.441613,-1.10982,1.2556,-0.056649,-1.507673,-0.148967,-0.749415,0.30647,-1.864891,0.258764,0.155771,1.004348,0,0,-0.030326,0,-0.2618,-0.010108,1.5,0.2,0.6,0.6,0.6,0.55,0,0.2,0.554182,0.502091,0.582636,0.3
0.01,0.165261,0.327878,0.441613,-1.10982,1.2556,-0.056649,-1.507673,-0.148967,-0.749487,0.306471,-1.864891,0.258764,0.155771,1.004372,0,0,-0.030326,0,-0.2618,-0.010108,1.5,0.2,0.6,0.6,0.6,0.55,0,0.2,0.553091,0.501545,0.582818,0.3
0.01,0.165261,0.327878,0.441613,-1.10982,1.2556,-0.056649,-1.507673,-0.148967,-0.74956,0.306471,-1.86489,0.258764,0.155771,1.004396,0,0,-0.030326,0,-0.2618,-0.010108,1.5,0.2,0.6,0.6,0.6,0.55,0,0.2,0.552,0.501,0.583,0.3
0.01,0.165261,0.327878,0.441613,-1.10982,1.2556,-0.056649,-1.507673,-0.148967,-0.749633,0.306471,-1.86489,0.258765,0.155771,1.004419,0,0,-0.030326,0,-0.2618,-0.010108,1.5,0.2,0.6,0.6,0.6,0.55,0,0.2,0.550909,0.500455,0.583182,0.3
0.01,0.165261,0.327878,0.441613,-1.10982,1.2556,-0.056649,-1.507673,-0.148966,-0.749705,0.306471,-1.86489,0.258765,0.15577,1.004443,0,0,-0.030326,0,-0.2618,-0.010108,1.5,0.2,0.6,0.6,0.6,0.55,0,0.2,0.549818,0.499909,0.583364,0.3
0.01,0.165261,0.327878,0.441613,-1.10982,1.2556,-0.056649,-1.507673,-0.148966,-0.749778,0.306471,-1.86489,0.258765,0.15577,1.004467,0,0,-0.030326,0,-0.2618,-0.010108,1.5,0.2,0.6,0.6,0.6,0.55,0,0.2,0.548727,0.499364,0.583545,0.3
0.01,0.165261,0.327878,0.441613,-1.10982,1.2556,-0.056649,-1.507673,-0.148966,-0.74985,0.306472,-1.864889,0.258765,0.15577,1.004491,0,0,-0.030326,0,-0.2618,-0.010108,1.5,0.2,0.6,0.6,0.6,0.55,0,0.2,0.547636,0.498818,0.583727,0.3
0.01,0.165261,0.327878,0.441613,-1.10982,1.2556,-0.056649,-1.507673,-0.148966,-0.749923,0.306472,-1.864889,0.258765,0.15577,1.004515,0,0,-0.030326,0,-0.2618,-0.010108,1.5,0.2,0.6,0.6,0.6,0.55,0,0.2,0.546545,0.498273,0.583909,0.3
0.01,0.165261,0.327878,0.441613,-1.10982,1.2556,-0.056649,-1.507673,-0.148966,-0.749995,0.306472,-1.864889,0.258766,0.155769,1.004538,0,0,-0.030326,0,-0.2618,-0.010108,1.5,0.2,0.6,0.6,0.6,0.55,0,0.2,0.545455,0.497727,0.584091,0.3
0.01,0.165261,0.327878,0.441613,-1.10982,1.2556,-0.056649,-1.507673,-0.148966,-0.750068,0.306472,-1.864889,0.258766,0.155769,1.004562,0,0,-0.030326,0,-0.2618,-0.010108,1.5,0.2,0.6,0.6,0.6,0.55,0,0.2,0.544364,0.497182,0.584273,0.3
0.01,0.165261,0.327878,0.441613,-1.10982,1.2556,-0.056649,-1.507673,-0.148966,-0.750141,0.306472,-1.864888,0.258766,0.155769,1.004586,0,0,-0.030326,0,-0.2618,-0.010108,1.5,0.2,0.6,0.6,0.6,0.55,0,0.2,0.543273,0.496636,0.584455,0.3
0.01,0.165261,0.327878,0.441613,-1.10982,1.2556,-0.056649,-1.507673,-0.148966,-0.750213,0.306473,-1.864888,0.258766,0.155768,1.00461,0,0,-0.030326,0,-0.2618,-0.010108,1.5,0.2,0.6,0.6,0.6,0.55,0,0.2,0.542182,0.496091,0.584636,0.3
0.01,0.165261,0.327878,0.441613,-1.10982,1.2556,-0.056649,-1.507673,-0.148966,-0.750286,0.306473,-1.864888,0.258766,0.155768,1.004633,0,0,-0.030326,0,-0.2618,-0.010108,1.5,0.2,0.6,0.6,0.6,0.55,0,0.2,0.541091,0.495545,0.584818,0.3
0.01,0.165261,0.327878,0.441613,-1.10982,1.2556,-0.056649,-1.507673,-0.148966,-0.750358,0.306473,-1.864887,0.258767,0.155768,1.004657,0,0,-0.030326,0,-0.2618,-0.010108,1.5,0.2,0.6,0.6,0.6,0.55,0,0.2,0.54,0.495,0.585,0.3
0.01,0.165261,0.327878,0.441613,-1.10982,1.2556,-0.056649,-1.507673,-0.148966,-0.750431,0.306473,-1.864887,0.258767,0.155768,1.004681,0,0,-0.030326,0,-0.2618,-0.010108,1.5,0.2,0.6,0.6,0.6,0.55,0,0.2,0.538909,0.494455,0.585182,0.3
0.01,0.165261,0.327878,0.441613,-1.10982,1.2556,-0.056649,-1.507673,-0.148966,-0.750503,0.306474,-1.864887,0.258767,0.155767,1.004705,0,0,-0.030326,0,-0.2618,-0.010108,1.5,0.2,0.6,0.6,0.6,0.55,0,0.2,0.537818,0.493909,0.585364,0.3
0.01,0.165261,0.327878,0.441613,-1.10982,1.2556,-0.056649,-1.507673,-0.148966,-0.750576,0.306474,-1.864886,0.258767,0.155767,1.004728,0,0,-0.030326,0,-0.2618,-0.010108,1.5,0.2,0.6,0.6,0.6,0.55,0,0.2,0.536727,0.493364,0.585545,0.3
0.01,0.165261,0.327878,0.441613,-1.10982,1.2556,-0.056649,-1.507673,-0.148966,-0.750648,0.306474,-1.864886,0.258768,0.155767,1.004752,0,0,-0.030326,0,-0.2618,-0.010108,1.5,0.2,0.6,0.6,0.6,0.55,0,0.2,0.535636,0.492818,0.585727,0.3
0.01,0.165261,0.327878,0.441613,-1.10982,1.2556,-0.056649,-1.507673,-0.148966,-0.750721,0.306475,-1.864886,0.258768,0.155766,1.004776,0,0,-0.030326,0,-0.2618,-0.010108,1.5,0.2,0.6,0.6,0.6,0.55,0,0.2,0.534545,0.492273,0.585909,0.3
0.01,0.165261,0.327878,0.441613,-1.10982,1.2556,-0.056649,-1.507673,-0.148966,-0.750793,0.306475,-1.864885,0.258768,0.155766,1.004799,0,0,-0.030326,0,-0.2618,-0.010108,1.5,0.2,0.6,0.6,0.6,0.55,0,0.2,0.533455,0.491727,0.586091,0.3
0.01,0.165261,0.327878,0.441613,-1.10982,1.2556,-0.056649,-1.507673,-0.148966,-0.750866,0.306475,-1.864885,0.258768,0.155766,1.004823,0,0,-0.030326,0,-0.2618,-0.010108,1.5,0.2,0.6,0.6,0.6,0.55,0,0.2,0.532364,0.491182,0.586273,0.3
0.01,0.165261,0.327878,0.441613,-1.10982,1.2556,-0.056649,-1.507673,-0.148966,-0.750938,0.306475,-1.864885,0.258769,0.155765,1.004847,0,0,-0.030326,0,-0.2618,-0.010108,1.5,0.2,0.6,0.6,0.6,0.55,0,0.2,0.531273,0.490636,0.586455,0.3
0.01,0.165261,0.327878,0.441613,-1.10982,1.2556,-0.056649,-1.507673,-0.148966,-0.751011,0.306476,-1.864884,0.258769,0.155765,1.004871,0,0,-0.030326,0,-0.2618,-0.010108,1.5,0.2,0.6,0.6,0.6,0.55,0,0.2,0.530182,0.490091,0.586636,0.3
0.01,0.165261,0.327878,0.441613,-1.10982,1.2556,-0.056649,-1.507673,-0.148966,-0.751083,0.306476,-1.864884,0.258769,0.155765,1.004894,0,0,-0.030326,0,-0.2618,-0.010108,1.5,0.2,0.6,0.6,0.6,0.55,0,0.2,0.529091,0.489545,0.586818,0.3
0.01,0.165261,0.327878,0.441613,-1.10982,1.2556,-0.056649,-1.507673,-0.148966,-0.751156,0.306476,-1.864884,0.258769,0.155764,1.004918,0,0,-0.030326,0,-0.2618,-0.010108,1.5,0.2,0.6,0.6,0.6,0.55,0,0.2,0.528,0.489,0.587,0.3
0.01,0.165261,0.327878,0.441613,-1.10982,1.2556,-0.056649,-1.507673,-0.148966,-0.751228,0.306477,-1.864883,0.25877,0.155764,1.004942,0,0,-0.030326,0,-0.2618,-0.010108,1.5,0.2,0.6,0.6,0.6,0.55,0,0.2,0.526909,0.488455,0.587182,0.3
0.01,0.165261,0.327878,0.441613,-1.10982,1.2556,-0.056649,-1.507673,-0.148966,-0.751301,0.306477,-1.864883,0.25877,0.155764,1.004965,0,0,-0.030326,0,-0.2618,-0.010108,1.5,0.2,0.6,0.6,0.6,0.55,0,0.2,0.525818,0.487909,0.587364,0.3
0.01,0.165261,0.327878,0.441613,-1.10982,1.2556,-0.056649,-1.507673,-0.148966,-0.751373,0.306477,-1.864882,0.25877,0.155763,1.004989,0,0,-0.030326,0,-0.2618,-0.010108,1.5,0.2,0.6,0.6,0.6,0.55,0,0.2,0.524727,0.487364,0.587545,0.3
0.01,0.165261,0.327878,0.441613,-1.10982,1.2556,-0.056649,-1.507673,-0.148966,-0.751446,0.306477,-1.864882,0.258771,0.155763,1.005013,0,0,-0.030326,0,-0.2618,-0.010108,1.5,0.2,0.6,0.6,0.6,0.55,0,0.2,0.523636,0.486818,0.587727,0.3
0.01,0.165261,0.327878,0.441613,-1.10982,1.2556,-0.056649,-1.507673,-0.148966,-0.751518,0.306478,-1.864882,0.258771,0.155762,1.005036,0,0,-0.030326,0,-0.2618,-0.010108,1.5,0.2,0.6,0.6,0.6,0.55,0,0.2,0.522545,0.486273,0.587909,0.3
0.01,0.165261,0.327878,0.441613,-1.10982,1.2556,-0.056649,-1.507673,-0.148966,-0.751591,0.306478,-1.864881,0.258771,0.155762,1.00506,0,0,-0.030326,0,-0.2618,-0.010108,1.5,0.2,0.6,0.6,0.6,0.55,0,0.2,0.521455,0.485727,0.588091,0.3
0.01,0.165261,0.327878,0.441613,-1.10982,1.2556,-0.056649,-1.507673,-0.148966,-0.751663,0.306478,-1.864881,0.258772,0.155762,1.005084,0,0,-0.030326,0,-0.2618,-0.010108,1.5,0.2,0.6,0.6,0.6,0.55,0,0.2,0.520364,0.485182,0.588273,0.3
0.01,0.165261,0.327878,0.441613,-1.10982,1.2556,-0.056649,-1.507673,-0.148966,-0.751736,0.306479,-1.86488,0.258772,0.155761,1.005107,0,0,-0.030326,0,-0.2618,-0.010108,1.5,0.2,0.6,0.6,0.6,0.55,0,0.2,0.519273,0.484636,0.588455,0.3
0.01,0.165261,0.327878,0.441613,-1.10982,1.2556,-0.056649,-1.507673,-0.148966,-0.751808,0.306479,-1.86488,0.258772,0.155761,1.005131,0,0,-0.030326,0,-0.2618,-0.010108,1.5,0.2,0.6,0.6,0.6,0.55,0,0.2,0.518182,0.484091,0.588636,0.3
0.01,0.165261,0.327878,0.441613,-1.10982,1.2556,-0.056649,-1.507673,-0.148966,-0.751881,0.30648,-1.86488,0.258772,0.155761,1.005155,0,0,-0.030326,0,-0.2618,-0.010108,1.5,0.2,0.6,0.6,0.6,0.55,0,0.2,0.517091,0.483545,0.588818,0.3
0.01,0.165261,0.327878,0.441613,-1.10982,1.2556,-0.056649,-1.507673,-0.148966,-0.751953,0.30648,-1.864879,0.258773,0.15576,1.005178,0,0,-0.030326,0,-0.2618,-0.010108,1.5,0.2,0.6,0.6,0.6,0.55,0,0.2,0.516,0.483,0.589,0.3
0.01,0.165261,0.327878,0.441613,-1.10982,1.2556,-0.056649,-1.507673,-0.148966,-0.752026,0.30648,-1.864879,0.258773,0.15576,1.005202,0,0,-0.030326,0,-0.2618,-0.010108,1.5,0.2,0.6,0.6,0.6,0.55,0,0.2,0.514909,0.482455,0.589182,0.3
0.01,0.165261,0.327878,0.441613,-1.10982,1.2556,-0.056649,-1.507673,-0.148966,-0.752098,0.306481,-1.864878,0.258773,0.155759,1.005226,0,0,-0.030326,0,-0.2618,-0.010108,1.5,0.2,0.6,0.6,0.6,0.55,0,0.2,0.513818,0.481909,0.589364,0.3
0.01,0.165261,0.327878,0.441613,-1.10982,1.2556,-0.056649,-1.507673,-0.148966,-0.752171,0.306481,-1.864878,0.258774,0.155759,1.005249,0,0,-0.030326,0,-0.2618,-0.010108,1.5,0.2,0.6,0.6,0.6,0.55,0,0.2,0.512727,0.481364,0.589545,0.3
0.01,0.165261,0.327878,0.441613,-1.10982,1.2556,-0.056649,-1.507673,-0.148966,-0.752243,0.306481,-1.864877,0.258774,0.155758,1.005273,0,0,-0.030326,0,-0.2618,-0.010108,1.5,0.2,0.6,0.6,0.6,0.55,0,0.2,0.511636,0.480818,0.589727,0.3
0.01,0.165261,0.327878,0.441613,-1.10982,1.2556,-0.056649,-1.507673,-0.148966,-0.752315,0.306482,-1.864877,0.258774,0.155758,1.005296,0,0,-0.030326,0,-0.2618,-0.010108,1.5,0.2,0.6,0.6,0.6,0.55,0,0.2,0.510545,0.480273,0.589909,0.3
0.01,0.165261,0.327878,0.441613,-1.10982,1.2556,-0.056649,-1.507673,-0.148966,-0.752388,0.306482,-1.864877,0.258775,0.155758,1.00532,0,0,-0.030326,0,-0.2618,-0.010108,1.5,0.2,0.6,0.6,0.6,0.55,0,0.2,0.509455,0.479727,0.590091,0.3
0.01,0.165261,0.327878,0.441613,-1.10982,1.2556,-0.056649,-1.507673,-0.148966,-0.75246,0.306482,-1.864876,0.258775,0.155757,1.005344,0,0,-0.030326,0,-0.2618,-0.010108,1.5,0.2,0.6,0.6,0.6,0.55,0,0.2,0.508364,0.479182,0.590273,0.3
0.01,0.165261,0.327878,0.441613,-1.10982,1.2556,-0.056649,-1.507673,-0.148966,-0.752533,0.306483,-1.864876,0.258776,0.155757,1.005367,0,0,-0.030326,0,-0.2618,-0.010108,1.5,0.2,0.6,0.6,0.6,0.55,0,0.2,0.507273,0.478636,0.590455,0.3
0.01,0.165261,0.327878,0.441613,-1.10982,1.2556,-0.056649,-1.507673,-0.148966,-0.752605,0.306483,-1.864875,0.258776,0.155756,1.005391,0,0,-0.030326,0,-0.2618,-0.010108,1.5,0.2,0.6,0.6,0.6,0.55,0,0.2,0.506182,0.478091,0.590636,0.3
0.01,0.165261,0.327878,0.441613,-1.10982,1.2556,-0.056649,-1.507673,-0.148966,-0.752678,0.306484,-1.864875,0.258776,0.155756,1.005415,0,0,-0.030326,0,-0.2618,-0.010108,1.5,0.2,0.6,0.6,0.6,0.55,0,0.2,0.505091,0.477545,0.590818,0.3
0.01,0.165261,0.327878,0.441613,-1.10982,1.2556,-0.056649,-1.507673,-0.148966,-0.75275,0.306484,-1.864874,0.258777,0.155755,1.005438,0,0,-0.030326,0,-0.2618,-0.010108,1.5,0.2,0.6,0.6,0.6,0.55,0,0.2,0.504,0.477,0.591,0.3
0.01,0.165261,0.327878,0.441613,-1.10982,1.2556,-0.056649,-1.507673,-0.148966,-0.752823,0.306484,-1.864874,0.258777,0.155755,1.005462,0,0,-0.030326,0,-0.2618,-0.010108,1.5,0.2,0.6,0.6,0.6,0.55,0,0.2,0.502909,0.476455,0.591182,0.3
0.01,0.165261,0.327878,0.441613,-1.10982,1.2556,-0.056649,-1.507673,-0.148966,-0.752895,0.306485,-1.864873,0.258777,0.155754,1.005485,0,0,-0.030326,0,-0.2618,-0.010108,1.5,0.2,0.6,0.6,0.6,0.55,0,0.2,0.501818,0.475909,0.591364,0.3
0.01,0.165261,0.327878,0.441613,-1.10982,1.2556,-0.056649,-1.507673,-0.148966,-0.752967,0.306485,-1.864873,0.258778,0.155754,1.005509,0,0,-0.030326,0,-0.2618,-0.010108,1.5,0.2,0.6,0.6,0.6,0.55,0,0.2,0.500727,0.475364,0.591545,0.3
0.01,0.165261,0.327878,0.441613,-1.10982,1.2556,-0.056649,-1.507673,-0.148966,-0.75304,0.306486,-1.864872,0.258778,0.155753,1.005532,0,0,-0.030326,0,-0.2618,-0.010108,1.5,0.2,0.6,0.6,0.6,0.55,0,0.2,0.499636,0.474818,0.591727,0.3
0.01,0.165261,0.327878,0.441613,-1.10982,1.2556,-0.056649,-1.507673,-0.148966,-0.753112,0.306486,-1.864872,0.258778,0.155753,1.005556,0,0,-0.030326,0,-0.2618,-0.010108,1.5,0.2,0.6,0.6,0.6,0.55,0,0.2,0.498545,0.474273,0.591909,0.3
0.01,0.165261,0.327878,0.441613,-1.10982,1.2556,-0.056649,-1.507673,-0.148966,-0.753185,0.306487,-1.864871,0.258779,0.155752,1.00558,0,0,-0.030326,0,-0.2618,-0.010108,1.5,0.2,0.6,0.6,0.6,0.55,0,0.2,0.497455,0.473727,0.592091,0.3
0.01,0.165261,0.327878,0.441613,-1.10982,1.2556,-0.056649,-1.507673,-0.148966,-0.753257,0.306487,-1.864871,0.258779,0.155752,1.005603,0,0,-0.030326,0,-0.2618,-0.010108,1.5,0.2,0.6,0.6,0.6,0.55,0,0.2,0.496364,0.473182,0.592273,0.3
0.01,0.165261,0.327878,0.441613,-1.10982,1.2556,-0.056649,-1.507673,-0.148966,-0.753329,0.306487,-1.86487,0.25878,0.155751,1.005627,0,0,-0.030326,0,-0.2618,-0.010108,1.5,0.2,0.6,0.6,0.6,0.55,0,0.2,0.495273,0.472636,0.592455,0.3
0.01,0.165261,0.327878,0.441613,-1.10982,1.2556,-0.056649,-1.507673,-0.148966,-0.753402,0.306488,-1.864869,0.25878,0.155751,1.00565,0,0,-0.030326,0,-0.2618,-0.010108,1.5,0.2,0.6,0.6,0.6,0.55,0,0.2,0.494182,0.472091,0.592636,0.3
0.01,0.165261,0.327878,0.441613,-1.10982,1.2556,-0.056649,-1.507673,-0.148966,-0.753474,0.306488,-1.864869,0.258781,0.15575,1.005674,0,0,-0.030326,0,-0.2618,-0.010108,1.5,0.2,0.6,0.6,0.6,0.55,0,0.2,0.493091,0.471545,0.592818,0.3
0.01,0.165261,0.327878,0.441613,-1.10982,1.2556,-0.056649,-1.507673,-0.148966,-0.753547,0.306489,-1.864868,0.258781,0.15575,1.005697,0,0,-0.030326,0,-0.2618,-0.010108,1.5,0.2,0.6,0.6,0.6,0.55,0,0.2,0.492,0.471,0.593,0.3
0.01,0.165261,0.327878,0.441613,-1.10982,1.2556,-0.056649,-1.507673,-0.148966,-0.753619,0.306489,-1.864868,0.258781,0.155749,1.005721,0,0,-0.030326,0,-0.2618,-0.010108,1.5,0.2,0.6,0.6,0.6,0.55,0,0.2,0.490909,0.470455,0.593182,0.3
0.01,0.165261,0.327878,0.441613,-1.10982,1.2556,-0.056649,-1.507673,-0.148966,-0.753691,0.30649,-1.864867,0.258782,0.155749,1.005744,0,0,-0.030326,0,-0.2618,-0.010108,1.5,0.2,0.6,0.6,0.6,0.55,0,0.2,0.489818,0.469909,0.593364,0.3
0.01,0.165261,0.327878,0.441613,-1.10982,1.2556,-0.056649,-1.507673,-0.148966,-0.753764,0.30649,-1.864867,0.258782,0.155748,1.005768,0,0,-0.030326,0,-0.2618,-0.010108,1.5,0.2,0.6,0.6,0.6,0.55,0,0.2,0.488727,0.469364,0.593545,0.3
0.01,0.165261,0.327878,0.441613,-1.10982,1.2556,-0.056649,-1.507673,-0.148966,-0.753836,0.306491,-1.864866,0.258783,0.155748,1.005791,0,0,-0.030326,0,-0.2618,-0.010108,1.5,0.2,0.6,0.6,0.6,0.55,0,0.2,0.487636,0.468818,0.593727,0.3
0.01,0.165261,0.327878,0.441613,-1.10982,1.2556,-0.056649,-1.507673,-0.148966,-0.753908,0.306491,-1.864866,0.258783,0.155747,1.005815,0,0,-0.030326,0,-0.2618,-0.010108,1.5,0.2,0.6,0.6,0.6,0.55,0,0.2,0.486545,0.468273,0.593909,0.3
0.01,0.165261,0.327878,0.441613,-1.10982,1.2556,-0.056649,-1.507673,-0.148966,-0.75398,0.306492,-1.864865,0.258783,0.155747,1.005838,0,0,-0.030326,0,-0.2618,-0.010108,1.5,0.2,0.6,0.6,0.6,0.55,0,0.2,0.485471,0.467735,0.594088,0.3
0.01,0.165261,0.327878,0.441613,-1.10982,1.2556,-0.056649,-1.507673,-0.148966,-0.75405,0.306492,-1.864864,0.258784,0.155746,1.005861,0,0,-0.030326,0,-0.2618,-0.010108,1.5,0.2,0.6,0.6,0.6,0.55,0,0.2,0.484412,0.467206,0.594265,0.3
0.01,0.165261,0.327878,0.441613,-1.10982,1.2556,-0.056649,-1.507673,-0.148966,-0.754119,0.306493,-1.864864,0.258784,0.155746,1.005883,0,0,-0.030326,0,-0.2618,-0.010108,1.5,0.2,0.6,0.6,0.6,0.55,0,0.2,0.483369,0.466684,0.594439,0.3
0.01,0.165261,0.327878,0.441613,-1.10982,1.2556,-0.056649,-1.507673,-0.148966,-0.754187,0.306493,-1.864863,0.258785,0.155745,1.005906,0,0,-0.030326,0,-0.2618,-0.010108,1.5,0.2,0.6,0.6,0.6,0.55,0,0.2,0.482342,0.466171,0.59461,0.3
0.01,0.165261,0.327878,0.441613,-1.10982,1.2556,-0.056649,-1.507673,-0.148966,-0.754254,0.306494,-1.864863,0.258785,0.155745,1.005927,0,0,-0.030326,0,-0.2618,-0.010108,1.5,0.2,0.6,0.6,0.6,0.55,0,0.2,0.481332,0.465666,0.594778,0.3
0.01,0.165261,0.327878,0.441613,-1.10982,1.2556,-0.056649,-1.507673,-0.148966,-0.75432,0.306494,-1.864862,0.258786,0.155744,1.005949,0,0,-0.030326,0,-0.2618,-0.010108,1.5,0.2,0.6,0.6,0.6,0.55,0,0.2,0.480337,0.465168,0.594944,0.3
0.01,0.165261,0.327878,0.441613,-1.10982,1.2556,-0.056649,-1.507673,-0.148966,-0.754385,0.306494,-1.864862,0.258786,0.155744,1.00597,0,0,-0.030326,0,-0.2618,-0.010108,1.5,0.2,0.6,0.6,0.6,0.55,0,0.2,0.479358,0.464679,0.595107,0.3
0.01,0.165261,0.327878,0.441613,-1.10982,1.2556,-0.056649,-1.507673,-0.148966,-0.754449,0.306495,-1.864861,0.258786,0.155743,1.00599,0,0,-0.030326,0,-0.2618,-0.010108,1.5,0.2,0.6,0.6,0.6,0.55,0,0.2,0.478396,0.464198,0.595267,0.3
0.01,0.165261,0.327878,0.441613,-1.10982,1.2556,-0.056649,-1.507673,-0.148966,-0.754512,0.306495,-1.864861,0.258787,0.155742,1.006011,0,0,-0.030326,0,-0.2618,-0.010108,1.5,0.2,0.6,0.6,0.6,0.55,0,0.2,0.477449,0.463725,0.595425,0.3
0.01,0.165261,0.327878,0.441613,-1.10982,1.2556,-0.056649,-1.507673,-0.148966,-0.754574,0.306496,-1.86486,0.258787,0.155742,1.006031,0,0,-0.030326,0,-0.2618,-0.010108,1.5,0.2,0.6,0.6,0.6,0.55,0,0.2,0.476519,0.463259,0.59558,0.3
0.01,0.165261,0.327878,0.441613,-1.10982,1.2556,-0.056649,-1.507673,-0.148965,-0.754634,0.306496,-1.864859,0.258788,0.155741,1.006051,0,0,-0.030326,0,-0.2618,-0.010108,1.5,0.2,0.6,0.6,0.6,0.55,0,0.2,0.475604,0.462802,0.595733,0.3
0.01,0.165261,0.327878,0.441613,-1.10982,1.2556,-0.056649,-1.507673,-0.148965,-0.754694,0.306497,-1.864859,0.258788,0.155741,1.00607,0,0,-0.030326,0,-0.2618,-0.010108,1.5,0.2,0.6,0.6,0.6,0.55,0,0.2,0.474706,0.462353,0.595882,0.3
0.01,0.165261,0.327878,0.441613,-1.10982,1.2556,-0.056649,-1.507673,-0.148965,-0.754752,0.306497,-1.864858,0.258788,0.15574,1.006089,0,0,-0.030326,0,-0.2618,-0.010108,1.5,0.2,0.6,0.6,0.6,0.55,0,0.2,0.473824,0.461912,0.596029,0.3
0.01,0.165261,0.327878,0.441613,-1.10982,1.2556,-0.056649,-1.507673,-0.148965,-0.75481,0.306498,-1.864858,0.258789,0.15574,1.006107,0,0,-0.030326,0,-0.2618,-0.010108,1.5,0.2,0.6,0.6,0.6,0.55,0,0.2,0.472957,0.461479,0.596174,0.3
0.01,0.165261,0.327878,0.441613,-1.10982,1.2556,-0.056649,-1.507673,-0.148965,-0.754866,0.306498,-1.864857,0.258789,0.15574,1.006126,0,0,-0.030326,0,-0.2618,-0.010108,1.5,0.2,0.6,0.6,0.6,0.55,0,0.2,0.472107,0.461053,0.596316,0.3
0.01,0.165261,0.327878,0.441613,-1.10982,1.2556,-0.056649,-1.507673,-0.148965,-0.754921,0.306498,-1.864857,0.25879,0.155739,1.006144,0,0,-0.030326,0,-0.2618,-0.010108,1.5,0.2,0.6,0.6,0.6,0.55,0,0.2,0.471273,0.460636,0.596455,0.3
0.01,0.165261,0.327878,0.441613,-1.10982,1.2556,-0.056649,-1.507673,-0.148965,-0.754976,0.306499,-1.864856,0.25879,0.155739,1.006161,0,0,-0.030326,0,-0.2618,-0.010108,1.5,0.2,0.6,0.6,0.6,0.55,0,0.2,0.470455,0.460227,0.596591,0.3
0.01,0.165261,0.327878,0.441613,-1.10982,1.2556,-0.056649,-1.507673,-0.148965,-0.755029,0.306499,-1.864856,0.25879,0.155738,1.006178,0,0,-0.030326,0,-0.2618,-0.010108,1.5,0.2,0.6,0.6,0.6,0.55,0,0.2,0.469652,0.459826,0.596725,0.3
0.01,0.165261,0.327878,0.441613,-1.10982,1.2556,-0.056649,-1.507673,-0.148965,-0.755081,0.3065,-1.864855,0.258791,0.155738,1.006195,0,0,-0.030326,0,-0.2618,-0.010108,1.5,0.2,0.6,0.6,0.6,0.55,0,0.2,0.468866,0.459433,0.596856,0.3
0.01,0.165261,0.327878,0.441613,-1.10982,1.2556,-0.056649,-1.507673,-0.148965,-0.755132,0.3065,-1.864855,0.258791,0.155737,1.006212,0,0,-0.030326,0,-0.2618,-0.010108,1.5,0.2,0.6,0.6,0.6,0.55,0,0.2,0.468096,0.459048,0.596984,0.3
0.01,0.165261,0.327878,0.441613,-1.10982,1.2556,-0.056649,-1.507673,-0.148965,-0.755182,0.3065,-1.864854,0.258791,0.155737,1.006228,0,0,-0.030326,0,-0.2618,-0.010108,1.5,0.2,0.6,0.6,0.6,0.55,0,0.2,0.467342,0.458671,0.59711,0.3
0.01,0.165261,0.327878,0.441613,-1.10982,1.2556,-0.056649,-1.507673,-0.148965,-0.755231,0.306501,-1.864854,0.258792,0.155736,1.006244,0,0,-0.030326,0,-0.2618,-0.010108,1.5,0.2,0.6,0.6,0.6,0.55,0,0.2,0.466604,0.458302,0.597233,0.3
0.01,0.165261,0.327878,0.441613,-1.10982,1.2556,-0.056649,-1.507673,-0.148965,-0.755279,0.306501,-1.864854,0.258792,0.155736,1.006259,0,0,-0.030326,0,-0.2618,-0.010108,1.5,0.2,0.6,0.6,0.6,0.55,0,0.2,0.465882,0.457941,0.597353,0.3
0.01,0.165261,0.327878,0.441613,-1.10982,1.2556,-0.056649,-1.507673,-0.148965,-0.755325,0.306502,-1.864853,0.258792,0.155736,1.006275,0,0,-0.030326,0,-0.2618,-0.010108,1.5,0.2,0.6,0.6,0.6,0.55,0,0.2,0.465176,0.457588,0.597471,0.3
0.01,0.165261,0.327878,0.441613,-1.10982,1.2556,-0.056649,-1.507673,-0.148965,-0.755371,0.306502,-1.864853,0.258793,0.155735,1.006289,0,0,-0.030326,0,-0.2618,-0.010108,1.5,0.2,0.6,0.6,0.6,0.55,0,0.2,0.464487,0.457243,0.597586,0.3
0.01,0.165261,0.327878,0.441613,-1.10982,1.2556,-0.056649,-1.507673,-0.148965,-0.755416,0.306502,-1.864852,0.258793,0.155735,1.006304,0,0,-0.030326,0,-0.2618,-0.010108,1.5,0.2,0.6,0.6,0.6,0.55,0,0.2,0.463813,0.456906,0.597698,0.3
0.01,0.165261,0.327878,0.441613,-1.10982,1.2556,-0.056649,-1.507673,-0.148965,-0.755459,0.306503,-1.864852,0.258793,0.155734,1.006318,0,0,-0.030326,0,-0.2618,-0.010108,1.5,0.2,0.6,0.6,0.6,0.55,0,0.2,0.463155,0.456578,0.597807,0.3
0.01,0.165261,0.327878,0.441613,-1.10982,1.2556,-0.056649,-1.507673,-0.148965,-0.755502,0.306503,-1.864851,0.258794,0.155734,1.006332,0,0,-0.030326,0,-0.2618,-0.010108,1.5,0.2,0.6,0.6,0.6,0.55,0,0.2,0.462513,0.456257,0.597914,0.3
0.01,0.165261,0.327878,0.441613,-1.10982,1.2556,-0.056649,-1.507673,-0.148965,-0.755543,0.306503,-1.864851,0.258794,0.155734,1.006345,0,0,-0.030326,0,-0.2618,-0.010108,1.5,0.2,0.6,0.6,0.6,0.55,0,0.2,0.461888,0.455944,0.598019,0.3
0.01,0.165261,0.327878,0.441613,-1.10982,1.2556,-0.056649,-1.507673,-0.148965,-0.755584,0.306504,-1.864851,0.258794,0.155733,1.006358,0,0,-0.030326,0,-0.2618,-0.010108,1.5,0.2,0.6,0.6,0.6,0.55,0,0.2,0.461278,0.455639,0.59812,0.3
0.01,0.165261,0.327878,0.441613,-1.10982,1.2556,-0.056649,-1.507673,-0.148965,-0.755623,0.306504,-1.86485,0.258795,0.155733,1.006371,0,0,-0.030326,0,-0.2618,-0.010108,1.5,0.2,0.6,0.6,0.6,0.55,0,0.2,0.460684,0.455342,0.598219,0.3
0.01,0.165261,0.327878,0.441613,-1.10982,1.2556,-0.056649,-1.507673,-0.148965,-0.755661,0.306504,-1.86485,0.258795,0.155732,1.006383,0,0,-0.030326,0,-0.2618,-0.010108,1.5,0.2,0.6,0.6,0.6,0.55,0,0.2,0.460107,0.455053,0.598316,0.3
0.01,0.165261,0.327878,0.441613,-1.10982,1.2556,-0.056649,-1.507673,-0.148965,-0.755699,0.306505,-1.864849,0.258795,0.155732,1.006395,0,0,-0.030326,0,-0.2618,-0.010108,1.5,0.2,0.6,0.6,0.6,0.55,0,0.2,0.459545,0.454773,0.598409,0.3
0.01,0.165261,0.327878,0.441613,-1.10982,1.2556,-0.056649,-1.507673,-0.148965,-0.755735,0.306505,-1.864849,0.258795,0.155732,1.006407,0,0,-0.030326,0,-0.2618,-0.010108,1.5,0.2,0.6,0.6,0.6,0.55,0,0.2,0.459,0.4545,0.5985,0.3
0.01,0.165261,0.327878,0.441613,-1.10982,1.2556,-0.056649,-1.507673,-0.148965,-0.75577,0.306505,-1.864849,0.258796,0.155731,1.006419,0,0,-0.030326,0,-0.2618,-0.010108,1.5,0.2,0.6,0.6,0.6,0.55,0,0.2,0.458471,0.454235,0.598588,0.3
0.01,0.165261,0.327878,0.441613,-1.10982,1.2556,-0.056649,-1.507673,-0.148965,-0.755804,0.306505,-1.864848,0.258796,0.155731,1.00643,0,0,-0.030326,0,-0.2618,-0.010108,1.5,0.2,0.6,0.6,0.6,0.55,0,0.2,0.457957,0.453979,0.598674,0.3
0.01,0.165261,0.327878,0.441613,-1.10982,1.2556,-0.056649,-1.507673,-0.148965,-0.755837,0.306506,-1.864848,0.258796,0.155731,1.00644,0,0,-0.030326,0,-0.2618,-0.010108,1.5,0.2,0.6,0.6,0.6,0.55,0,0.2,0.45746,0.45373,0.598757,0.3
0.01,0.165261,0.327878,0.441613,-1.10982,1.2556,-0.056649,-1.507673,-0.148965,-0.755869,0.306506,-1.864848,0.258796,0.155731,1.00645,0,0,-0.030326,0,-0.2618,-0.010108,1.5,0.2,0.6,0.6,0.6,0.55,0,0.2,0.456979,0.453489,0.598837,0.3
0.01,0.165261,0.327878,0.441613,-1.10982,1.2556,-0.056649,-1.507673,-0.148965,-0.7559,0.306506,-1.864847,0.258797,0.15573,1.00646,0,0,-0.030326,0,-0.2618,-0.010108,1.5,0.2,0.6,0.6,0.6,0.55,0,0.2,0.456513,0.453257,0.598914,0.3
0.01,0.165261,0.327878,0.441613,-1.10982,1.2556,-0.056649,-1.507673,-0.148965,-0.755929,0.306507,-1.864847,0.258797,0.15573,1.00647,0,0,-0.030326,0,-0.2618,-0.010108,1.5,0.2,0.6,0.6,0.6,0.55,0,0.2,0.456064,0.453032,0.598989,0.3
0.01,0.165261,0.327878,0.441613,-1.10982,1.2556,-0.056649,-1.507673,-0.148965,-0.755958,0.306507,-1.864847,0.258797,0.15573,1.006479,0,0,-0.030326,0,-0.2618,-0.010108,1.5,0.2,0.6,0.6,0.6,0.55,0,0.2,0.455631,0.452816,0.599061,0.3
0.01,0.165261,0.327878,0.441613,-1.10982,1.2556,-0.056649,-1.507673,-0.148965,-0.755986,0.306507,-1.864847,0.258797,0.155729,1.006488,0,0,-0.030326,0,-0.2618,-0.010108,1.5,0.2,0.6,0.6,0.6,0.55,0,0.2,0.455214,0.452607,0.599131,0.3
0.01,0.165261,0.327878,0.441613,-1.10982,1.2556,-0.056649,-1.507673,-0.148965,-0.756012,0.306507,-1.864846,0.258797,0.155729,1.006497,0,0,-0.030326,0,-0.2618,-0.010108,1.5,0.2,0.6,0.6,0.6,0.55,0,0.2,0.454813,0.452406,0.599198,0.3
0.01,0.165261,0.327878,0.441613,-1.10982,1.2556,-0.056649,-1.507673,-0.148965,-0.756038,0.306507,-1.864846,0.258798,0.155729,1.006505,0,0,-0.030326,0,-0.2618,-0.010108,1.5,0.2,0.6,0.6,0.6,0.55,0,0.2,0.454428,0.452214,0.599262,0.3
0.01,0.165261,0.327878,0.441613,-1.10982,1.2556,-0.056649,-1.507673,-0.148965,-0.756062,0.306508,-1.864846,0.258798,0.155729,1.006513,0,0,-0.030326,0,-0.2618,-0.010108,1.5,0.2,0.6,0.6,0.6,0.55,0,0.2,0.454059,0.452029,0.599324,0.3
0.01,0.165261,0.327878,0.441613,-1.10982,1.2556,-0.056649,-1.507673,-0.148965,-0.756086,0.306508,-1.864846,0.258798,0.155728,1.006521,0,0,-0.030326,0,-0.2618,-0.010108,1.5,0.2,0.6,0.6,0.6,0.55,0,0.2,0.453706,0.451853,0.599382,0.3
0.01,0.165261,0.327878,0.441613,-1.10982,1.2556,-0.056649,-1.507673,-0.148965,-0.756108,0.306508,-1.864845,0.258798,0.155728,1.006528,0,0,-0.030326,0,-0.2618,-0.010108,1.5,0.2,0.6,0.6,0.6,0.55,0,0.2,0.453369,0.451684,0.599439,0.3
0.01,0.165261,0.327878,0.441613,-1.10982,1.2556,-0.056649,-1.507673,-0.148965,-0.756129,0.306508,-1.864845,0.258798,0.155728,1.006535,0,0,-0.030326,0,-0.2618,-0.010108,1.5,0.2,0.6,0.6,0.6,0.55,0,0.2,0.453048,0.451524,0.599492,0.3
0.01,0.165261,0.327878,0.441613,-1.10982,1.2556,-0.056649,-1.507673,-0.148965,-0.756149,0.306508,-1.864845,0.258799,0.155728,1.006541,0,0,-0.030326,0,-0.2618,-0.010108,1.5,0.2,0.6,0.6,0.6,0.55,0,0.2,0.452743,0.451372,0.599543,0.3
0.01,0.165261,0.327878,0.441613,-1.10982,1.2556,-0.056649,-1.507673,-0.148965,-0.756168,0.306509,-1.864845,0.258799,0.155728,1.006547,0,0,-0.030326,0,-0.2618,-0.010108,1.5,0.2,0.6,0.6,0.6,0.55,0,0.2,0.452455,0.451227,0.599591,0.3
0.01,0.165261,0.327878,0.441613,-1.10982,1.2556,-0.056649,-1.507673,-0.148965,-0.756186,0.306509,-1.864845,0.258799,0.155727,1.006553,0,0,-0.030326,0,-0.2618,-0.010108,1.5,0.2,0.6,0.6,0.6,0.55,0,0.2,0.452182,0.451091,0.599636,0.3
0.01,0.165261,0.327878,0.441613,-1.10982,1.2556,-0.056649,-1.507673,-0.148965,-0.756203,0.306509,-1.864844,0.258799,0.155727,1.006559,0,0,-0.030326,0,-0.2618,-0.010108,1.5,0.2,0.6,0.6,0.6,0.55,0,0.2,0.451925,0.450963,0.599679,0.3
0.01,0.165261,0.327878,0.441613,-1.10982,1.2556,-0.056649,-1.507673,-0.148965,-0.756219,0.306509,-1.864844,0.258799,0.155727,1.006564,0,0,-0.030326,0,-0.2618,-0.010108,1.5,0.2,0.6,0.6,0.6,0.55,0,0.2,0.451684,0.450842,0.599719,0.3
0.01,0.165261,0.327878,0.441613,-1.10982,1.2556,-0.056649,-1.507673,-0.148965,-0.756234,0.306509,-1.864844,0.258799,0.155727,1.006569,0,0,-0.030326,0,-0.2618,-0.010108,1.5,0.2,0.6,0.6,0.6,0.55,0,0.2,0.45146,0.45073,0.599757,0.3
0.01,0.165261,0.327878,0.441613,-1.10982,1.2556,-0.056649,-1.507673,-0.148965,-0.756248,0.306509,-1.864844,0.258799,0.155727,1.006573,0,0,-0.030326,0,-0.2618,-0.010108,1.5,0.2,0.6,0.6,0.6,0.55,0,0.2,0.451251,0.450626,0.599791,0.3
0.01,0.165261,0.327878,0.441613,-1.10982,1.2556,-0.056649,-1.507673,-0.148965,-0.756261,0.306509,-1.864844,0.258799,0.155727,1.006577,0,0,-0.030326,0,-0.2618,-0.010108,1.5,0.2,0.6,0.6,0.6,0.55,0,0.2,0.451059,0.450529,0.599824,0.3
0.01,0.165261,0.327878,0.441613,-1.10982,1.2556,-0.056649,-1.507673,-0.148965,-0.756273,0.306509,-1.864844,0.2588,0.155727,1.006581,0,0,-0.030326,0,-0.2618,-0.010108,1.5,0.2,0.6,0.6,0.6,0.55,0,0.2,0.450882,0.450441,0.599853,0.3
0.01,0.165261,0.327878,0.441613,-1.10982,1.2556,-0.056649,-1.507673,-0.148965,-0.756283,0.30651,-1.864844,0.2588,0.155726,1.006585,0,0,-0.030326,0,-0.2618,-0.010108,1.5,0.2,0.6,0.6,0.6,0.55,0,0.2,0.450722,0.450361,0.59988,0.3
0.01,0.165261,0.327878,0.441613,-1.10982,1.2556,-0.056649,-1.507673,-0.148965,-0.756293,0.30651,-1.864843,0.2588,0.155726,1.006588,0,0,-0.030326,0,-0.2618,-0.010108,1.5,0.2,0.6,0.6,0.6,0.55,0,0.2,0.450578,0.450289,0.599904,0.3
0.01,0.165261,0.327878,0.441613,-1.10982,1.2556,-0.056649,-1.507673,-0.148965,-0.756301,0.30651,-1.864843,0.2588,0.155726,1.00659,0,0,-0.030326,0,-0.2618,-0.010108,1.5,0.2,0.6,0.6,0.6,0.55,0,0.2,0.450449,0.450225,0.599925,0.3
0.01,0.165261,0.327878,0.441613,-1.10982,1.2556,-0.056649,-1.507673,-0.148965,-0.756309,0.30651,-1.864843,0.2588,0.155726,1.006593,0,0,-0.030326,0,-0.2618,-0.010108,1.5,0.2,0.6,0.6,0.6,0.55,0,0.2,0.450337,0.450168,0.599944,0.3
0.01,0.165261,0.327878,0.441613,-1.10982,1.2556,-0.056649,-1.507673,-0.148965,-0.756315,0.30651,-1.864843,0.2588,0.155726,1.006595,0,0,-0.030326,0,-0.2618,-0.010108,1.5,0.2,0.6,0.6,0.6,0.55,0,0.2,0.450241,0.45012,0.59996,0.3
0.01,0.165261,0.327878,0.441613,-1.10982,1.2556,-0.056649,-1.507673,-0.148965,-0.75632,0.30651,-1.864843,0.2588,0.155726,1.006597,0,0,-0.030326,0,-0.2618,-0.010108,1.5,0.2,0.6,0.6,0.6,0.55,0,0.2,0.45016,0.45008,0.599973,0.3
0.01,0.165261,0.327878,0.441613,-1.10982,1.2556,-0.056649,-1.507673,-0.148965,-0.756325,0.30651,-1.864843,0.2588,0.155726,1.006598,0,0,-0.030326,0,-0.2618,-0.010108,1.5,0.2,0.6,0.6,0.6,0.55,0,0.2,0.450096,0.450048,0.599984,0.3
0.01,0.165261,0.327878,0.441613,-1.10982,1.2556,-0.056649,-1.507673,-0.148965,-0.756328,0.30651,-1.864843,0.2588,0.155726,1.006599,0,0,-0.030326,0,-0.2618,-0.010108,1.5,0.2,0.6,0.6,0.6,0.55,0,0.2,0.450048,0.450024,0.599992,0.3
0.01,0.165261,0.327878,0.441613,-1.10982,1.2556,-0.056649,-1.507673,-0.148965,-0.75633,0.30651,-1.864843,0.2588,0.155726,1.0066,0,0,-0.030326,0,-0.2618,-0.010108,1.5,0.2,0.6,0.6,0.6,0.55,0,0.2,0.450016,0.450008,0.599997,0.3
0.01,0.165261,0.327878,0.441613,-1.10982,1.2556,-0.056649,-1.507673,-0.148965,-0.756331,0.30651,-1.864843,0.2588,0.155726,1.0066,0,0,-0.030326,0,-0.2618,-0.010108,1.5,0.2,0.6,0.6,0.6,0.55,0,0.2,0.45,0.45,0.6,0.3
0.01,0.165261,0.327878,0.441613,-1.10982,1.2556,-0.056649,-1.507673,-0.144223,-0.751933,0.30534,-1.86541,0.257919,0.155709,1.041143,0,0,-0.030326,0,-0.2618,-0.010108,1.5,0.2,0.6,0.6,0.6,0.55,0,0.2,0.45,0.45,0.6,0.3
0.01,0.165261,0.327878,0.441613,-1.10982,1.2556,-0.056649,-1.507673,-0.13934,-0.747128,0.304974,-1.865587,0.257621,0.155718,1.07489,0,0,-0.030326,0,-0.2618,-0.010108,1.5,0.2,0.6,0.6,0.6,0.55,0,0.2,0.45,0.45,0.6,0.3
0.01,0.165261,0.327878,0.441613,-1.10982,1.2556,-0.056649,-1.507673,-0.134269,-0.741924,0.305376,-1.865392,0.257912,0.155731,1.107842,0,0,-0.030326,0,-0.2618,-0.010108,1.5,0.2,0.6,0.6,0.6,0.55,0,0.2,0.45,0.45,0.6,0.3
0.01,0.165261,0.327878,0.441613,-1.10982,1.2556,-0.056649,-1.507673,-0.128965,-0.736331,0.30651,-1.864843,0.2588,0.155726,1.14,0,0,-0.030326,0,-0.2618,-0.010108,1.5,0.2,0.6,0.6,0.6,0.55,0,0.2,0.45,0.45,0.6,0.3
0.01,0.165261,0.327878,0.441613,-1.10982,1.2556,-0.056649,-1.507673,-0.128965,-0.736331,0.30651,-1.864843,0.2588,0.155726,1.14,0,0,-0.030326,0,-0.2618,-0.010108,1.5,0.2,0.6,0.6,0.6,0.55,0,0.2,0.45,0.45,0.675,0.3
0.01,0.165261,0.327878,0.441613,-1.10982,1.2556,-0.056649,-1.507673,-0.128965,-0.736331,0.30651,-1.864843,0.2588,0.155726,1.14,0,0,-0.030326,0,-0.2618,-0.010108,1.5,0.2,0.6,0.6,0.6,0.55,0,0.2,0.45,0.45,0.75,0.3
0.01,0.165261,0.327878,0.441613,-1.10982,1.2556,-0.056649,-1.507673,-0.128965,-0.736331,0.30651,-1.864843,0.2588,0.155726,1.14,0,0,-0.030326,0,-0.2618,-0.010108,1.5,0.2,0.6,0.6,0.6,0.55,0,0.2,0.45,0.45,0.825,0.3
0.01,0.165261,0.327878,0.441613,-1.10982,1.2556,-0.056649,-1.507673,-0.128965,-0.736331,0.30651,-1.864843,0.2588,0.155726,1.14,0,0,-0.030326,0,-0.2618,-0.010108,1.5,0.2,0.6,0.6,0.6,0.55,0,0.2,0.45,0.45,0.9,0.3
0.01,0.165261,0.327878,0.441613,-1.10982,1.2556,-0.056649,-1.507673,-0.129024,-0.736429,0.306326,-1.864908,0.258664,0.155754,1.125199,0,0,-0.030326,0,-0.2618,-0.010108,1.5,0.2,0.6,0.6,0.6,0.55,0,0.2,0.45,0.45,0.9,0.3
0.01,0.165261,0.327878,0.441613,-1.10982,1.2556,-0.056649,-1.507673,-0.129041,-0.736462,0.306263,-1.864932,0.258619,0.155763,1.110265,0,0,-0.030326,0,-0.2618,-0.010108,1.5,0.2,0.6,0.6,0.6,0.55,0,0.2,0.45,0.45,0.9,0.3
0.01,0.165261,0.327878,0.441613,-1.10982,1.2556,-0.056649,-1.507673,-0.12902,-0.73643,0.306324,-1.864911,0.258664,0.155754,1.095199,0,0,-0.030326,0,-0.2618,-0.010108,1.5,0.2,0.6,0.6,0.6,0.55,0,0.2,0.45,0.45,0.9,0.3
0.01,0.165261,0.327878,0.441613,-1.10982,1.2556,-0.056649,-1.507673,-0.128965,-0.736331,0.30651,-1.864843,0.2588,0.155726,1.08,0,0,-0.030326,0,-0.2618,-0.010108,1.5,0.2,0.6,0.6,0.6,0.55,0,0.2,0.45,0.45,0.9,0.3
0.01,0.165261,0.327878,0.441613,-1.10982,1.2556,-0.056649,-1.507673,-0.128965,-0.736331,0.30651,-1.864843,0.2588,0.155726,1.08,0,0,-0.030326,0,-0.2618,-0.010108,1.5,0.2,0.6,0.6,0.6,0.55,0,0.2,0.45,0.45,0.825,0.3
0.01,0.165261,0.327878,0.441613,-1.10982,1.2556,-0.056649,-1.507673,-0.128965,-0.736331,0.30651,-1.864843,0.2588,0.155726,1.08,0,0,-0.030326,0,-0.2618,-0.010108,1.5,0.2,0.6,0.6,0.6,0.55,0,0.2,0.45,0.45,0.75,0.3
0.01,0.165261,0.327878,0.441613,-1.10982,1.2556,-0.056649,-1.507673,-0.128965,-0.736331,0.30651,-1.864843,0.2588,0.155726,1.08,0,0,-0.030326,0,-0.2618,-0.010108,1.5,0.2,0.6,0.6,0.6,0.55,0,0.2,0.45,0.45,0.675,0.3
0.01,0.165261,0.327878,0.441613,-1.10982,1.2556,-0.056649,-1.507673,-0.128965,-0.736331,0.30651,-1.864843,0.2588,0.155726,1.08,0,0,-0.030326,0,-0.2618,-0.010108,1.5,0.2,0.6,0.6,0.6,0.55,0,0.2,0.45,0.45,0.6,0.3
0.01,0.165261,0.327878,0.441613,-1.10982,1.2556,-0.056649,-1.507673,-0.128965,-0.736331,0.30651,-1.864843,0.2588,0.155726,1.080029,0,0,-0.030326,0,-0.2618,-0.010108,1.5,0.2,0.6,0.6,0.6,0.55,0,0.2,0.45,0.45,0.6,0.3
0.01,0.165261,0.327878,0.441613,-1.10982,1.2556,-0.056649,-1.507673,-0.128965,-0.736332,0.306509,-1.864844,0.258799,0.155726,1.080088,0,0,-0.030326,0,-0.2618,-0.010108,1.5,0.2,0.6,0.6,0.6,0.55,0,0.2,0.45,0.45,0.6,0.3
0.01,0.165261,0.327878,0.441613,-1.10982,1.2556,-0.056649,-1.507673,-0.128966,-0.736333,0.306507,-1.864844,0.258798,0.155726,1.080175,0,0,-0.030326,0,-0.2618,-0.010108,1.5,0.2,0.6,0.6,0.6,0.55,0,0.2,0.45,0.45,0.6,0.3
0.01,0.165261,0.327878,0.441613,-1.10982,1.2556,-0.056649,-1.507673,-0.128966,-0.736334,0.306505,-1.864845,0.258797,0.155727,1.080292,0,0,-0.030326,0,-0.2618,-0.010108,1.5,0.2,0.6,0.6,0.6,0.55,0,0.2,0.45,0.45,0.6,0.3
0.01,0.165261,0.327878,0.441613,-1.10982,1.2556,-0.056649,-1.507673,-0.128967,-0.736335,0.306503,-1.864846,0.258795,0.155727,1.080438,0,0,-0.030326,0,-0.2618,-0.010108,1.5,0.2,0.6,0.6,0.6,0.55,0,0.2,0.45,0.45,0.6,0.3
0.01,0.165261,0.327878,0.441613,-1.10982,1.2556,-0.056649,-1.507673,-0.128968,-0.736336,0.3065,-1.864847,0.258793,0.155727,1.080613,0,0,-0.030326,0,-0.2618,-0.010108,1.5,0.2,0.6,0.6,0.6,0.55,0,0.2,0.45,0.45,0.6,0.3
0.01,0.165261,0.327878,0.441613,-1.10982,1.2556,-0.056649,-1.507673,-0.128969,-0.736338,0.306497,-1.864848,0.25879,0.155728,1.080817,0,0,-0.030326,0,-0.2618,-0.010108,1.5,0.2,0.6,0.6,0.6,0.55,0,0.2,0.45,0.45,0.6,0.3
0.01,0.165261,0.327878,0.441613,-1.10982,1.2556,-0.056649,-1.507673,-0.12897,-0.73634,0.306493,-1.864849,0.258788,0.155728,1.08105,0,0,-0.030326,0,-0.2618,-0.010108,1.5,0.2,0.6,0.6,0.6,0.55,0,0.2,0.45,0.45,0.6,0.3
0.01,0.165261,0.327878,0.441613,-1.10982,1.2556,-0.056649,-1.507673,-0.128971,-0.736342,0.306489,-1.864851,0.258785,0.155729,1.081312,0,0,-0.030326,0,-0.2618,-0.010108,1.5,0.2,0.6,0.6,0.6,0.55,0,0.2,0.45,0.45,0.6,0.3
0.01,0.165261,0.327878,0.441613,-1.10982,1.2556,-0.056649,-1.507673,-0.128972,-0.736345,0.306484,-1.864852,0.258781,0.15573,1.081604,0,0,-0.030326,0,-0.2618,-0.010108,1.5,0.2,0.6,0.6,0.6,0.55,0,0.2,0.45,0.45,0.6,0.3
0.01,0.165261,0.327878,0.441613,-1.10982,1.2556,-0.056649,-1.507673,-0.128974,-0.736347,0.306479,-1.864854,0.258778,0.15573,1.081924,0,0,-0.030326,0,-0.2618,-0.010108,1.5,0.2,0.6,0.6,0.6,0.55,0,0.2,0.45,0.45,0.6,0.3
0.01,0.165261,0.327878,0.441613,-1.10982,1.2556,-0.056649,-1.507673,-0.128975,-0.73635,0.306474,-1.864856,0.258774,0.155731,1.082274,0,0,-0.030326,0,-0.2618,-0.010108,1.5,0.2,0.6,0.6,0.6,0.55,0,0.2,0.45,0.45,0.6,0.3
0.01,0.165261,0.327878,0.441613,-1.10982,1.2556,-0.056649,-1.507673,-0.128977,-0.736353,0.306468,-1.864858,0.25877,0.155732,1.082653,0,0,-0.030326,0,-0.2618,-0.010108,1.5,0.2,0.6,0.6,0.6,0.55,0,0.2,0.45,0.45,0.6,0.3
0.01,0.165261,0.327878,0.441613,-1.10982,1.2556,-0.056649,-1.507673,-0.128979,-0.736356,0.306462,-1.864861,0.258765,0.155733,1.08306,0,0,-0.030326,0,-0.2618,-0.010108,1.5,0.2,0.6,0.6,0.6,0.55,0,0.2,0.45,0.45,0.6,0.3
0.01,0.165261,0.327878,0.441613,-1.10982,1.2556,-0.056649,-1.507673,-0.12898,-0.73636,0.306456,-1.864863,0.258761,0.155734,1.083497,0,0,-0.030326,0,-0.2618,-0.010108,1.5,0.2,0.6,0.6,0.6,0.55,0,0.2,0.45,0.45,0.6,0.3
0.01,0.165261,0.327878,0.441613,-1.10982,1.2556,-0.056649,-1.507673,-0.128982,-0.736363,0.306449,-1.864865,0.258756,0.155735,1.083963,0,0,-0.030326,0,-0.2618,-0.010108,1.5,0.2,0.6,0.6,0.6,0.55,0,0.2,0.45,0.45,0.6,0.3
0.01,0.165261,0.327878,0.441613,-1.10982,1.2556,-0.056649,-1.507673,-0.128984,-0.736367,0.306442,-1.864868,0.258751,0.155736,1.084458,0,0,-0.030326,0,-0.2618,-0.010108,1.5,0.2,0.6,0.6,0.6,0.55,0,0.2,0.45,0.45,0.6,0.3
0.01,0.165261,0.327878,0.441613,-1.10982,1.2556,-0.056649,-1.507673,-0.128986,-0.736371,0.306435,-1.864871,0.258746,0.155737,1.084982,0,0,-0.030326,0,-0.2618,-0.010108,1.5,0.2,0.6,0.6,0.6,0.55,0,0.2,0.45,0.45,0.6,0.3
0.01,0.165261,0.327878,0.441613,-1.10982,1.2556,-0.056649,-1.507673,-0.128989,-0.736375,0.306428,-1.864873,0.25874,0.155738,1.085534,0,0,-0.030326,0,-0.2618,-0.010108,1.5,0.2,0.6,0.6,0.6,0.55,0,0.2,0.45,0.45,0.6,0.3
0.01,0.165261,0.327878,0.441613,-1.10982,1.2556,-0.056649,-1.507673,-0.128991,-0.736379,0.30642,-1.864876,0.258735,0.155739,1.086116,0,0,-0.030326,0,-0.2618,-0.010108,1.5,0.2,0.6,0.6,0.6,0.55,0,0.2,0.45,0.45,0.6,0.3
0.01,0.165261,0.327878,0.441613,-1.10982,1.2556,-0.056649,-1.507673,-0.128993,-0.736383,0.306412,-1.864879,0.258729,0.15574,1.086726,0,0,-0.030326,0,-0.2618,-0.010108,1.5,0.2,0.6,0.6,0.6,0.55,0,0.2,0.45,0.45,0.6,0.3
0.01,0.165261,0.327878,0.441613,-1.10982,1.2556,-0.056649,-1.507673,-0.128995,-0.736387,0.306404,-1.864882,0.258723,0.155742,1.087365,0,0,-0.030326,0,-0.2618,-0.010108,1.5,0.2,0.6,0.6,0.6,0.55,0,0.2,0.45,0.45,0.6,0.3
0.01,0.165261,0.327878,0.441613,-1.10982,1.2556,-0.056649,-1.507673,-0.128998,-0.736392,0.306396,-1.864885,0.258717,0.155743,1.088033,0,0,-0.030326,0,-0.2618,-0.010108,1.5,0.2,0.6,0.6,0.6,0.55,0,0.2,0.45,0.45,0.6,0.3
0.01,0.165261,0.327878,0.441613,-1.10982,1.2556,-0.056649,-1.507673,-0.129,-0.736396,0.306388,-1.864888,0.258711,0.155744,1.088701,0,0,-0.030326,0,-0.2618,-0.010108,1.5,0.2,0.6,0.6,0.6,0.55,0,0.2,0.45,0.45,0.6,0.3
0.01,0.165261,0.327878,0.441613,-1.10982,1.2556,-0.056649,-1.507673,-0.129003,-0.7364,0.30638,-1.864891,0.258706,0.155745,1.089369,0,0,-0.030326,0,-0.2618,-0.010108,1.5,0.2,0.6,0.6,0.6,0.55,0,0.2,0.45,0.45,0.6,0.3
0.01,0.165261,0.327878,0.441613,-1.10982,1.2556,-0.056649,-1.507673,-0.129005,-0.736404,0.306373,-1.864893,0.2587,0.155746,1.090036,0,0,-0.030326,0,-0.2618,-0.010108,1.5,0.2,0.6,0.6,0.6,0.55,0,0.2,0.45,0.45,0.6,0.3
0.01,0.165261,0.327878,0.441613,-1.10982,1.2556,-0.056649,-1.507673,-0.129007,-0.736408,0.306366,-1.864896,0.258695,0.155747,1.090703,0,0,-0.030326,0,-0.2618,-0.010108,1.5,0.2,0.6,0.6,0.6,0.55,0,0.2,0.45,0.45,0.6,0.3
0.01,0.165261,0.327878,0.441613,-1.10982,1.2556,-0.056649,-1.507673,-0.129009,-0.736411,0.306359,-1.864898,0.25869,0.155748,1.09137,0,0,-0.030326,0,-0.2618,-0.010108,1.5,0.2,0.6,0.6,0.6,0.55,0,0.2,0.45,0.45,0.6,0.3
0.01,0.165261,0.327878,0.441613,-1.10982,1.2556,-0.056649,-1.507673,-0.129011,-0.736415,0.306352,-1.864901,0.258685,0.155749,1.092036,0,0,-0.030326,0,-0.2618,-0.010108,1.5,0.2,0.6,0.6,0.6,0.55,0,0.2,0.45,0.45,0.6,0.3
0.01,0.165261,0.327878,0.441613,-1.10982,1.2556,-0.056649,-1.507673,-0.129013,-0.736418,0.306346,-1.864903,0.25868,0.15575,1.092703,0,0,-0.030326,0,-0.2618,-0.010108,1.5,0.2,0.6,0.6,0.6,0.55,0,0.2,0.45,0.45,0.6,0.3
0.01,0.165261,0.327878,0.441613,-1.10982,1.2556,-0.056649,-1.507673,-0.129015,-0.736422,0.306339,-1.864905,0.258676,0.155751,1.093369,0,0,-0.030326,0,-0.2618,-0.010108,1.5,0.2,0.6,0.6,0.6,0.55,0,0.2,0.45,0.45,0.6,0.3
0.01,0.165261,0.327878,0.441613,-1.10982,1.2556,-0.056649,-1.507673,-0.129017,-0.736425,0.306333,-1.864907,0.258671,0.155752,1.094034,0,0,-0.030326,0,-0.2618,-0.010108,1.5,0.2,0.6,0.6,0.6,0.55,0,0.2,0.45,0.45,0.6,0.3
0.01,0.165261,0.327878,0.441613,-1.10982,1.2556,-0.056649,-1.507673,-0.129019,-0.736428,0.306328,-1.86491,0.258667,0.155753,1.0947,0,0,-0.030326,0,-0.2618,-0.010108,1.5,0.2,0.6,0.6,0.6,0.55,0,0.2,0.45,0.45,0.6,0.3
0.01,0.165261,0.327878,0.441613,-1.10982,1.2556,-0.056649,-1.507673,-0.12902,-0.736431,0.306322,-1.864911,0.258663,0.155754,1.095365,0,0,-0.030326,0,-0.2618,-0.010108,1.5,0.2,0.6,0.6,0.6,0.55,0,0.2,0.45,0.45,0.6,0.3
0.01,0.165261,0.327878,0.441613,-1.10982,1.2556,-0.056649,-1.507673,-0.129022,-0.736433,0.306317,-1.864913,0.258659,0.155755,1.09603,0,0,-0.030326,0,-0.2618,-0.010108,1.5,0.2,0.6,0.6,0.6,0.55,0,0.2,0.45,0.45,0.6,0.3
0.01,0.165261,0.327878,0.441613,-1.10982,1.2556,-0.056649,-1.507673,-0.129023,-0.736436,0.306312,-1.864915,0.258656,0.155755,1.096695,0,0,-0.030326,0,-0.2618,-0.010108,1.5,0.2,0.6,0.6,0.6,0.55,0,0.2,0.45,0.45,0.6,0.3
0.01,0.165261,0.327878,0.441613,-1.10982,1.2556,-0.056649,-1.507673,-0.129025,-0.736439,0.306307,-1.864917,0.258652,0.155756,1.097359,0,0,-0.030326,0,-0.2618,-0.010108,1.5,0.2,0.6,0.6,0.6,0.55,0,0.2,0.45,0.45,0.6,0.3
0.01,0.165261,0.327878,0.441613,-1.10982,1.2556,-0.056649,-1.507673,-0.129026,-0.736441,0.306303,-1.864918,0.258649,0.155757,1.098023,0,0,-0.030326,0,-0.2618,-0.010108,1.5,0.2,0.6,0.6,0.6,0.55,0,0.2,0.45,0.45,0.6,0.3
0.01,0.165261,0.327878,0.441613,-1.10982,1.2556,-0.056649,-1.507673,-0.129028,-0.736443,0.306299,-1.86492,0.258646,0.155757,1.098687,0,0,-0.030326,0,-0.2618,-0.010108,1.5,0.2,0.6,0.6,0.6,0.55,0,0.2,0.45,0.45,0.6,0.3
0.01,0.165261,0.327878,0.441613,-1.10982,1.2556,-0.056649,-1.507673,-0.129029,-0.736445,0.306295,-1.864921,0.258643,0.155758,1.099351,0,0,-0.030326,0,-0.2618,-0.010108,1.5,0.2,0.6,0.6,0.6,0.55,0,0.2,0.45,0.45,0.6,0.3
0.01,0.165261,0.327878,0.441613,-1.10982,1.2556,-0.056649,-1.507673,-0.12903,-0.736447,0.306291,-1.864923,0.25864,0.155759,1.100014,0,0,-0.030326,0,-0.2618,-0.010108,1.5,0.2,0.6,0.6,0.6,0.55,0,0.2,0.45,0.45,0.6,0.3
0.01,0.165261,0.327878,0.441613,-1.10982,1.2556,-0.056649,-1.507673,-0.129032,-0.736449,0.306287,-1.864924,0.258637,0.155759,1.100678,0,0,-0.030326,0,-0.2618,-0.010108,1.5,0.2,0.6,0.6,0.6,0.55,0,0.2,0.45,0.45,0.6,0.3
0.01,0.165261,0.327878,0.441613,-1.10982,1.2556,-0.056649,-1.507673,-0.129033,-0.736451,0.306284,-1.864925,0.258635,0.15576,1.101341,0,0,-0.030326,0,-0.2618,-0.010108,1.5,0.2,0.6,0.6,0.6,0.55,0,0.2,0.45,0.45,0.6,0.3
0.01,0.165261,0.327878,0.441613,-1.10982,1.2556,-0.056649,-1.507673,-0.129034,-0.736453,0.306281,-1.864926,0.258633,0.15576,1.102003,0,0,-0.030326,0,-0.2618,-0.010108,1.5,0.2,0.6,0.6,0.6,0.55,0,0.2,0.45,0.45,0.6,0.3
0.01,0.165261,0.327878,0.441613,-1.10982,1.2556,-0.056649,-1.507673,-0.129035,-0.736454,0.306278,-1.864927,0.25863,0.155761,1.102666,0,0,-0.030326,0,-0.2618,-0.010108,1.5,0.2,0.6,0.6,0.6,0.55,0,0.2,0.45,0.45,0.6,0.3
0.01,0.165261,0.327878,0.441613,-1.10982,1.2556,-0.056649,-1.507673,-0.129036,-0.736456,0.306276,-1.864928,0.258629,0.155761,1.103328,0,0,-0.030326,0,-0.2618,-0.010108,1.5,0.2,0.6,0.6,0.6,0.55,0,0.2,0.45,0.45,0.6,0.3
0.01,0.165261,0.327878,0.441613,-1.10982,1.2556,-0.056649,-1.507673,-0.129036,-0.736457,0.306273,-1.864929,0.258627,0.155761,1.10399,0,0,-0.030326,0,-0.2618,-0.010108,1.5,0.2,0.6,0.6,0.6,0.55,0,0.2,0.45,0.45,0.6,0.3
0.01,0.165261,0.327878,0.441613,-1.10982,1.2556,-0.056649,-1.507673,-0.129037,-0.736458,0.306271,-1.864929,0.258625,0.155762,1.104651,0,0,-0.030326,0,-0.2618,-0.010108,1.5,0.2,0.6,0.6,0.6,0.55,0,0.2,0.45,0.45,0.6,0.3
0.01,0.165261,0.327878,0.441613,-1.10982,1.2556,-0.056649,-1.507673,-0.129038,-0.736459,0.306269,-1.86493,0.258624,0.155762,1.105313,0,0,-0.030326,0,-0.2618,-0.010108,1.5,0.2,0.6,0.6,0.6,0.55,0,0.2,0.45,0.45,0.6,0.3
0.01,0.165261,0.327878,0.441613,-1.10982,1.2556,-0.056649,-1.507673,-0.129038,-0.73646,0.306268,-1.864931,0.258623,0.155762,1.105974,0,0,-0.030326,0,-0.2618,-0.010108,1.5,0.2,0.6,0.6,0.6,0.55,0,0.2,0.45,0.45,0.6,0.3
0.01,0.165261,0.327878,0.441613,-1.10982,1.2556,-0.056649,-1.507673,-0.129039,-0.73646,0.306266,-1.864931,0.258622,0.155762,1.106635,0,0,-0.030326,0,-0.2618,-0.010108,1.5,0.2,0.6,0.6,0.6,0.55,0,0.2,0.45,0.45,0.6,0.3
0.01,0.165261,0.327878,0.441613,-1.10982,1.2556,-0.056649,-1.507673,-0.12904,-0.736461,0.306265,-1.864931,0.258621,0.155763,1.107295,0,0,-0.030326,0,-0.2618,-0.010108,1.5,0.2,0.6,0.6,0.6,0.55,0,0.2,0.45,0.45,0.6,0.3
0.01,0.165261,0.327878,0.441613,-1.10982,1.2556,-0.056649,-1.507673,-0.12904,-0.736462,0.306264,-1.864932,0.25862,0.155763,1.107956,0,0,-0.030326,0,-0.2618,-0.010108,1.5,0.2,0.6,0.6,0.6,0.55,0,0.2,0.45,0.45,0.6,0.3
0.01,0.165261,0.327878,0.441613,-1.10982,1.2556,-0.056649,-1.507673,-0.12904,-0.736462,0.306264,-1.864932,0.258619,0.155763,1.108616,0,0,-0.030326,0,-0.2618,-0.010108,1.5,0.2,0.6,0.6,0.6,0.55,0,0.2,0.45,0.45,0.6,0.3
0.01,0.165261,0.327878,0.441613,-1.10982,1.2556,-0.056649,-1.507673,-0.129041,-0.736462,0.306263,-1.864932,0.258619,0.155763,1.109276,0,0,-0.030326,0,-0.2618,-0.010108,1.5,0.2,0.6,0.6,0.6,0.55,0,0.2,0.45,0.45,0.6,0.3
0.01,0.165261,0.327878,0.441613,-1.10982,1.2556,-0.056649,-1.507673,-0.129041,-0.736462,0.306263,-1.864932,0.258619,0.155763,1.109935,0,0,-0.030326,0,-0.2618,-0.010108,1.5,0.2,0.6,0.6,0.6,0.55,0,0.2,0.45,0.45,0.6,0.3
0.01,0.165261,0.327878,0.441613,-1.10982,1.2556,-0.056649,-1.507673,-0.129041,-0.736462,0.306263,-1.864932,0.258619,0.155763,1.110595,0,0,-0.030326,0,-0.2618,-0.010108,1.5,0.2,0.6,0.6,0.6,0.55,0,0.2,0.45,0.45,0.6,0.3
0.01,0.165261,0.327878,0.441613,-1.10982,1.2556,-0.056649,-1.507673,-0.129041,-0.736462,0.306264,-1.864932,0.258619,0.155763,1.111254,0,0,-0.030326,0,-0.2618,-0.010108,1.5,0.2,0.6,0.6,0.6,0.55,0,0.2,0.45,0.45,0.6,0.3
0.01,0.165261,0.327878,0.441613,-1.10982,1.2556,-0.056649,-1.507673,-0.129041,-0.736462,0.306264,-1.864931,0.258619,0.155763,1.111913,0,0,-0.030326,0,-0.2618,-0.010108,1.5,0.2,0.6,0.6,0.6,0.55,0,0.2,0.45,0.45,0.6,0.3
0.01,0.165261,0.327878,0.441613,-1.10982,1.2556,-0.056649,-1.507673,-0.129041,-0.736461,0.306265,-1.864931,0.25862,0.155763,1.112571,0,0,-0.030326,0,-0.2618,-0.010108,1.5,0.2,0.6,0.6,0.6,0.55,0,0.2,0.45,0.45,0.6,0.3
0.01,0.165261,0.327878,0.441613,-1.10982,1.2556,-0.056649,-1.507673,-0.129041,-0.736461,0.306266,-1.864931,0.258621,0.155763,1.11323,0,0,-0.030326,0,-0.2618,-0.010108,1.5,0.2,0.6,0.6,0.6,0.55,0,0.2,0.45,0.45,0.6,0.3
0.01,0.165261,0.327878,0.441613,-1.10982,1.2556,-0.056649,-1.507673,-0.12904,-0.73646,0.306267,-1.86493,0.258622,0.155763,1.113888,0,0,-0.030326,0,-0.2618,-0.010108,1.5,0.2,0.6,0.6,0.6,0.55,0,0.2,0.45,0.45,0.6,0.3
0.01,0.165261,0.327878,0.441613,-1.10982,1.2556,-0.056649,-1.507673,-0.12904,-0.736459,0.306269,-1.86493,0.258623,0.155762,1.114546,0,0,-0.030326,0,-0.2618,-0.010108,1.5,0.2,0.6,0.6,0.6,0.55,0,0.2,0.45,0.45,0.6,0.3
0.01,0.165261,0.327878,0.441613,-1.10982,1.2556,-0.056649,-1.507673,-0.12904,-0.736458,0.30627,-1.864929,0.258624,0.155762,1.115203,0,0,-0.030326,0,-0.2618,-0.010108,1.5,0.2,0.6,0.6,0.6,0.55,0,0.2,0.45,0.45,0.6,0.3
0.01,0.165261,0.327878,0.441613,-1.10982,1.2556,-0.056649,-1.507673,-0.129039,-0.736457,0.306272,-1.864928,0.258625,0.155762,1.11586,0,0,-0.030326,0,-0.2618,-0.010108,1.5,0.2,0.6,0.6,0.6,0.55,0,0.2,0.45,0.45,0.6,0.3
0.01,0.165261,0.327878,0.441613,-1.10982,1.2556,-0.056649,-1.507673,-0.129039,-0.736456,0.306275,-1.864927,0.258627,0.155761,1.116517,0,0,-0.030326,0,-0.2618,-0.010108,1.5,0.2,0.6,0.6,0.6,0.55,0,0.2,0.45,0.45,0.6,0.3
0.01,0.165261,0.327878,0.441613,-1.10982,1.2556,-0.056649,-1.507673,-0.129038,-0.736455,0.306277,-1.864926,0.258629,0.155761,1.117174,0,0,-0.030326,0,-0.2618,-0.010108,1.5,0.2,0.6,0.6,0.6,0.55,0,0.2,0.45,0.45,0.6,0.3
0.01,0.165261,0.327878,0.441613,-1.10982,1.2556,-0.056649,-1.507673,-0.129037,-0.736453,0.30628,-1.864925,0.258631,0.155761,1.117831,0,0,-0.030326,0,-0.2618,-0.010108,1.5,0.2,0.6,0.6,0.6,0.55,0,0.2,0.45,0.45,0.6,0.3
0.01,0.165261,0.327878,0.441613,-1.10982,1.2556,-0.056649,-1.507673,-0.129036,-0.736452,0.306283,-1.864924,0.258633,0.15576,1.118487,0,0,-0.030326,0,-0.2618,-0.010108,1.5,0.2,0.6,0.6,0.6,0.55,0,0.2,0.45,0.45,0.6,0.3
0.01,0.165261,0.327878,0.441613,-1.10982,1.2556,-0.056649,-1.507673,-0.129036,-0.73645,0.306286,-1.864923,0.258635,0.15576,1.119143,0,0,-0.030326,0,-0.2618,-0.010108,1.5,0.2,0.6,0.6,0.6,0.55,0,0.2,0.45,0.45,0.6,0.3
0.01,0.165261,0.327878,0.441613,-1.10982,1.2556,-0.056649,-1.507673,-0.129035,-0.736448,0.306289,-1.864922,0.258637,0.155759,1.119799,0,0,-0.030326,0,-0.2618,-0.010108,1.5,0.2,0.6,0.6,0.6,0.55,0,0.2,0.45,0.45,0.6,0.3
0.01,0.165261,0.327878,0.441613,-1.10982,1.2556,-0.056649,-1.507673,-0.129034,-0.736446,0.306293,-1.86492,0.25864,0.155759,1.120454,0,0,-0.030326,0,-0.2618,-0.010108,1.5,0.2,0.6,0.6,0.6,0.55,0,0.2,0.45,0.45,0.6,0.3
0.01,0.165261,0.327878,0.441613,-1.10982,1.2556,-0.056649,-1.507673,-0.129032,-0.736444,0.306297,-1.864919,0.258643,0.155758,1.12111,0,0,-0.030326,0,-0.2618,-0.010108,1.5,0.2,0.6,0.6,0.6,0.55,0,0.2,0.45,0.45,0.6,0.3
0.01,0.165261,0.327878,0.441613,-1.10982,1.2556,-0.056649,-1.507673,-0.129031,-0.736442,0.306301,-1.864918,0.258646,0.155758,1.121765,0,0,-0.030326,0,-0.2618,-0.010108,1.5,0.2,0.6,0.6,0.6,0.55,0,0.2,0.45,0.45,0.6,0.3
0.01,0.165261,0.327878,0.441613,-1.10982,1.2556,-0.056649,-1.507673,-0.12903,-0.73644,0.306305,-1.864916,0.258649,0.155757,1.122419,0,0,-0.030326,0,-0.2618,-0.010108,1.5,0.2,0.6,0.6,0.6,0.55,0,0.2,0.45,0.45,0.6,0.3
0.01,0.165261,0.327878,0.441613,-1.10982,1.2556,-0.056649,-1.507673,-0.129029,-0.736438,0.30631,-1.864914,0.258652,0.155756,1.123074,0,0,-0.030326,0,-0.2618,-0.010108,1.5,0.2,0.6,0.6,0.6,0.55,0,0.2,0.45,0.45,0.6,0.3
0.01,0.165261,0.327878,0.441613,-1.10982,1.2556,-0.056649,-1.507673,-0.129027,-0.736435,0.306314,-1.864913,0.258656,0.155756,1.123728,0,0,-0.030326,0,-0.2618,-0.010108,1.5,0.2,0.6,0.6,0.6,0.55,0,0.2,0.45,0.45,0.6,0.3
0.01,0.165261,0.327878,0.441613,-1.10982,1.2556,-0.056649,-1.507673,-0.129026,-0.736432,0.30632,-1.864911,0.258659,0.155755,1.124382,0,0,-0.030326,0,-0.2618,-0.010108,1.5,0.2,0.6,0.6,0.6,0.55,0,0.2,0.45,0.45,0.6,0.3
0.01,0.165261,0.327878,0.441613,-1.10982,1.2556,-0.056649,-1.507673,-0.129024,-0.73643,0.306325,-1.864909,0.258663,0.155754,1.125036,0,0,-0.030326,0,-0.2618,-0.010108,1.5,0.2,0.6,0.6,0.6,0.55,0,0.2,0.45,0.45,0.6,0.3
