Dreamlinkage123/action_data_offset_posture_ws/action_data_offset_ws/build_aarch64/orin_root/workspace/action_data_offset_ws/share/action_data_offset/data/光辉岁月-20260413_offset.csv
time,left_shoulder_pitch_joint,left_shoulder_roll_joint,left_shoulder_yaw_joint,left_elbow_pitch_joint,left_wrist_yaw_joint,left_wrist_pitch_joint,left_wrist_roll_joint,right_shoulder_pitch_joint,right_shoulder_roll_joint,right_shoulder_yaw_joint,right_elbow_pitch_joint,right_wrist_yaw_joint,right_wrist_pitch_joint,right_wrist_roll_joint,null,null,waist_yaw_joint,null,head_yaw_joint,head_pitch_joint,left_thumb_mcp_roll_joint,left_thumb_mcp_pitch_joint,left_index_mcp_joint,left_middle_mcp_joint,left_ring_mcp_joint,left_pinky_mcp_joint,right_thumb_mcp_roll_joint,right_thumb_mcp_pitch_joint,right_index_mcp_joint,right_middle_mcp_joint,right_ring_mcp_joint,right_pinky_mcp_joint
0.01,0.165261,0.327878,0.441613,-1.10982,1.2556,-0.056649,-1.507673,0.106035,-0.829644,0.199345,-1.8675,0.228198,0.176109,0.919797,0.0,0.0,-0.030326,0.0,-0.2618,-0.010108,1.5,0.2,0.6,0.6,0.6,0.55,0.0,0.2,0.75,0.6,0.55,0.3,
0.01,0.165261,0.327878,0.441613,-1.10982,1.2556,-0.056649,-1.507673,0.106035,-0.829646,0.199345,-1.8675,0.228198,0.176109,0.919797,0.0,0.0,-0.030326,0.0,-0.2618,-0.010108,1.5,0.2,0.6,0.6,0.6,0.55,0.0,0.2,0.749984,0.599992,0.550003,0.3,
0.01,0.165261,0.327878,0.441613,-1.10982,1.2556,-0.056649,-1.507673,0.106036,-0.829648,0.199345,-1.8675,0.228198,0.176109,0.919798,0.0,0.0,-0.030326,0.0,-0.2618,-0.010108,1.5,0.2,0.6,0.6,0.6,0.55,0.0,0.2,0.749952,0.599976,0.550008,0.3,
0.01,0.165261,0.327878,0.441613,-1.10982,1.2556,-0.056649,-1.507673,0.106036,-0.829651,0.199344,-1.8675,0.228198,0.176109,0.919799,0.0,0.0,-0.030326,0.0,-0.2618,-0.010108,1.5,0.2,0.6,0.6,0.6,0.55,0.0,0.2,0.749904,0.599952,0.550016,0.3,
0.01,0.165261,0.327878,0.441613,-1.10982,1.2556,-0.056649,-1.507673,0.106037,-0.829657,0.199343,-1.8675,0.228197,0.176109,0.9198,0.0,0.0,-0.030326,0.0,-0.2618,-0.010108,1.5,0.2,0.6,0.6,0.6,0.55,0.0,0.2,0.74984,0.59992,0.550027,0.3,
0.01,0.165261,0.327878,0.441613,-1.10982,1.2556,-0.056649,-1.507673,0.106037,-0.829662,0.199342,-1.8675,0.228196,0.176109,0.9198,0.0,0.0,-0.030326,0.0,-0.2618,-0.010108,1.5,0.2,0.6,0.6,0.6,0.55,0.0,0.2,0.749759,0.59988,0.55004,0.3,
0.01,0.165261,0.327878,0.441613,-1.10982,1.2556,-0.056649,-1.507673,0.106038,-0.82967,0.199341,-1.8675,0.228195,0.176109,0.919803,0.0,0.0,-0.030326,0.0,-0.2618,-0.010108,1.5,0.2,0.6,0.6,0.6,0.55,0.0,0.2,0.749663,0.599832,0.550056,0.3,
0.01,0.165261,0.327878,0.441613,-1.10982,1.2556,-0.056649,-1.507673,0.106039,-0.829678,0.199339,-1.8675,0.228194,0.176109,0.919804,0.0,0.0,-0.030326,0.0,-0.2618,-0.010108,1.5,0.2,0.6,0.6,0.6,0.55,0.0,0.2,0.749551,0.599775,0.550075,0.3,
0.01,0.165261,0.327878,0.441613,-1.10982,1.2556,-0.056649,-1.507673,0.10604,-0.829688,0.199338,-1.8675,0.228193,0.176109,0.919806,0.0,0.0,-0.030326,0.0,-0.2618,-0.010108,1.5,0.2,0.6,0.6,0.6,0.55,0.0,0.2,0.749422,0.599711,0.550096,0.3,
0.01,0.165261,0.327878,0.441613,-1.10982,1.2556,-0.056649,-1.507673,0.106041,-0.829698,0.199336,-1.8675,0.228192,0.176109,0.919807,0.0,0.0,-0.030326,0.0,-0.2618,-0.010108,1.5,0.2,0.6,0.6,0.6,0.55,0.0,0.2,0.749278,0.599639,0.55012,0.3,
0.01,0.165261,0.327878,0.441613,-1.10982,1.2556,-0.056649,-1.507673,0.106043,-0.82971,0.199332,-1.8675,0.22819,0.17611,0.91981,0.0,0.0,-0.030326,0.0,-0.2618,-0.010108,1.5,0.2,0.6,0.6,0.6,0.55,0.0,0.2,0.749118,0.599559,0.550147,0.3,
0.01,0.165261,0.327878,0.441613,-1.10982,1.2556,-0.056649,-1.507673,0.106044,-0.829724,0.19933,-1.8675,0.228187,0.176111,0.919813,0.0,0.0,-0.030326,0.0,-0.2618,-0.010108,1.5,0.2,0.6,0.6,0.6,0.55,0.0,0.2,0.748941,0.599471,0.550176,0.3,
0.01,0.165261,0.327878,0.441613,-1.10982,1.2556,-0.056649,-1.507673,0.106046,-0.829738,0.199327,-1.8675,0.228185,0.176111,0.919815,0.0,0.0,-0.030326,0.0,-0.2618,-0.010108,1.5,0.2,0.6,0.6,0.6,0.55,0.0,0.2,0.748749,0.599374,0.550209,0.3,
0.01,0.165261,0.327878,0.441613,-1.10982,1.2556,-0.056649,-1.507673,0.106048,-0.829754,0.199324,-1.8675,0.228183,0.176111,0.919818,0.0,0.0,-0.030326,0.0,-0.2618,-0.010108,1.5,0.2,0.6,0.6,0.6,0.55,0.0,0.2,0.74854,0.59927,0.550243,0.3,
0.01,0.165261,0.327878,0.441613,-1.10982,1.2556,-0.056649,-1.507673,0.10605,-0.82977,0.199321,-1.8675,0.228181,0.176111,0.919822,0.0,0.0,-0.030326,0.0,-0.2618,-0.010108,1.5,0.2,0.6,0.6,0.6,0.55,0.0,0.2,0.748316,0.599158,0.550281,0.3,
0.01,0.165261,0.327878,0.441613,-1.10982,1.2556,-0.056649,-1.507673,0.106052,-0.829788,0.199318,-1.8675,0.228179,0.176111,0.919824,0.0,0.0,-0.030326,0.0,-0.2618,-0.010108,1.5,0.2,0.6,0.6,0.6,0.55,0.0,0.2,0.748075,0.599037,0.550321,0.3,
0.01,0.165261,0.327878,0.441613,-1.10982,1.2556,-0.056649,-1.507673,0.106054,-0.829807,0.199315,-1.8675,0.228177,0.176112,0.919828,0.0,0.0,-0.030326,0.0,-0.2618,-0.010108,1.5,0.2,0.6,0.6,0.6,0.55,0.0,0.2,0.747818,0.598909,0.550364,0.3,
0.01,0.165261,0.327878,0.441613,-1.10982,1.2556,-0.056649,-1.507673,0.106056,-0.829828,0.199311,-1.8675,0.228174,0.176113,0.919832,0.0,0.0,-0.030326,0.0,-0.2618,-0.010108,1.5,0.2,0.6,0.6,0.6,0.55,0.0,0.2,0.747545,0.598773,0.550409,0.3,
0.01,0.165261,0.327878,0.441613,-1.10982,1.2556,-0.056649,-1.507673,0.106059,-0.829849,0.199306,-1.8675,0.228171,0.176113,0.919837,0.0,0.0,-0.030326,0.0,-0.2618,-0.010108,1.5,0.2,0.6,0.6,0.6,0.55,0.0,0.2,0.747257,0.598628,0.550457,0.3,
0.01,0.165261,0.327878,0.441613,-1.10982,1.2556,-0.056649,-1.507673,0.106061,-0.829873,0.199302,-1.8675,0.228167,0.176113,0.919841,0.0,0.0,-0.030326,0.0,-0.2618,-0.010108,1.5,0.2,0.6,0.6,0.6,0.55,0.0,0.2,0.746952,0.598476,0.550508,0.3,
0.01,0.165261,0.327878,0.441613,-1.10982,1.2556,-0.056649,-1.507673,0.106064,-0.829896,0.199297,-1.8675,0.228164,0.176114,0.919846,0.0,0.0,-0.030326,0.0,-0.2618,-0.010108,1.5,0.2,0.6,0.6,0.6,0.55,0.0,0.2,0.746631,0.598316,0.550561,0.3,
0.01,0.165261,0.327878,0.441613,-1.10982,1.2556,-0.056649,-1.507673,0.106067,-0.829922,0.199293,-1.8675,0.228161,0.176114,0.919851,0.0,0.0,-0.030326,0.0,-0.2618,-0.010108,1.5,0.2,0.6,0.6,0.6,0.55,0.0,0.2,0.746294,0.598147,0.550618,0.3,
0.01,0.165261,0.327878,0.441613,-1.10982,1.2556,-0.056649,-1.507673,0.10607,-0.829948,0.199288,-1.8675,0.228157,0.176115,0.919856,0.0,0.0,-0.030326,0.0,-0.2618,-0.010108,1.5,0.2,0.6,0.6,0.6,0.55,0.0,0.2,0.745941,0.597971,0.550676,0.3,
0.01,0.165261,0.327878,0.441613,-1.10982,1.2556,-0.056649,-1.507673,0.106073,-0.829975,0.199282,-1.8675,0.228154,0.176115,0.919861,0.0,0.0,-0.030326,0.0,-0.2618,-0.010108,1.5,0.2,0.6,0.6,0.6,0.55,0.0,0.2,0.745572,0.597786,0.550738,0.3,
0.01,0.165261,0.327878,0.441613,-1.10982,1.2556,-0.056649,-1.507673,0.106077,-0.830004,0.199277,-1.8675,0.228149,0.176116,0.919867,0.0,0.0,-0.030326,0.0,-0.2618,-0.010108,1.5,0.2,0.6,0.6,0.6,0.55,0.0,0.2,0.745187,0.597594,0.550802,0.3,
0.01,0.165261,0.327878,0.441613,-1.10982,1.2556,-0.056649,-1.507673,0.10608,-0.830035,0.199271,-1.8675,0.228145,0.176116,0.919872,0.0,0.0,-0.030326,0.0,-0.2618,-0.010108,1.5,0.2,0.6,0.6,0.6,0.55,0.0,0.2,0.744786,0.597393,0.550869,0.3,
0.01,0.165261,0.327878,0.441613,-1.10982,1.2556,-0.056649,-1.507673,0.106083,-0.830066,0.199266,-1.8675,0.228141,0.176117,0.919878,0.0,0.0,-0.030326,0.0,-0.2618,-0.010108,1.5,0.2,0.6,0.6,0.6,0.55,0.0,0.2,0.744369,0.597184,0.550939,0.3,
0.01,0.165261,0.327878,0.441613,-1.10982,1.2556,-0.056649,-1.507673,0.106087,-0.830098,0.19926,-1.8675,0.228137,0.176118,0.919884,0.0,0.0,-0.030326,0.0,-0.2618,-0.010108,1.5,0.2,0.6,0.6,0.6,0.55,0.0,0.2,0.743936,0.596968,0.551011,0.3,
0.01,0.165261,0.327878,0.441613,-1.10982,1.2556,-0.056649,-1.507673,0.106091,-0.830131,0.199253,-1.8675,0.228133,0.176118,0.919891,0.0,0.0,-0.030326,0.0,-0.2618,-0.010108,1.5,0.2,0.6,0.6,0.6,0.55,0.0,0.2,0.743487,0.596743,0.551086,0.3,
0.01,0.165261,0.327878,0.441613,-1.10982,1.2556,-0.056649,-1.507673,0.106095,-0.830166,0.199246,-1.8675,0.228127,0.17612,0.919898,0.0,0.0,-0.030326,0.0,-0.2618,-0.010108,1.5,0.2,0.6,0.6,0.6,0.55,0.0,0.2,0.743021,0.596511,0.551163,0.3,
0.01,0.165261,0.327878,0.441613,-1.10982,1.2556,-0.056649,-1.507673,0.106099,-0.830202,0.19924,-1.8675,0.228123,0.17612,0.919904,0.0,0.0,-0.030326,0.0,-0.2618,-0.010108,1.5,0.2,0.6,0.6,0.6,0.55,0.0,0.2,0.74254,0.59627,0.551243,0.3,
0.01,0.165261,0.327878,0.441613,-1.10982,1.2556,-0.056649,-1.507673,0.106103,-0.83024,0.199233,-1.8675,0.228118,0.17612,0.919912,0.0,0.0,-0.030326,0.0,-0.2618,-0.010108,1.5,0.2,0.6,0.6,0.6,0.55,0.0,0.2,0.742043,0.596021,0.551326,0.3,
0.01,0.165261,0.327878,0.441613,-1.10982,1.2556,-0.056649,-1.507673,0.106108,-0.830278,0.199225,-1.8675,0.228113,0.176122,0.919919,0.0,0.0,-0.030326,0.0,-0.2618,-0.010108,1.5,0.2,0.6,0.6,0.6,0.55,0.0,0.2,0.741529,0.595765,0.551412,0.3,
0.01,0.165261,0.327878,0.441613,-1.10982,1.2556,-0.056649,-1.507673,0.106112,-0.830318,0.199218,-1.8675,0.228107,0.176122,0.919926,0.0,0.0,-0.030326,0.0,-0.2618,-0.010108,1.5,0.2,0.6,0.6,0.6,0.55,0.0,0.2,0.741,0.5955,0.5515,0.3,
0.01,0.165261,0.327878,0.441613,-1.10982,1.2556,-0.056649,-1.507673,0.106117,-0.830358,0.199211,-1.8675,0.228102,0.176123,0.919934,0.0,0.0,-0.030326,0.0,-0.2618,-0.010108,1.5,0.2,0.6,0.6,0.6,0.55,0.0,0.2,0.740455,0.595227,0.551591,0.3,
0.01,0.165261,0.327878,0.441613,-1.10982,1.2556,-0.056649,-1.507673,0.106122,-0.8304,0.199202,-1.8675,0.228096,0.176124,0.919942,0.0,0.0,-0.030326,0.0,-0.2618,-0.010108,1.5,0.2,0.6,0.6,0.6,0.55,0.0,0.2,0.739893,0.594947,0.551684,0.3,
0.01,0.165261,0.327878,0.441613,-1.10982,1.2556,-0.056649,-1.507673,0.106127,-0.830444,0.199194,-1.8675,0.228091,0.176125,0.91995,0.0,0.0,-0.030326,0.0,-0.2618,-0.010108,1.5,0.2,0.6,0.6,0.6,0.55,0.0,0.2,0.739316,0.594658,0.551781,0.3,
0.01,0.165261,0.327878,0.441613,-1.10982,1.2556,-0.056649,-1.507673,0.106132,-0.830488,0.199186,-1.8675,0.228084,0.176125,0.919958,0.0,0.0,-0.030326,0.0,-0.2618,-0.010108,1.5,0.2,0.6,0.6,0.6,0.55,0.0,0.2,0.738722,0.594361,0.55188,0.3,
0.01,0.165261,0.327878,0.441613,-1.10982,1.2556,-0.056649,-1.507673,0.106137,-0.830533,0.199177,-1.8675,0.228078,0.176127,0.919967,0.0,0.0,-0.030326,0.0,-0.2618,-0.010108,1.5,0.2,0.6,0.6,0.6,0.55,0.0,0.2,0.738112,0.594056,0.551981,0.3,
0.01,0.165261,0.327878,0.441613,-1.10982,1.2556,-0.056649,-1.507673,0.106142,-0.83058,0.199168,-1.8675,0.228072,0.176127,0.919976,0.0,0.0,-0.030326,0.0,-0.2618,-0.010108,1.5,0.2,0.6,0.6,0.6,0.55,0.0,0.2,0.737487,0.593743,0.552086,0.3,
0.01,0.165261,0.327878,0.441613,-1.10982,1.2556,-0.056649,-1.507673,0.106148,-0.830628,0.19916,-1.8675,0.228065,0.176128,0.919986,0.0,0.0,-0.030326,0.0,-0.2618,-0.010108,1.5,0.2,0.6,0.6,0.6,0.55,0.0,0.2,0.736845,0.593422,0.552193,0.3,
0.01,0.165261,0.327878,0.441613,-1.10982,1.2556,-0.056649,-1.507673,0.106154,-0.830678,0.199149,-1.8675,0.228058,0.176129,0.919995,0.0,0.0,-0.030326,0.0,-0.2618,-0.010108,1.5,0.2,0.6,0.6,0.6,0.55,0.0,0.2,0.736187,0.593094,0.552302,0.3,
0.01,0.165261,0.327878,0.441613,-1.10982,1.2556,-0.056649,-1.507673,0.106159,-0.830728,0.19914,-1.8675,0.228052,0.17613,0.920005,0.0,0.0,-0.030326,0.0,-0.2618,-0.010108,1.5,0.2,0.6,0.6,0.6,0.55,0.0,0.2,0.735513,0.592757,0.552414,0.3,
0.01,0.165261,0.327878,0.441613,-1.10982,1.2556,-0.056649,-1.507673,0.106165,-0.830779,0.199131,-1.8675,0.228044,0.176131,0.920014,0.0,0.0,-0.030326,0.0,-0.2618,-0.010108,1.5,0.2,0.6,0.6,0.6,0.55,0.0,0.2,0.734824,0.592412,0.552529,0.3,
0.01,0.165261,0.327878,0.441613,-1.10982,1.2556,-0.056649,-1.507673,0.106171,-0.830832,0.19912,-1.8675,0.228038,0.176132,0.920024,0.0,0.0,-0.030326,0.0,-0.2618,-0.010108,1.5,0.2,0.6,0.6,0.6,0.55,0.0,0.2,0.734118,0.592059,0.552647,0.3,
0.01,0.165261,0.327878,0.441613,-1.10982,1.2556,-0.056649,-1.507673,0.106177,-0.830886,0.19911,-1.8675,0.228031,0.176134,0.920034,0.0,0.0,-0.030326,0.0,-0.2618,-0.010108,1.5,0.2,0.6,0.6,0.6,0.55,0.0,0.2,0.733396,0.591698,0.552767,0.3,
0.01,0.165261,0.327878,0.441613,-1.10982,1.2556,-0.056649,-1.507673,0.106183,-0.830941,0.199101,-1.8675,0.228023,0.176134,0.920045,0.0,0.0,-0.030326,0.0,-0.2618,-0.010108,1.5,0.2,0.6,0.6,0.6,0.55,0.0,0.2,0.732658,0.591329,0.55289,0.3,
0.01,0.165261,0.327878,0.441613,-1.10982,1.2556,-0.056649,-1.507673,0.10619,-0.830998,0.199089,-1.8675,0.228015,0.176135,0.920056,0.0,0.0,-0.030326,0.0,-0.2618,-0.010108,1.5,0.2,0.6,0.6,0.6,0.55,0.0,0.2,0.731904,0.590952,0.553016,0.3,
0.01,0.165261,0.327878,0.441613,-1.10982,1.2556,-0.056649,-1.507673,0.106196,-0.831055,0.199079,-1.8675,0.228008,0.176137,0.920067,0.0,0.0,-0.030326,0.0,-0.2618,-0.010108,1.5,0.2,0.6,0.6,0.6,0.55,0.0,0.2,0.731134,0.590567,0.553144,0.3,
0.01,0.165261,0.327878,0.441613,-1.10982,1.2556,-0.056649,-1.507673,0.106203,-0.831114,0.199067,-1.8675,0.227999,0.176137,0.920078,0.0,0.0,-0.030326,0.0,-0.2618,-0.010108,1.5,0.2,0.6,0.6,0.6,0.55,0.0,0.2,0.730348,0.590174,0.553275,0.3,
0.01,0.165261,0.327878,0.441613,-1.10982,1.2556,-0.056649,-1.507673,0.10621,-0.831174,0.199056,-1.8675,0.227992,0.176139,0.920089,0.0,0.0,-0.030326,0.0,-0.2618,-0.010108,1.5,0.2,0.6,0.6,0.6,0.55,0.0,0.2,0.729545,0.589773,0.553409,0.3,
0.01,0.165261,0.327878,0.441613,-1.10982,1.2556,-0.056649,-1.507673,0.106216,-0.831235,0.199045,-1.8675,0.227984,0.17614,0.920102,0.0,0.0,-0.030326,0.0,-0.2618,-0.010108,1.5,0.2,0.6,0.6,0.6,0.55,0.0,0.2,0.728727,0.589364,0.553545,0.3,
0.01,0.165261,0.327878,0.441613,-1.10982,1.2556,-0.056649,-1.507673,0.106223,-0.831298,0.199033,-1.8675,0.227974,0.176141,0.920113,0.0,0.0,-0.030326,0.0,-0.2618,-0.010108,1.5,0.2,0.6,0.6,0.6,0.55,0.0,0.2,0.727893,0.588947,0.553684,0.3,
0.01,0.165261,0.327878,0.441613,-1.10982,1.2556,-0.056649,-1.507673,0.106231,-0.831361,0.199021,-1.8675,0.227966,0.176142,0.920125,0.0,0.0,-0.030326,0.0,-0.2618,-0.010108,1.5,0.2,0.6,0.6,0.6,0.55,0.0,0.2,0.727043,0.588521,0.553826,0.3,
0.01,0.165261,0.327878,0.441613,-1.10982,1.2556,-0.056649,-1.507673,0.106238,-0.831426,0.199008,-1.8675,0.227957,0.176144,0.920138,0.0,0.0,-0.030326,0.0,-0.2618,-0.010108,1.5,0.2,0.6,0.6,0.6,0.55,0.0,0.2,0.726176,0.588088,0.553971,0.3,
0.01,0.165261,0.327878,0.441613,-1.10982,1.2556,-0.056649,-1.507673,0.106246,-0.831492,0.198996,-1.8675,0.227949,0.176145,0.92015,0.0,0.0,-0.030326,0.0,-0.2618,-0.010108,1.5,0.2,0.6,0.6,0.6,0.55,0.0,0.2,0.725294,0.587647,0.554118,0.3,
0.01,0.165261,0.327878,0.441613,-1.10982,1.2556,-0.056649,-1.507673,0.106253,-0.831559,0.198984,-1.8675,0.22794,0.176146,0.920163,0.0,0.0,-0.030326,0.0,-0.2618,-0.010108,1.5,0.2,0.6,0.6,0.6,0.55,0.0,0.2,0.724396,0.587198,0.554267,0.3,
0.01,0.165261,0.327878,0.441613,-1.10982,1.2556,-0.056649,-1.507673,0.106261,-0.831627,0.198971,-1.8675,0.22793,0.176147,0.920176,0.0,0.0,-0.030326,0.0,-0.2618,-0.010108,1.5,0.2,0.6,0.6,0.6,0.55,0.0,0.2,0.723481,0.586741,0.55442,0.3,
0.01,0.165261,0.327878,0.441613,-1.10982,1.2556,-0.056649,-1.507673,0.106269,-0.831697,0.198958,-1.8675,0.227921,0.176149,0.920189,0.0,0.0,-0.030326,0.0,-0.2618,-0.010108,1.5,0.2,0.6,0.6,0.6,0.55,0.0,0.2,0.722551,0.586275,0.554575,0.3,
0.01,0.165261,0.327878,0.441613,-1.10982,1.2556,-0.056649,-1.507673,0.106277,-0.831767,0.198944,-1.8675,0.227911,0.17615,0.920203,0.0,0.0,-0.030326,0.0,-0.2618,-0.010108,1.5,0.2,0.6,0.6,0.6,0.55,0.0,0.2,0.721604,0.585802,0.554733,0.3,
0.01,0.165261,0.327878,0.441613,-1.10982,1.2556,-0.056649,-1.507673,0.106285,-0.83184,0.198931,-1.8675,0.227902,0.176152,0.920216,0.0,0.0,-0.030326,0.0,-0.2618,-0.010108,1.5,0.2,0.6,0.6,0.6,0.55,0.0,0.2,0.720642,0.585321,0.554893,0.3,
0.01,0.165261,0.327878,0.441613,-1.10982,1.2556,-0.056649,-1.507673,0.106294,-0.831912,0.198917,-1.8675,0.227892,0.176153,0.92023,0.0,0.0,-0.030326,0.0,-0.2618,-0.010108,1.5,0.2,0.6,0.6,0.6,0.55,0.0,0.2,0.719663,0.584832,0.555056,0.3,
0.01,0.165261,0.327878,0.441613,-1.10982,1.2556,-0.056649,-1.507673,0.106302,-0.831987,0.198903,-1.8675,0.227882,0.176154,0.920244,0.0,0.0,-0.030326,0.0,-0.2618,-0.010108,1.5,0.2,0.6,0.6,0.6,0.55,0.0,0.2,0.718668,0.584334,0.555222,0.3,
0.01,0.165261,0.327878,0.441613,-1.10982,1.2556,-0.056649,-1.507673,0.106311,-0.832063,0.198889,-1.8675,0.227872,0.176155,0.920258,0.0,0.0,-0.030326,0.0,-0.2618,-0.010108,1.5,0.2,0.6,0.6,0.6,0.55,0.0,0.2,0.717658,0.583829,0.55539,0.3,
0.01,0.165261,0.327878,0.441613,-1.10982,1.2556,-0.056649,-1.507673,0.10632,-0.832139,0.198875,-1.8675,0.227861,0.176157,0.920273,0.0,0.0,-0.030326,0.0,-0.2618,-0.010108,1.5,0.2,0.6,0.6,0.6,0.55,0.0,0.2,0.716631,0.583316,0.555561,0.3,
0.01,0.165261,0.327878,0.441613,-1.10982,1.2556,-0.056649,-1.507673,0.106329,-0.832217,0.19886,-1.8675,0.227851,0.176158,0.920288,0.0,0.0,-0.030326,0.0,-0.2618,-0.010108,1.5,0.2,0.6,0.6,0.6,0.55,0.0,0.2,0.715588,0.582794,0.555735,0.3,
0.01,0.165261,0.327878,0.441613,-1.10982,1.2556,-0.056649,-1.507673,0.106338,-0.832296,0.198845,-1.8675,0.22784,0.17616,0.920303,0.0,0.0,-0.030326,0.0,-0.2618,-0.010108,1.5,0.2,0.6,0.6,0.6,0.55,0.0,0.2,0.714529,0.582265,0.555912,0.3,
0.01,0.165261,0.327878,0.441613,-1.10982,1.2556,-0.056649,-1.507673,0.106347,-0.832376,0.19883,-1.8675,0.227829,0.176162,0.920318,0.0,0.0,-0.030326,0.0,-0.2618,-0.010108,1.5,0.2,0.6,0.6,0.6,0.55,0.0,0.2,0.713455,0.581727,0.556091,0.3,
0.01,0.165261,0.327878,0.441613,-1.10982,1.2556,-0.056649,-1.507673,0.106356,-0.832458,0.198815,-1.8675,0.227819,0.176163,0.920333,0.0,0.0,-0.030326,0.0,-0.2618,-0.010108,1.5,0.2,0.6,0.6,0.6,0.55,0.0,0.2,0.712364,0.581182,0.556273,0.3,
0.01,0.165261,0.327878,0.441613,-1.10982,1.2556,-0.056649,-1.507673,0.106366,-0.832539,0.1988,-1.8675,0.227808,0.176165,0.920349,0.0,0.0,-0.030326,0.0,-0.2618,-0.010108,1.5,0.2,0.6,0.6,0.6,0.55,0.0,0.2,0.711273,0.580636,0.556455,0.3,
0.01,0.165261,0.327878,0.441613,-1.10982,1.2556,-0.056649,-1.507673,0.106375,-0.832621,0.198784,-1.8675,0.227797,0.176166,0.920364,0.0,0.0,-0.030326,0.0,-0.2618,-0.010108,1.5,0.2,0.6,0.6,0.6,0.55,0.0,0.2,0.710182,0.580091,0.556636,0.3,
0.01,0.165261,0.327878,0.441613,-1.10982,1.2556,-0.056649,-1.507673,0.106385,-0.832703,0.19877,-1.8675,0.227785,0.176168,0.92038,0.0,0.0,-0.030326,0.0,-0.2618,-0.010108,1.5,0.2,0.6,0.6,0.6,0.55,0.0,0.2,0.709091,0.579545,0.556818,0.3,
0.01,0.165261,0.327878,0.441613,-1.10982,1.2556,-0.056649,-1.507673,0.106394,-0.832785,0.198754,-1.8675,0.227775,0.176169,0.920395,0.0,0.0,-0.030326,0.0,-0.2618,-0.010108,1.5,0.2,0.6,0.6,0.6,0.55,0.0,0.2,0.708,0.579,0.557,0.3,
0.01,0.165261,0.327878,0.441613,-1.10982,1.2556,-0.056649,-1.507673,0.106403,-0.832866,0.198739,-1.8675,0.227763,0.17617,0.920411,0.0,0.0,-0.030326,0.0,-0.2618,-0.010108,1.5,0.2,0.6,0.6,0.6,0.55,0.0,0.2,0.706909,0.578455,0.557182,0.3,
0.01,0.165261,0.327878,0.441613,-1.10982,1.2556,-0.056649,-1.507673,0.106413,-0.832948,0.198723,-1.8675,0.227753,0.176171,0.920426,0.0,0.0,-0.030326,0.0,-0.2618,-0.010108,1.5,0.2,0.6,0.6,0.6,0.55,0.0,0.2,0.705818,0.577909,0.557364,0.3,
0.01,0.165261,0.327878,0.441613,-1.10982,1.2556,-0.056649,-1.507673,0.106422,-0.833029,0.198708,-1.8675,0.227742,0.176173,0.920441,0.0,0.0,-0.030326,0.0,-0.2618,-0.010108,1.5,0.2,0.6,0.6,0.6,0.55,0.0,0.2,0.704727,0.577364,0.557545,0.3,
0.01,0.165261,0.327878,0.441613,-1.10982,1.2556,-0.056649,-1.507673,0.106431,-0.83311,0.198693,-1.8675,0.227731,0.176174,0.920457,0.0,0.0,-0.030326,0.0,-0.2618,-0.010108,1.5,0.2,0.6,0.6,0.6,0.55,0.0,0.2,0.703636,0.576818,0.557727,0.3,
0.01,0.165261,0.327878,0.441613,-1.10982,1.2556,-0.056649,-1.507673,0.106441,-0.833192,0.198678,-1.8675,0.22772,0.176176,0.920472,0.0,0.0,-0.030326,0.0,-0.2618,-0.010108,1.5,0.2,0.6,0.6,0.6,0.55,0.0,0.2,0.702545,0.576273,0.557909,0.3,
0.01,0.165261,0.327878,0.441613,-1.10982,1.2556,-0.056649,-1.507673,0.10645,-0.833273,0.198663,-1.8675,0.227709,0.176177,0.920487,0.0,0.0,-0.030326,0.0,-0.2618,-0.010108,1.5,0.2,0.6,0.6,0.6,0.55,0.0,0.2,0.701455,0.575727,0.558091,0.3,
0.01,0.165261,0.327878,0.441613,-1.10982,1.2556,-0.056649,-1.507673,0.10646,-0.833355,0.198647,-1.8675,0.227698,0.176179,0.920502,0.0,0.0,-0.030326,0.0,-0.2618,-0.010108,1.5,0.2,0.6,0.6,0.6,0.55,0.0,0.2,0.700364,0.575182,0.558273,0.3,
0.01,0.165261,0.327878,0.441613,-1.10982,1.2556,-0.056649,-1.507673,0.106469,-0.833436,0.198633,-1.8675,0.227688,0.17618,0.920518,0.0,0.0,-0.030326,0.0,-0.2618,-0.010108,1.5,0.2,0.6,0.6,0.6,0.55,0.0,0.2,0.699273,0.574636,0.558455,0.3,
0.01,0.165261,0.327878,0.441613,-1.10982,1.2556,-0.056649,-1.507673,0.106478,-0.833518,0.198617,-1.8675,0.227676,0.176182,0.920533,0.0,0.0,-0.030326,0.0,-0.2618,-0.010108,1.5,0.2,0.6,0.6,0.6,0.55,0.0,0.2,0.698182,0.574091,0.558636,0.3,
0.01,0.165261,0.327878,0.441613,-1.10982,1.2556,-0.056649,-1.507673,0.106487,-0.833599,0.198602,-1.8675,0.227666,0.176183,0.920548,0.0,0.0,-0.030326,0.0,-0.2618,-0.010108,1.5,0.2,0.6,0.6,0.6,0.55,0.0,0.2,0.697091,0.573545,0.558818,0.3,
0.01,0.165261,0.327878,0.441613,-1.10982,1.2556,-0.056649,-1.507673,0.106497,-0.833681,0.198586,-1.8675,0.227655,0.176185,0.920564,0.0,0.0,-0.030326,0.0,-0.2618,-0.010108,1.5,0.2,0.6,0.6,0.6,0.55,0.0,0.2,0.696,0.573,0.559,0.3,
0.01,0.165261,0.327878,0.441613,-1.10982,1.2556,-0.056649,-1.507673,0.106506,-0.833762,0.198572,-1.8675,0.227644,0.176186,0.920579,0.0,0.0,-0.030326,0.0,-0.2618,-0.010108,1.5,0.2,0.6,0.6,0.6,0.55,0.0,0.2,0.694909,0.572455,0.559182,0.3,
0.01,0.165261,0.327878,0.441613,-1.10982,1.2556,-0.056649,-1.507673,0.106516,-0.833844,0.198557,-1.8675,0.227633,0.176188,0.920595,0.0,0.0,-0.030326,0.0,-0.2618,-0.010108,1.5,0.2,0.6,0.6,0.6,0.55,0.0,0.2,0.693818,0.571909,0.559364,0.3,
0.01,0.165261,0.327878,0.441613,-1.10982,1.2556,-0.056649,-1.507673,0.106525,-0.833925,0.198541,-1.8675,0.227623,0.176189,0.92061,0.0,0.0,-0.030326,0.0,-0.2618,-0.010108,1.5,0.2,0.6,0.6,0.6,0.55,0.0,0.2,0.692727,0.571364,0.559545,0.3,
0.01,0.165261,0.327878,0.441613,-1.10982,1.2556,-0.056649,-1.507673,0.106534,-0.834007,0.198526,-1.8675,0.227611,0.176191,0.920626,0.0,0.0,-0.030326,0.0,-0.2618,-0.010108,1.5,0.2,0.6,0.6,0.6,0.55,0.0,0.2,0.691636,0.570818,0.559727,0.3,
0.01,0.165261,0.327878,0.441613,-1.10982,1.2556,-0.056649,-1.507673,0.106544,-0.834088,0.19851,-1.8675,0.227601,0.176192,0.920641,0.0,0.0,-0.030326,0.0,-0.2618,-0.010108,1.5,0.2,0.6,0.6,0.6,0.55,0.0,0.2,0.690545,0.570273,0.559909,0.3,
0.01,0.165261,0.327878,0.441613,-1.10982,1.2556,-0.056649,-1.507673,0.106553,-0.83417,0.198496,-1.8675,0.227589,0.176193,0.920656,0.0,0.0,-0.030326,0.0,-0.2618,-0.010108,1.5,0.2,0.6,0.6,0.6,0.55,0.0,0.2,0.689455,0.569727,0.560091,0.3,
0.01,0.165261,0.327878,0.441613,-1.10982,1.2556,-0.056649,-1.507673,0.106562,-0.834251,0.198481,-1.8675,0.227579,0.176195,0.920671,0.0,0.0,-0.030326,0.0,-0.2618,-0.010108,1.5,0.2,0.6,0.6,0.6,0.55,0.0,0.2,0.688364,0.569182,0.560273,0.3,
0.01,0.165261,0.327878,0.441613,-1.10982,1.2556,-0.056649,-1.507673,0.106572,-0.834333,0.198465,-1.8675,0.227568,0.176196,0.920686,0.0,0.0,-0.030326,0.0,-0.2618,-0.010108,1.5,0.2,0.6,0.6,0.6,0.55,0.0,0.2,0.687273,0.568636,0.560455,0.3,
0.01,0.165261,0.327878,0.441613,-1.10982,1.2556,-0.056649,-1.507673,0.106581,-0.834414,0.198451,-1.8675,0.227557,0.176198,0.920701,0.0,0.0,-0.030326,0.0,-0.2618,-0.010108,1.5,0.2,0.6,0.6,0.6,0.55,0.0,0.2,0.686182,0.568091,0.560636,0.3,
0.01,0.165261,0.327878,0.441613,-1.10982,1.2556,-0.056649,-1.507673,0.106591,-0.834496,0.198436,-1.8675,0.227546,0.176199,0.920717,0.0,0.0,-0.030326,0.0,-0.2618,-0.010108,1.5,0.2,0.6,0.6,0.6,0.55,0.0,0.2,0.685091,0.567545,0.560818,0.3,
0.01,0.165261,0.327878,0.441613,-1.10982,1.2556,-0.056649,-1.507673,0.1066,-0.834577,0.19842,-1.8675,0.227535,0.176201,0.920732,0.0,0.0,-0.030326,0.0,-0.2618,-0.010108,1.5,0.2,0.6,0.6,0.6,0.55,0.0,0.2,0.684,0.567,0.561,0.3,
0.01,0.165261,0.327878,0.441613,-1.10982,1.2556,-0.056649,-1.507673,0.106609,-0.834659,0.198405,-1.8675,0.227524,0.176201,0.920747,0.0,0.0,-0.030326,0.0,-0.2618,-0.010108,1.5,0.2,0.6,0.6,0.6,0.55,0.0,0.2,0.682909,0.566455,0.561182,0.3,
0.01,0.165261,0.327878,0.441613,-1.10982,1.2556,-0.056649,-1.507673,0.106619,-0.83474,0.198391,-1.8675,0.227514,0.176203,0.920763,0.0,0.0,-0.030326,0.0,-0.2618,-0.010108,1.5,0.2,0.6,0.6,0.6,0.55,0.0,0.2,0.681818,0.565909,0.561364,0.3,
0.01,0.165261,0.327878,0.441613,-1.10982,1.2556,-0.056649,-1.507673,0.106628,-0.834821,0.198375,-1.8675,0.227503,0.176204,0.920778,0.0,0.0,-0.030326,0.0,-0.2618,-0.010108,1.5,0.2,0.6,0.6,0.6,0.55,0.0,0.2,0.680727,0.565364,0.561545,0.3,
0.01,0.165261,0.327878,0.441613,-1.10982,1.2556,-0.056649,-1.507673,0.106638,-0.834903,0.19836,-1.8675,0.227492,0.176205,0.920794,0.0,0.0,-0.030326,0.0,-0.2618,-0.010108,1.5,0.2,0.6,0.6,0.6,0.55,0.0,0.2,0.679636,0.564818,0.561727,0.3,
0.01,0.165261,0.327878,0.441613,-1.10982,1.2556,-0.056649,-1.507673,0.106647,-0.834985,0.198345,-1.8675,0.227481,0.176207,0.920808,0.0,0.0,-0.030326,0.0,-0.2618,-0.010108,1.5,0.2,0.6,0.6,0.6,0.55,0.0,0.2,0.678545,0.564273,0.561909,0.3,
0.01,0.165261,0.327878,0.441613,-1.10982,1.2556,-0.056649,-1.507673,0.106656,-0.835066,0.19833,-1.8675,0.22747,0.176208,0.920823,0.0,0.0,-0.030326,0.0,-0.2618,-0.010108,1.5,0.2,0.6,0.6,0.6,0.55,0.0,0.2,0.677455,0.563727,0.562091,0.3,
0.01,0.165261,0.327878,0.441613,-1.10982,1.2556,-0.056649,-1.507673,0.106666,-0.835148,0.198315,-1.8675,0.22746,0.176209,0.920839,0.0,0.0,-0.030326,0.0,-0.2618,-0.010108,1.5,0.2,0.6,0.6,0.6,0.55,0.0,0.2,0.676364,0.563182,0.562273,0.3,
0.01,0.165261,0.327878,0.441613,-1.10982,1.2556,-0.056649,-1.507673,0.106675,-0.835229,0.1983,-1.8675,0.227448,0.176211,0.920854,0.0,0.0,-0.030326,0.0,-0.2618,-0.010108,1.5,0.2,0.6,0.6,0.6,0.55,0.0,0.2,0.675273,0.562636,0.562455,0.3,
0.01,0.165261,0.327878,0.441613,-1.10982,1.2556,-0.056649,-1.507673,0.106685,-0.835311,0.198284,-1.8675,0.227438,0.176212,0.920869,0.0,0.0,-0.030326,0.0,-0.2618,-0.010108,1.5,0.2,0.6,0.6,0.6,0.55,0.0,0.2,0.674182,0.562091,0.562636,0.3,
0.01,0.165261,0.327878,0.441613,-1.10982,1.2556,-0.056649,-1.507673,0.106694,-0.835392,0.19827,-1.8675,0.227427,0.176213,0.920884,0.0,0.0,-0.030326,0.0,-0.2618,-0.010108,1.5,0.2,0.6,0.6,0.6,0.55,0.0,0.2,0.673091,0.561545,0.562818,0.3,
0.01,0.165261,0.327878,0.441613,-1.10982,1.2556,-0.056649,-1.507673,0.106703,-0.835474,0.198255,-1.8675,0.227416,0.176215,0.9209,0.0,0.0,-0.030326,0.0,-0.2618,-0.010108,1.5,0.2,0.6,0.6,0.6,0.55,0.0,0.2,0.672,0.561,0.563,0.3,
0.01,0.165261,0.327878,0.441613,-1.10982,1.2556,-0.056649,-1.507673,0.106713,-0.835555,0.198239,-1.8675,0.227405,0.176216,0.920915,0.0,0.0,-0.030326,0.0,-0.2618,-0.010108,1.5,0.2,0.6,0.6,0.6,0.55,0.0,0.2,0.670909,0.560455,0.563182,0.3,
0.01,0.165261,0.327878,0.441613,-1.10982,1.2556,-0.056649,-1.507673,0.106722,-0.835637,0.198224,-1.8675,0.227395,0.176217,0.920929,0.0,0.0,-0.030326,0.0,-0.2618,-0.010108,1.5,0.2,0.6,0.6,0.6,0.55,0.0,0.2,0.669818,0.559909,0.563364,0.3,
0.01,0.165261,0.327878,0.441613,-1.10982,1.2556,-0.056649,-1.507673,0.106732,-0.835718,0.19821,-1.8675,0.227384,0.176219,0.920945,0.0,0.0,-0.030326,0.0,-0.2618,-0.010108,1.5,0.2,0.6,0.6,0.6,0.55,0.0,0.2,0.668727,0.559364,0.563545,0.3,
0.01,0.165261,0.327878,0.441613,-1.10982,1.2556,-0.056649,-1.507673,0.106741,-0.8358,0.198194,-1.8675,0.227373,0.17622,0.92096,0.0,0.0,-0.030326,0.0,-0.2618,-0.010108,1.5,0.2,0.6,0.6,0.6,0.55,0.0,0.2,0.667636,0.558818,0.563727,0.3,
0.01,0.165261,0.327878,0.441613,-1.10982,1.2556,-0.056649,-1.507673,0.10675,-0.835881,0.198179,-1.8675,0.227362,0.176221,0.920975,0.0,0.0,-0.030326,0.0,-0.2618,-0.010108,1.5,0.2,0.6,0.6,0.6,0.55,0.0,0.2,0.666545,0.558273,0.563909,0.3,
0.01,0.165261,0.327878,0.441613,-1.10982,1.2556,-0.056649,-1.507673,0.106759,-0.835963,0.198164,-1.8675,0.227351,0.176223,0.920991,0.0,0.0,-0.030326,0.0,-0.2618,-0.010108,1.5,0.2,0.6,0.6,0.6,0.55,0.0,0.2,0.665455,0.557727,0.564091,0.3,
0.01,0.165261,0.327878,0.441613,-1.10982,1.2556,-0.056649,-1.507673,0.106768,-0.836043,0.19815,-1.8675,0.227341,0.176224,0.921006,0.0,0.0,-0.030326,0.0,-0.2618,-0.010108,1.5,0.2,0.6,0.6,0.6,0.55,0.0,0.2,0.664364,0.557182,0.564273,0.3,
0.01,0.165261,0.327878,0.441613,-1.10982,1.2556,-0.056649,-1.507673,0.106777,-0.836125,0.198134,-1.8675,0.22733,0.176225,0.921021,0.0,0.0,-0.030326,0.0,-0.2618,-0.010108,1.5,0.2,0.6,0.6,0.6,0.55,0.0,0.2,0.663273,0.556636,0.564455,0.3,
0.01,0.165261,0.327878,0.441613,-1.10982,1.2556,-0.056649,-1.507673,0.106787,-0.836206,0.198119,-1.8675,0.227319,0.176227,0.921036,0.0,0.0,-0.030326,0.0,-0.2618,-0.010108,1.5,0.2,0.6,0.6,0.6,0.55,0.0,0.2,0.662182,0.556091,0.564636,0.3,
0.01,0.165261,0.327878,0.441613,-1.10982,1.2556,-0.056649,-1.507673,0.106796,-0.836288,0.198105,-1.8675,0.227308,0.176228,0.921051,0.0,0.0,-0.030326,0.0,-0.2618,-0.010108,1.5,0.2,0.6,0.6,0.6,0.55,0.0,0.2,0.661091,0.555545,0.564818,0.3,
0.01,0.165261,0.327878,0.441613,-1.10982,1.2556,-0.056649,-1.507673,0.106805,-0.836369,0.19809,-1.8675,0.227298,0.176229,0.921066,0.0,0.0,-0.030326,0.0,-0.2618,-0.010108,1.5,0.2,0.6,0.6,0.6,0.55,0.0,0.2,0.66,0.555,0.565,0.3,
0.01,0.165261,0.327878,0.441613,-1.10982,1.2556,-0.056649,-1.507673,0.106815,-0.836451,0.198074,-1.8675,0.227286,0.17623,0.921081,0.0,0.0,-0.030326,0.0,-0.2618,-0.010108,1.5,0.2,0.6,0.6,0.6,0.55,0.0,0.2,0.658909,0.554455,0.565182,0.3,
0.01,0.165261,0.327878,0.441613,-1.10982,1.2556,-0.056649,-1.507673,0.106825,-0.836532,0.19806,-1.8675,0.227276,0.176232,0.921096,0.0,0.0,-0.030326,0.0,-0.2618,-0.010108,1.5,0.2,0.6,0.6,0.6,0.55,0.0,0.2,0.657818,0.553909,0.565364,0.3,
0.01,0.165261,0.327878,0.441613,-1.10982,1.2556,-0.056649,-1.507673,0.106834,-0.836614,0.198045,-1.8675,0.227265,0.176233,0.921112,0.0,0.0,-0.030326,0.0,-0.2618,-0.010108,1.5,0.2,0.6,0.6,0.6,0.55,0.0,0.2,0.656727,0.553364,0.565545,0.3,
0.01,0.165261,0.327878,0.441613,-1.10982,1.2556,-0.056649,-1.507673,0.106843,-0.836696,0.19803,-1.8675,0.227255,0.176234,0.921127,0.0,0.0,-0.030326,0.0,-0.2618,-0.010108,1.5,0.2,0.6,0.6,0.6,0.55,0.0,0.2,0.655636,0.552818,0.565727,0.3,
0.01,0.165261,0.327878,0.441613,-1.10982,1.2556,-0.056649,-1.507673,0.106853,-0.836777,0.198014,-1.8675,0.227244,0.176236,0.921142,0.0,0.0,-0.030326,0.0,-0.2618,-0.010108,1.5,0.2,0.6,0.6,0.6,0.55,0.0,0.2,0.654545,0.552273,0.565909,0.3,
0.01,0.165261,0.327878,0.441613,-1.10982,1.2556,-0.056649,-1.507673,0.106862,-0.836859,0.198,-1.8675,0.227233,0.176237,0.921156,0.0,0.0,-0.030326,0.0,-0.2618,-0.010108,1.5,0.2,0.6,0.6,0.6,0.55,0.0,0.2,0.653455,0.551727,0.566091,0.3,
0.01,0.165261,0.327878,0.441613,-1.10982,1.2556,-0.056649,-1.507673,0.106871,-0.836939,0.197985,-1.8675,0.227222,0.176238,0.921172,0.0,0.0,-0.030326,0.0,-0.2618,-0.010108,1.5,0.2,0.6,0.6,0.6,0.55,0.0,0.2,0.652364,0.551182,0.566273,0.3,
0.01,0.165261,0.327878,0.441613,-1.10982,1.2556,-0.056649,-1.507673,0.106881,-0.837021,0.197971,-1.8675,0.227212,0.176239,0.921187,0.0,0.0,-0.030326,0.0,-0.2618,-0.010108,1.5,0.2,0.6,0.6,0.6,0.55,0.0,0.2,0.651273,0.550636,0.566455,0.3,
0.01,0.165261,0.327878,0.441613,-1.10982,1.2556,-0.056649,-1.507673,0.10689,-0.837102,0.197955,-1.8675,0.227201,0.176241,0.921202,0.0,0.0,-0.030326,0.0,-0.2618,-0.010108,1.5,0.2,0.6,0.6,0.6,0.55,0.0,0.2,0.650182,0.550091,0.566636,0.3,
0.01,0.165261,0.327878,0.441613,-1.10982,1.2556,-0.056649,-1.507673,0.1069,-0.837184,0.19794,-1.8675,0.227191,0.176242,0.921217,0.0,0.0,-0.030326,0.0,-0.2618,-0.010108,1.5,0.2,0.6,0.6,0.6,0.55,0.0,0.2,0.649091,0.549545,0.566818,0.3,
0.01,0.165261,0.327878,0.441613,-1.10982,1.2556,-0.056649,-1.507673,0.106909,-0.837265,0.197925,-1.8675,0.227179,0.176243,0.921232,0.0,0.0,-0.030326,0.0,-0.2618,-0.010108,1.5,0.2,0.6,0.6,0.6,0.55,0.0,0.2,0.648,0.549,0.567,0.3,
0.01,0.165261,0.327878,0.441613,-1.10982,1.2556,-0.056649,-1.507673,0.106919,-0.837347,0.197911,-1.8675,0.227169,0.176244,0.921247,0.0,0.0,-0.030326,0.0,-0.2618,-0.010108,1.5,0.2,0.6,0.6,0.6,0.55,0.0,0.2,0.646909,0.548455,0.567182,0.3,
0.01,0.165261,0.327878,0.441613,-1.10982,1.2556,-0.056649,-1.507673,0.106928,-0.837429,0.197896,-1.8675,0.227158,0.176246,0.921262,0.0,0.0,-0.030326,0.0,-0.2618,-0.010108,1.5,0.2,0.6,0.6,0.6,0.55,0.0,0.2,0.645818,0.547909,0.567364,0.3,
0.01,0.165261,0.327878,0.441613,-1.10982,1.2556,-0.056649,-1.507673,0.106938,-0.83751,0.19788,-1.8675,0.227147,0.176247,0.921277,0.0,0.0,-0.030326,0.0,-0.2618,-0.010108,1.5,0.2,0.6,0.6,0.6,0.55,0.0,0.2,0.644727,0.547364,0.567545,0.3,
0.01,0.165261,0.327878,0.441613,-1.10982,1.2556,-0.056649,-1.507673,0.106947,-0.837592,0.197866,-1.8675,0.227137,0.176248,0.921292,0.0,0.0,-0.030326,0.0,-0.2618,-0.010108,1.5,0.2,0.6,0.6,0.6,0.55,0.0,0.2,0.643636,0.546818,0.567727,0.3,
0.01,0.165261,0.327878,0.441613,-1.10982,1.2556,-0.056649,-1.507673,0.106956,-0.837672,0.197851,-1.8675,0.227127,0.176249,0.921307,0.0,0.0,-0.030326,0.0,-0.2618,-0.010108,1.5,0.2,0.6,0.6,0.6,0.55,0.0,0.2,0.642545,0.546273,0.567909,0.3,
0.01,0.165261,0.327878,0.441613,-1.10982,1.2556,-0.056649,-1.507673,0.106966,-0.837754,0.197836,-1.8675,0.227115,0.17625,0.921323,0.0,0.0,-0.030326,0.0,-0.2618,-0.010108,1.5,0.2,0.6,0.6,0.6,0.55,0.0,0.2,0.641455,0.545727,0.568091,0.3,
0.01,0.165261,0.327878,0.441613,-1.10982,1.2556,-0.056649,-1.507673,0.106975,-0.837835,0.197822,-1.8675,0.227104,0.176252,0.921337,0.0,0.0,-0.030326,0.0,-0.2618,-0.010108,1.5,0.2,0.6,0.6,0.6,0.55,0.0,0.2,0.640364,0.545182,0.568273,0.3,
0.01,0.165261,0.327878,0.441613,-1.10982,1.2556,-0.056649,-1.507673,0.106985,-0.837917,0.197806,-1.8675,0.227094,0.176253,0.921352,0.0,0.0,-0.030326,0.0,-0.2618,-0.010108,1.5,0.2,0.6,0.6,0.6,0.55,0.0,0.2,0.639273,0.544636,0.568455,0.3,
0.01,0.165261,0.327878,0.441613,-1.10982,1.2556,-0.056649,-1.507673,0.106994,-0.837998,0.197791,-1.8675,0.227083,0.176254,0.921367,0.0,0.0,-0.030326,0.0,-0.2618,-0.010108,1.5,0.2,0.6,0.6,0.6,0.55,0.0,0.2,0.638182,0.544091,0.568636,0.3,
0.01,0.165261,0.327878,0.441613,-1.10982,1.2556,-0.056649,-1.507673,0.107003,-0.83808,0.197777,-1.8675,0.227073,0.176255,0.921382,0.0,0.0,-0.030326,0.0,-0.2618,-0.010108,1.5,0.2,0.6,0.6,0.6,0.55,0.0,0.2,0.637091,0.543545,0.568818,0.3,
0.01,0.165261,0.327878,0.441613,-1.10982,1.2556,-0.056649,-1.507673,0.107013,-0.838161,0.197762,-1.8675,0.227062,0.176256,0.921397,0.0,0.0,-0.030326,0.0,-0.2618,-0.010108,1.5,0.2,0.6,0.6,0.6,0.55,0.0,0.2,0.636,0.543,0.569,0.3,
0.01,0.165261,0.327878,0.441613,-1.10982,1.2556,-0.056649,-1.507673,0.107022,-0.838242,0.197748,-1.8675,0.227052,0.176257,0.921412,0.0,0.0,-0.030326,0.0,-0.2618,-0.010108,1.5,0.2,0.6,0.6,0.6,0.55,0.0,0.2,0.634909,0.542455,0.569182,0.3,
0.01,0.165261,0.327878,0.441613,-1.10982,1.2556,-0.056649,-1.507673,0.107032,-0.838324,0.197733,-1.8675,0.22704,0.176259,0.921427,0.0,0.0,-0.030326,0.0,-0.2618,-0.010108,1.5,0.2,0.6,0.6,0.6,0.55,0.0,0.2,0.633818,0.541909,0.569364,0.3,
0.01,0.165261,0.327878,0.441613,-1.10982,1.2556,-0.056649,-1.507673,0.107041,-0.838405,0.197718,-1.8675,0.22703,0.17626,0.921442,0.0,0.0,-0.030326,0.0,-0.2618,-0.010108,1.5,0.2,0.6,0.6,0.6,0.55,0.0,0.2,0.632727,0.541364,0.569545,0.3,
0.01,0.165261,0.327878,0.441613,-1.10982,1.2556,-0.056649,-1.507673,0.107051,-0.838487,0.197702,-1.8675,0.227019,0.176261,0.921457,0.0,0.0,-0.030326,0.0,-0.2618,-0.010108,1.5,0.2,0.6,0.6,0.6,0.55,0.0,0.2,0.631636,0.540818,0.569727,0.3,
0.01,0.165261,0.327878,0.441613,-1.10982,1.2556,-0.056649,-1.507673,0.10706,-0.838568,0.197688,-1.8675,0.227008,0.176262,0.921472,0.0,0.0,-0.030326,0.0,-0.2618,-0.010108,1.5,0.2,0.6,0.6,0.6,0.55,0.0,0.2,0.630545,0.540273,0.569909,0.3,
0.01,0.165261,0.327878,0.441613,-1.10982,1.2556,-0.056649,-1.507673,0.107069,-0.838649,0.197673,-1.8675,0.226998,0.176263,0.921486,0.0,0.0,-0.030326,0.0,-0.2618,-0.010108,1.5,0.2,0.6,0.6,0.6,0.55,0.0,0.2,0.629455,0.539727,0.570091,0.3,
0.01,0.165261,0.327878,0.441613,-1.10982,1.2556,-0.056649,-1.507673,0.107079,-0.838731,0.197659,-1.8675,0.226988,0.176264,0.921501,0.0,0.0,-0.030326,0.0,-0.2618,-0.010108,1.5,0.2,0.6,0.6,0.6,0.55,0.0,0.2,0.628364,0.539182,0.570273,0.3,
0.01,0.165261,0.327878,0.441613,-1.10982,1.2556,-0.056649,-1.507673,0.107088,-0.838812,0.197644,-1.8675,0.226977,0.176265,0.921517,0.0,0.0,-0.030326,0.0,-0.2618,-0.010108,1.5,0.2,0.6,0.6,0.6,0.55,0.0,0.2,0.627273,0.538636,0.570455,0.3,
0.01,0.165261,0.327878,0.441613,-1.10982,1.2556,-0.056649,-1.507673,0.107098,-0.838894,0.197629,-1.8675,0.226966,0.176267,0.921532,0.0,0.0,-0.030326,0.0,-0.2618,-0.010108,1.5,0.2,0.6,0.6,0.6,0.55,0.0,0.2,0.626182,0.538091,0.570636,0.3,
0.01,0.165261,0.327878,0.441613,-1.10982,1.2556,-0.056649,-1.507673,0.107107,-0.838975,0.197615,-1.8675,0.226955,0.176268,0.921547,0.0,0.0,-0.030326,0.0,-0.2618,-0.010108,1.5,0.2,0.6,0.6,0.6,0.55,0.0,0.2,0.625091,0.537545,0.570818,0.3,
0.01,0.165261,0.327878,0.441613,-1.10982,1.2556,-0.056649,-1.507673,0.107117,-0.839057,0.1976,-1.8675,0.226944,0.176269,0.921561,0.0,0.0,-0.030326,0.0,-0.2618,-0.010108,1.5,0.2,0.6,0.6,0.6,0.55,0.0,0.2,0.624,0.537,0.571,0.3,
0.01,0.165261,0.327878,0.441613,-1.10982,1.2556,-0.056649,-1.507673,0.107126,-0.839137,0.197584,-1.8675,0.226934,0.17627,0.921576,0.0,0.0,-0.030326,0.0,-0.2618,-0.010108,1.5,0.2,0.6,0.6,0.6,0.55,0.0,0.2,0.622909,0.536455,0.571182,0.3,
0.01,0.165261,0.327878,0.441613,-1.10982,1.2556,-0.056649,-1.507673,0.107136,-0.839219,0.19757,-1.8675,0.226923,0.176271,0.921591,0.0,0.0,-0.030326,0.0,-0.2618,-0.010108,1.5,0.2,0.6,0.6,0.6,0.55,0.0,0.2,0.621818,0.535909,0.571364,0.3,
0.01,0.165261,0.327878,0.441613,-1.10982,1.2556,-0.056649,-1.507673,0.107145,-0.839301,0.197555,-1.8675,0.226913,0.176272,0.921606,0.0,0.0,-0.030326,0.0,-0.2618,-0.010108,1.5,0.2,0.6,0.6,0.6,0.55,0.0,0.2,0.620727,0.535364,0.571545,0.3,
0.01,0.165261,0.327878,0.441613,-1.10982,1.2556,-0.056649,-1.507673,0.107155,-0.839382,0.19754,-1.8675,0.226902,0.176273,0.92162,0.0,0.0,-0.030326,0.0,-0.2618,-0.010108,1.5,0.2,0.6,0.6,0.6,0.55,0.0,0.2,0.619636,0.534818,0.571727,0.3,
0.01,0.165261,0.327878,0.441613,-1.10982,1.2556,-0.056649,-1.507673,0.107164,-0.839463,0.197526,-1.8675,0.226892,0.176274,0.921635,0.0,0.0,-0.030326,0.0,-0.2618,-0.010108,1.5,0.2,0.6,0.6,0.6,0.55,0.0,0.2,0.618545,0.534273,0.571909,0.3,
0.01,0.165261,0.327878,0.441613,-1.10982,1.2556,-0.056649,-1.507673,0.107173,-0.839545,0.197511,-1.8675,0.226881,0.176275,0.92165,0.0,0.0,-0.030326,0.0,-0.2618,-0.010108,1.5,0.2,0.6,0.6,0.6,0.55,0.0,0.2,0.617455,0.533727,0.572091,0.3,
0.01,0.165261,0.327878,0.441613,-1.10982,1.2556,-0.056649,-1.507673,0.107183,-0.839626,0.197497,-1.8675,0.226871,0.176276,0.921666,0.0,0.0,-0.030326,0.0,-0.2618,-0.010108,1.5,0.2,0.6,0.6,0.6,0.55,0.0,0.2,0.616364,0.533182,0.572273,0.3,
0.01,0.165261,0.327878,0.441613,-1.10982,1.2556,-0.056649,-1.507673,0.107192,-0.839708,0.197482,-1.8675,0.22686,0.176278,0.921681,0.0,0.0,-0.030326,0.0,-0.2618,-0.010108,1.5,0.2,0.6,0.6,0.6,0.55,0.0,0.2,0.615273,0.532636,0.572455,0.3,
0.01,0.165261,0.327878,0.441613,-1.10982,1.2556,-0.056649,-1.507673,0.107202,-0.839789,0.197467,-1.8675,0.226849,0.176279,0.921695,0.0,0.0,-0.030326,0.0,-0.2618,-0.010108,1.5,0.2,0.6,0.6,0.6,0.55,0.0,0.2,0.614182,0.532091,0.572636,0.3,
0.01,0.165261,0.327878,0.441613,-1.10982,1.2556,-0.056649,-1.507673,0.107211,-0.83987,0.197453,-1.8675,0.226839,0.17628,0.92171,0.0,0.0,-0.030326,0.0,-0.2618,-0.010108,1.5,0.2,0.6,0.6,0.6,0.55,0.0,0.2,0.613091,0.531545,0.572818,0.3,
0.01,0.165261,0.327878,0.441613,-1.10982,1.2556,-0.056649,-1.507673,0.10722,-0.839952,0.197438,-1.8675,0.226828,0.176282,0.921725,0.0,0.0,-0.030326,0.0,-0.2618,-0.010108,1.5,0.2,0.6,0.6,0.6,0.55,0.0,0.2,0.612,0.531,0.573,0.3,
0.01,0.165261,0.327878,0.441613,-1.10982,1.2556,-0.056649,-1.507673,0.10723,-0.840033,0.197424,-1.8675,0.226818,0.176283,0.92174,0.0,0.0,-0.030326,0.0,-0.2618,-0.010108,1.5,0.2,0.6,0.6,0.6,0.55,0.0,0.2,0.610909,0.530455,0.573182,0.3,
0.01,0.165261,0.327878,0.441613,-1.10982,1.2556,-0.056649,-1.507673,0.107239,-0.840115,0.197409,-1.8675,0.226807,0.176284,0.921754,0.0,0.0,-0.030326,0.0,-0.2618,-0.010108,1.5,0.2,0.6,0.6,0.6,0.55,0.0,0.2,0.609818,0.529909,0.573364,0.3,
0.01,0.165261,0.327878,0.441613,-1.10982,1.2556,-0.056649,-1.507673,0.107249,-0.840195,0.197394,-1.8675,0.226796,0.176285,0.921769,0.0,0.0,-0.030326,0.0,-0.2618,-0.010108,1.5,0.2,0.6,0.6,0.6,0.55,0.0,0.2,0.608727,0.529364,0.573545,0.3,
0.01,0.165261,0.327878,0.441613,-1.10982,1.2556,-0.056649,-1.507673,0.107258,-0.840277,0.19738,-1.8675,0.226785,0.176286,0.921784,0.0,0.0,-0.030326,0.0,-0.2618,-0.010108,1.5,0.2,0.6,0.6,0.6,0.55,0.0,0.2,0.607636,0.528818,0.573727,0.3,
0.01,0.165261,0.327878,0.441613,-1.10982,1.2556,-0.056649,-1.507673,0.107268,-0.840359,0.197364,-1.8675,0.226775,0.176287,0.921799,0.0,0.0,-0.030326,0.0,-0.2618,-0.010108,1.5,0.2,0.6,0.6,0.6,0.55,0.0,0.2,0.606545,0.528273,0.573909,0.3,
0.01,0.165261,0.327878,0.441613,-1.10982,1.2556,-0.056649,-1.507673,0.107277,-0.84044,0.197349,-1.8675,0.226764,0.176288,0.921814,0.0,0.0,-0.030326,0.0,-0.2618,-0.010108,1.5,0.2,0.6,0.6,0.6,0.55,0.0,0.2,0.605455,0.527727,0.574091,0.3,
0.01,0.165261,0.327878,0.441613,-1.10982,1.2556,-0.056649,-1.507673,0.107287,-0.840521,0.197335,-1.8675,0.226754,0.176289,0.921828,0.0,0.0,-0.030326,0.0,-0.2618,-0.010108,1.5,0.2,0.6,0.6,0.6,0.55,0.0,0.2,0.604364,0.527182,0.574273,0.3,
0.01,0.165261,0.327878,0.441613,-1.10982,1.2556,-0.056649,-1.507673,0.107296,-0.840603,0.19732,-1.8675,0.226743,0.17629,0.921843,0.0,0.0,-0.030326,0.0,-0.2618,-0.010108,1.5,0.2,0.6,0.6,0.6,0.55,0.0,0.2,0.603273,0.526636,0.574455,0.3,
0.01,0.165261,0.327878,0.441613,-1.10982,1.2556,-0.056649,-1.507673,0.107306,-0.840684,0.197305,-1.8675,0.226732,0.176291,0.921858,0.0,0.0,-0.030326,0.0,-0.2618,-0.010108,1.5,0.2,0.6,0.6,0.6,0.55,0.0,0.2,0.602182,0.526091,0.574636,0.3,
0.01,0.165261,0.327878,0.441613,-1.10982,1.2556,-0.056649,-1.507673,0.107315,-0.840766,0.197291,-1.8675,0.226722,0.176292,0.921872,0.0,0.0,-0.030326,0.0,-0.2618,-0.010108,1.5,0.2,0.6,0.6,0.6,0.55,0.0,0.2,0.601091,0.525545,0.574818,0.3,
0.01,0.165261,0.327878,0.441613,-1.10982,1.2556,-0.056649,-1.507673,0.107325,-0.840846,0.197276,-1.8675,0.226711,0.176293,0.921887,0.0,0.0,-0.030326,0.0,-0.2618,-0.010108,1.5,0.2,0.6,0.6,0.6,0.55,0.0,0.2,0.6,0.525,0.575,0.3,
0.01,0.165261,0.327878,0.441613,-1.10982,1.2556,-0.056649,-1.507673,0.107334,-0.840928,0.197262,-1.8675,0.226701,0.176294,0.921902,0.0,0.0,-0.030326,0.0,-0.2618,-0.010108,1.5,0.2,0.6,0.6,0.6,0.55,0.0,0.2,0.598909,0.524455,0.575182,0.3,
0.01,0.165261,0.327878,0.441613,-1.10982,1.2556,-0.056649,-1.507673,0.107344,-0.84101,0.197247,-1.8675,0.22669,0.176295,0.921917,0.0,0.0,-0.030326,0.0,-0.2618,-0.010108,1.5,0.2,0.6,0.6,0.6,0.55,0.0,0.2,0.597818,0.523909,0.575364,0.3,
0.01,0.165261,0.327878,0.441613,-1.10982,1.2556,-0.056649,-1.507673,0.107353,-0.841091,0.197232,-1.8675,0.22668,0.176296,0.921931,0.0,0.0,-0.030326,0.0,-0.2618,-0.010108,1.5,0.2,0.6,0.6,0.6,0.55,0.0,0.2,0.596727,0.523364,0.575545,0.3,
0.01,0.165261,0.327878,0.441613,-1.10982,1.2556,-0.056649,-1.507673,0.107362,-0.841172,0.197218,-1.8675,0.226669,0.176297,0.921946,0.0,0.0,-0.030326,0.0,-0.2618,-0.010108,1.5,0.2,0.6,0.6,0.6,0.55,0.0,0.2,0.595636,0.522818,0.575727,0.3,
0.01,0.165261,0.327878,0.441613,-1.10982,1.2556,-0.056649,-1.507673,0.107372,-0.841254,0.197203,-1.8675,0.226659,0.176298,0.921961,0.0,0.0,-0.030326,0.0,-0.2618,-0.010108,1.5,0.2,0.6,0.6,0.6,0.55,0.0,0.2,0.594545,0.522273,0.575909,0.3,
0.01,0.165261,0.327878,0.441613,-1.10982,1.2556,-0.056649,-1.507673,0.107381,-0.841335,0.197189,-1.8675,0.226648,0.176299,0.921976,0.0,0.0,-0.030326,0.0,-0.2618,-0.010108,1.5,0.2,0.6,0.6,0.6,0.55,0.0,0.2,0.593455,0.521727,0.576091,0.3,
0.01,0.165261,0.327878,0.441613,-1.10982,1.2556,-0.056649,-1.507673,0.107391,-0.841416,0.197174,-1.8675,0.226638,0.1763,0.921991,0.0,0.0,-0.030326,0.0,-0.2618,-0.010108,1.5,0.2,0.6,0.6,0.6,0.55,0.0,0.2,0.592364,0.521182,0.576273,0.3,
0.01,0.165261,0.327878,0.441613,-1.10982,1.2556,-0.056649,-1.507673,0.1074,-0.841498,0.19716,-1.8675,0.226627,0.176301,0.922005,0.0,0.0,-0.030326,0.0,-0.2618,-0.010108,1.5,0.2,0.6,0.6,0.6,0.55,0.0,0.2,0.591273,0.520636,0.576455,0.3,
0.01,0.165261,0.327878,0.441613,-1.10982,1.2556,-0.056649,-1.507673,0.10741,-0.841579,0.197146,-1.8675,0.226617,0.176302,0.92202,0.0,0.0,-0.030326,0.0,-0.2618,-0.010108,1.5,0.2,0.6,0.6,0.6,0.55,0.0,0.2,0.590182,0.520091,0.576636,0.3,
0.01,0.165261,0.327878,0.441613,-1.10982,1.2556,-0.056649,-1.507673,0.107419,-0.84166,0.197132,-1.8675,0.226607,0.176303,0.922035,0.0,0.0,-0.030326,0.0,-0.2618,-0.010108,1.5,0.2,0.6,0.6,0.6,0.55,0.0,0.2,0.589091,0.519545,0.576818,0.3,
0.01,0.165261,0.327878,0.441613,-1.10982,1.2556,-0.056649,-1.507673,0.107429,-0.841742,0.197117,-1.8675,0.226596,0.176304,0.922049,0.0,0.0,-0.030326,0.0,-0.2618,-0.010108,1.5,0.2,0.6,0.6,0.6,0.55,0.0,0.2,0.588,0.519,0.577,0.3,
0.01,0.165261,0.327878,0.441613,-1.10982,1.2556,-0.056649,-1.507673,0.107438,-0.841823,0.197102,-1.8675,0.226586,0.176305,0.922064,0.0,0.0,-0.030326,0.0,-0.2618,-0.010108,1.5,0.2,0.6,0.6,0.6,0.55,0.0,0.2,0.586909,0.518455,0.577182,0.3,
0.01,0.165261,0.327878,0.441613,-1.10982,1.2556,-0.056649,-1.507673,0.107448,-0.841904,0.197088,-1.8675,0.226575,0.176306,0.922079,0.0,0.0,-0.030326,0.0,-0.2618,-0.010108,1.5,0.2,0.6,0.6,0.6,0.55,0.0,0.2,0.585818,0.517909,0.577364,0.3,
0.01,0.165261,0.327878,0.441613,-1.10982,1.2556,-0.056649,-1.507673,0.107457,-0.841986,0.197073,-1.8675,0.226565,0.176307,0.922093,0.0,0.0,-0.030326,0.0,-0.2618,-0.010108,1.5,0.2,0.6,0.6,0.6,0.55,0.0,0.2,0.584727,0.517364,0.577545,0.3,
0.01,0.165261,0.327878,0.441613,-1.10982,1.2556,-0.056649,-1.507673,0.107467,-0.842067,0.197059,-1.8675,0.226554,0.176308,0.922108,0.0,0.0,-0.030326,0.0,-0.2618,-0.010108,1.5,0.2,0.6,0.6,0.6,0.55,0.0,0.2,0.583636,0.516818,0.577727,0.3,
0.01,0.165261,0.327878,0.441613,-1.10982,1.2556,-0.056649,-1.507673,0.107476,-0.842149,0.197044,-1.8675,0.226544,0.176309,0.922122,0.0,0.0,-0.030326,0.0,-0.2618,-0.010108,1.5,0.2,0.6,0.6,0.6,0.55,0.0,0.2,0.582545,0.516273,0.577909,0.3,
0.01,0.165261,0.327878,0.441613,-1.10982,1.2556,-0.056649,-1.507673,0.107486,-0.84223,0.19703,-1.8675,0.226533,0.17631,0.922137,0.0,0.0,-0.030326,0.0,-0.2618,-0.010108,1.5,0.2,0.6,0.6,0.6,0.55,0.0,0.2,0.581455,0.515727,0.578091,0.3,
0.01,0.165261,0.327878,0.441613,-1.10982,1.2556,-0.056649,-1.507673,0.107495,-0.842311,0.197015,-1.8675,0.226522,0.176311,0.922151,0.0,0.0,-0.030326,0.0,-0.2618,-0.010108,1.5,0.2,0.6,0.6,0.6,0.55,0.0,0.2,0.580364,0.515182,0.578273,0.3,
0.01,0.165261,0.327878,0.441613,-1.10982,1.2556,-0.056649,-1.507673,0.107505,-0.842393,0.197,-1.8675,0.226512,0.176312,0.922166,0.0,0.0,-0.030326,0.0,-0.2618,-0.010108,1.5,0.2,0.6,0.6,0.6,0.55,0.0,0.2,0.579273,0.514636,0.578455,0.3,
0.01,0.165261,0.327878,0.441613,-1.10982,1.2556,-0.056649,-1.507673,0.107514,-0.842473,0.196986,-1.8675,0.226501,0.176313,0.922181,0.0,0.0,-0.030326,0.0,-0.2618,-0.010108,1.5,0.2,0.6,0.6,0.6,0.55,0.0,0.2,0.578182,0.514091,0.578636,0.3,
0.01,0.165261,0.327878,0.441613,-1.10982,1.2556,-0.056649,-1.507673,0.107523,-0.842555,0.196971,-1.8675,0.226491,0.176314,0.922195,0.0,0.0,-0.030326,0.0,-0.2618,-0.010108,1.5,0.2,0.6,0.6,0.6,0.55,0.0,0.2,0.577091,0.513545,0.578818,0.3,
0.01,0.165261,0.327878,0.441613,-1.10982,1.2556,-0.056649,-1.507673,0.107533,-0.842637,0.196957,-1.8675,0.22648,0.176315,0.92221,0.0,0.0,-0.030326,0.0,-0.2618,-0.010108,1.5,0.2,0.6,0.6,0.6,0.55,0.0,0.2,0.576,0.513,0.579,0.3,
0.01,0.165261,0.327878,0.441613,-1.10982,1.2556,-0.056649,-1.507673,0.107543,-0.842718,0.196943,-1.8675,0.22647,0.176316,0.922225,0.0,0.0,-0.030326,0.0,-0.2618,-0.010108,1.5,0.2,0.6,0.6,0.6,0.55,0.0,0.2,0.574909,0.512455,0.579182,0.3,
0.01,0.165261,0.327878,0.441613,-1.10982,1.2556,-0.056649,-1.507673,0.107552,-0.842799,0.196929,-1.8675,0.22646,0.176316,0.922239,0.0,0.0,-0.030326,0.0,-0.2618,-0.010108,1.5,0.2,0.6,0.6,0.6,0.55,0.0,0.2,0.573818,0.511909,0.579364,0.3,
0.01,0.165261,0.327878,0.441613,-1.10982,1.2556,-0.056649,-1.507673,0.107561,-0.84288,0.196914,-1.8675,0.22645,0.176317,0.922254,0.0,0.0,-0.030326,0.0,-0.2618,-0.010108,1.5,0.2,0.6,0.6,0.6,0.55,0.0,0.2,0.572727,0.511364,0.579545,0.3,
0.01,0.165261,0.327878,0.441613,-1.10982,1.2556,-0.056649,-1.507673,0.107571,-0.842962,0.1969,-1.8675,0.226439,0.176318,0.922269,0.0,0.0,-0.030326,0.0,-0.2618,-0.010108,1.5,0.2,0.6,0.6,0.6,0.55,0.0,0.2,0.571636,0.510818,0.579727,0.3,
0.01,0.165261,0.327878,0.441613,-1.10982,1.2556,-0.056649,-1.507673,0.10758,-0.843043,0.196885,-1.8675,0.226429,0.176319,0.922283,0.0,0.0,-0.030326,0.0,-0.2618,-0.010108,1.5,0.2,0.6,0.6,0.6,0.55,0.0,0.2,0.570545,0.510273,0.579909,0.3,
0.01,0.165261,0.327878,0.441613,-1.10982,1.2556,-0.056649,-1.507673,0.10759,-0.843124,0.196871,-1.8675,0.226418,0.17632,0.922297,0.0,0.0,-0.030326,0.0,-0.2618,-0.010108,1.5,0.2,0.6,0.6,0.6,0.55,0.0,0.2,0.569455,0.509727,0.580091,0.3,
0.01,0.165261,0.327878,0.441613,-1.10982,1.2556,-0.056649,-1.507673,0.107599,-0.843206,0.196856,-1.8675,0.226407,0.176321,0.922312,0.0,0.0,-0.030326,0.0,-0.2618,-0.010108,1.5,0.2,0.6,0.6,0.6,0.55,0.0,0.2,0.568364,0.509182,0.580273,0.3,
0.01,0.165261,0.327878,0.441613,-1.10982,1.2556,-0.056649,-1.507673,0.107609,-0.843287,0.196841,-1.8675,0.226397,0.176322,0.922327,0.0,0.0,-0.030326,0.0,-0.2618,-0.010108,1.5,0.2,0.6,0.6,0.6,0.55,0.0,0.2,0.567273,0.508636,0.580455,0.3,
0.01,0.165261,0.327878,0.441613,-1.10982,1.2556,-0.056649,-1.507673,0.107618,-0.843368,0.196827,-1.8675,0.226386,0.176323,0.922341,0.0,0.0,-0.030326,0.0,-0.2618,-0.010108,1.5,0.2,0.6,0.6,0.6,0.55,0.0,0.2,0.566182,0.508091,0.580636,0.3,
0.01,0.165261,0.327878,0.441613,-1.10982,1.2556,-0.056649,-1.507673,0.107628,-0.84345,0.196813,-1.8675,0.226377,0.176324,0.922356,0.0,0.0,-0.030326,0.0,-0.2618,-0.010108,1.5,0.2,0.6,0.6,0.6,0.55,0.0,0.2,0.565091,0.507545,0.580818,0.3,
0.01,0.165261,0.327878,0.441613,-1.10982,1.2556,-0.056649,-1.507673,0.107637,-0.84353,0.196799,-1.8675,0.226366,0.176325,0.922371,0.0,0.0,-0.030326,0.0,-0.2618,-0.010108,1.5,0.2,0.6,0.6,0.6,0.55,0.0,0.2,0.564,0.507,0.581,0.3,
0.01,0.165261,0.327878,0.441613,-1.10982,1.2556,-0.056649,-1.507673,0.107647,-0.843612,0.196784,-1.8675,0.226356,0.176326,0.922384,0.0,0.0,-0.030326,0.0,-0.2618,-0.010108,1.5,0.2,0.6,0.6,0.6,0.55,0.0,0.2,0.562909,0.506455,0.581182,0.3,
0.01,0.165261,0.327878,0.441613,-1.10982,1.2556,-0.056649,-1.507673,0.107657,-0.843694,0.19677,-1.8675,0.226345,0.176327,0.922399,0.0,0.0,-0.030326,0.0,-0.2618,-0.010108,1.5,0.2,0.6,0.6,0.6,0.55,0.0,0.2,0.561818,0.505909,0.581364,0.3,
0.01,0.165261,0.327878,0.441613,-1.10982,1.2556,-0.056649,-1.507673,0.107666,-0.843774,0.196755,-1.8675,0.226335,0.176327,0.922414,0.0,0.0,-0.030326,0.0,-0.2618,-0.010108,1.5,0.2,0.6,0.6,0.6,0.55,0.0,0.2,0.560727,0.505364,0.581545,0.3,
0.01,0.165261,0.327878,0.441613,-1.10982,1.2556,-0.056649,-1.507673,0.107675,-0.843856,0.196741,-1.8675,0.226324,0.176328,0.922428,0.0,0.0,-0.030326,0.0,-0.2618,-0.010108,1.5,0.2,0.6,0.6,0.6,0.55,0.0,0.2,0.559636,0.504818,0.581727,0.3,
0.01,0.165261,0.327878,0.441613,-1.10982,1.2556,-0.056649,-1.507673,0.107685,-0.843937,0.196727,-1.8675,0.226314,0.176329,0.922443,0.0,0.0,-0.030326,0.0,-0.2618,-0.010108,1.5,0.2,0.6,0.6,0.6,0.55,0.0,0.2,0.558545,0.504273,0.581909,0.3,
0.01,0.165261,0.327878,0.441613,-1.10982,1.2556,-0.056649,-1.507673,0.107694,-0.844019,0.196713,-1.8675,0.226304,0.17633,0.922458,0.0,0.0,-0.030326,0.0,-0.2618,-0.010108,1.5,0.2,0.6,0.6,0.6,0.55,0.0,0.2,0.557455,0.503727,0.582091,0.3,
0.01,0.165261,0.327878,0.441613,-1.10982,1.2556,-0.056649,-1.507673,0.107704,-0.8441,0.196698,-1.8675,0.226293,0.176331,0.922471,0.0,0.0,-0.030326,0.0,-0.2618,-0.010108,1.5,0.2,0.6,0.6,0.6,0.55,0.0,0.2,0.556364,0.503182,0.582273,0.3,
0.01,0.165261,0.327878,0.441613,-1.10982,1.2556,-0.056649,-1.507673,0.107713,-0.844181,0.196684,-1.8675,0.226283,0.176331,0.922486,0.0,0.0,-0.030326,0.0,-0.2618,-0.010108,1.5,0.2,0.6,0.6,0.6,0.55,0.0,0.2,0.555273,0.502636,0.582455,0.3,
0.01,0.165261,0.327878,0.441613,-1.10982,1.2556,-0.056649,-1.507673,0.107723,-0.844263,0.196669,-1.8675,0.226272,0.176332,0.922501,0.0,0.0,-0.030326,0.0,-0.2618,-0.010108,1.5,0.2,0.6,0.6,0.6,0.55,0.0,0.2,0.554182,0.502091,0.582636,0.3,
0.01,0.165261,0.327878,0.441613,-1.10982,1.2556,-0.056649,-1.507673,0.107732,-0.844343,0.196656,-1.8675,0.226262,0.176333,0.922515,0.0,0.0,-0.030326,0.0,-0.2618,-0.010108,1.5,0.2,0.6,0.6,0.6,0.55,0.0,0.2,0.553091,0.501545,0.582818,0.3,
0.01,0.165261,0.327878,0.441613,-1.10982,1.2556,-0.056649,-1.507673,0.107742,-0.844425,0.196641,-1.8675,0.226251,0.176335,0.92253,0.0,0.0,-0.030326,0.0,-0.2618,-0.010108,1.5,0.2,0.6,0.6,0.6,0.55,0.0,0.2,0.552,0.501,0.583,0.3,
0.01,0.165261,0.327878,0.441613,-1.10982,1.2556,-0.056649,-1.507673,0.107751,-0.844507,0.196627,-1.8675,0.226241,0.176336,0.922544,0.0,0.0,-0.030326,0.0,-0.2618,-0.010108,1.5,0.2,0.6,0.6,0.6,0.55,0.0,0.2,0.550909,0.500455,0.583182,0.3,
0.01,0.165261,0.327878,0.441613,-1.10982,1.2556,-0.056649,-1.507673,0.107762,-0.844588,0.196612,-1.8675,0.226231,0.176336,0.922558,0.0,0.0,-0.030326,0.0,-0.2618,-0.010108,1.5,0.2,0.6,0.6,0.6,0.55,0.0,0.2,0.549818,0.499909,0.583364,0.3,
0.01,0.165261,0.327878,0.441613,-1.10982,1.2556,-0.056649,-1.507673,0.107771,-0.844669,0.196598,-1.8675,0.22622,0.176337,0.922573,0.0,0.0,-0.030326,0.0,-0.2618,-0.010108,1.5,0.2,0.6,0.6,0.6,0.55,0.0,0.2,0.548727,0.499364,0.583545,0.3,
0.01,0.165261,0.327878,0.441613,-1.10982,1.2556,-0.056649,-1.507673,0.107781,-0.84475,0.196584,-1.8675,0.22621,0.176338,0.922588,0.0,0.0,-0.030326,0.0,-0.2618,-0.010108,1.5,0.2,0.6,0.6,0.6,0.55,0.0,0.2,0.547636,0.498818,0.583727,0.3,
0.01,0.165261,0.327878,0.441613,-1.10982,1.2556,-0.056649,-1.507673,0.10779,-0.844832,0.19657,-1.8675,0.226199,0.176339,0.922602,0.0,0.0,-0.030326,0.0,-0.2618,-0.010108,1.5,0.2,0.6,0.6,0.6,0.55,0.0,0.2,0.546545,0.498273,0.583909,0.3,
0.01,0.165261,0.327878,0.441613,-1.10982,1.2556,-0.056649,-1.507673,0.1078,-0.844912,0.196555,-1.8675,0.22619,0.176339,0.922616,0.0,0.0,-0.030326,0.0,-0.2618,-0.010108,1.5,0.2,0.6,0.6,0.6,0.55,0.0,0.2,0.545455,0.497727,0.584091,0.3,
0.01,0.165261,0.327878,0.441613,-1.10982,1.2556,-0.056649,-1.507673,0.107809,-0.844994,0.196541,-1.8675,0.226179,0.17634,0.922631,0.0,0.0,-0.030326,0.0,-0.2618,-0.010108,1.5,0.2,0.6,0.6,0.6,0.55,0.0,0.2,0.544364,0.497182,0.584273,0.3,
0.01,0.165261,0.327878,0.441613,-1.10982,1.2556,-0.056649,-1.507673,0.107819,-0.845076,0.196526,-1.8675,0.226168,0.176341,0.922645,0.0,0.0,-0.030326,0.0,-0.2618,-0.010108,1.5,0.2,0.6,0.6,0.6,0.55,0.0,0.2,0.543273,0.496636,0.584455,0.3,
0.01,0.165261,0.327878,0.441613,-1.10982,1.2556,-0.056649,-1.507673,0.107828,-0.845157,0.196513,-1.8675,0.226158,0.176341,0.92266,0.0,0.0,-0.030326,0.0,-0.2618,-0.010108,1.5,0.2,0.6,0.6,0.6,0.55,0.0,0.2,0.542182,0.496091,0.584636,0.3,
0.01,0.165261,0.327878,0.441613,-1.10982,1.2556,-0.056649,-1.507673,0.107838,-0.845238,0.196498,-1.8675,0.226147,0.176342,0.922673,0.0,0.0,-0.030326,0.0,-0.2618,-0.010108,1.5,0.2,0.6,0.6,0.6,0.55,0.0,0.2,0.541091,0.495545,0.584818,0.3,
0.01,0.165261,0.327878,0.441613,-1.10982,1.2556,-0.056649,-1.507673,0.107848,-0.845319,0.196484,-1.8675,0.226138,0.176343,0.922688,0.0,0.0,-0.030326,0.0,-0.2618,-0.010108,1.5,0.2,0.6,0.6,0.6,0.55,0.0,0.2,0.54,0.495,0.585,0.3,
0.01,0.165261,0.327878,0.441613,-1.10982,1.2556,-0.056649,-1.507673,0.107857,-0.845401,0.196469,-1.8675,0.226127,0.176344,0.922703,0.0,0.0,-0.030326,0.0,-0.2618,-0.010108,1.5,0.2,0.6,0.6,0.6,0.55,0.0,0.2,0.538909,0.494455,0.585182,0.3,
0.01,0.165261,0.327878,0.441613,-1.10982,1.2556,-0.056649,-1.507673,0.107866,-0.845482,0.196456,-1.8675,0.226117,0.176345,0.922717,0.0,0.0,-0.030326,0.0,-0.2618,-0.010108,1.5,0.2,0.6,0.6,0.6,0.55,0.0,0.2,0.537818,0.493909,0.585364,0.3,
0.01,0.165261,0.327878,0.441613,-1.10982,1.2556,-0.056649,-1.507673,0.107876,-0.845563,0.196441,-1.8675,0.226106,0.176346,0.922731,0.0,0.0,-0.030326,0.0,-0.2618,-0.010108,1.5,0.2,0.6,0.6,0.6,0.55,0.0,0.2,0.536727,0.493364,0.585545,0.3,
0.01,0.165261,0.327878,0.441613,-1.10982,1.2556,-0.056649,-1.507673,0.107886,-0.845644,0.196427,-1.8675,0.226097,0.176347,0.922746,0.0,0.0,-0.030326,0.0,-0.2618,-0.010108,1.5,0.2,0.6,0.6,0.6,0.55,0.0,0.2,0.535636,0.492818,0.585727,0.3,
0.01,0.165261,0.327878,0.441613,-1.10982,1.2556,-0.056649,-1.507673,0.107895,-0.845726,0.196413,-1.8675,0.226086,0.176347,0.92276,0.0,0.0,-0.030326,0.0,-0.2618,-0.010108,1.5,0.2,0.6,0.6,0.6,0.55,0.0,0.2,0.534545,0.492273,0.585909,0.3,
0.01,0.165261,0.327878,0.441613,-1.10982,1.2556,-0.056649,-1.507673,0.107905,-0.845807,0.196399,-1.8675,0.226076,0.176348,0.922774,0.0,0.0,-0.030326,0.0,-0.2618,-0.010108,1.5,0.2,0.6,0.6,0.6,0.55,0.0,0.2,0.533455,0.491727,0.586091,0.3,
0.01,0.165261,0.327878,0.441613,-1.10982,1.2556,-0.056649,-1.507673,0.107914,-0.845888,0.196384,-1.8675,0.226065,0.176349,0.922789,0.0,0.0,-0.030326,0.0,-0.2618,-0.010108,1.5,0.2,0.6,0.6,0.6,0.55,0.0,0.2,0.532364,0.491182,0.586273,0.3,
0.01,0.165261,0.327878,0.441613,-1.10982,1.2556,-0.056649,-1.507673,0.107924,-0.845969,0.19637,-1.8675,0.226055,0.176349,0.922803,0.0,0.0,-0.030326,0.0,-0.2618,-0.010108,1.5,0.2,0.6,0.6,0.6,0.55,0.0,0.2,0.531273,0.490636,0.586455,0.3,
0.01,0.165261,0.327878,0.441613,-1.10982,1.2556,-0.056649,-1.507673,0.107933,-0.846051,0.196356,-1.8675,0.226045,0.17635,0.922818,0.0,0.0,-0.030326,0.0,-0.2618,-0.010108,1.5,0.2,0.6,0.6,0.6,0.55,0.0,0.2,0.530182,0.490091,0.586636,0.3,
0.01,0.165261,0.327878,0.441613,-1.10982,1.2556,-0.056649,-1.507673,0.107943,-0.846132,0.196342,-1.8675,0.226034,0.176351,0.922831,0.0,0.0,-0.030326,0.0,-0.2618,-0.010108,1.5,0.2,0.6,0.6,0.6,0.55,0.0,0.2,0.529091,0.489545,0.586818,0.3,
0.01,0.165261,0.327878,0.441613,-1.10982,1.2556,-0.056649,-1.507673,0.107952,-0.846213,0.196327,-1.8675,0.226024,0.176351,0.922846,0.0,0.0,-0.030326,0.0,-0.2618,-0.010108,1.5,0.2,0.6,0.6,0.6,0.55,0.0,0.2,0.528,0.489,0.587,0.3,
0.01,0.165261,0.327878,0.441613,-1.10982,1.2556,-0.056649,-1.507673,0.107962,-0.846294,0.196314,-1.8675,0.226014,0.176353,0.922861,0.0,0.0,-0.030326,0.0,-0.2618,-0.010108,1.5,0.2,0.6,0.6,0.6,0.55,0.0,0.2,0.526909,0.488455,0.587182,0.3,
0.01,0.165261,0.327878,0.441613,-1.10982,1.2556,-0.056649,-1.507673,0.107971,-0.846376,0.1963,-1.8675,0.226004,0.176354,0.922874,0.0,0.0,-0.030326,0.0,-0.2618,-0.010108,1.5,0.2,0.6,0.6,0.6,0.55,0.0,0.2,0.525818,0.487909,0.587364,0.3,
0.01,0.165261,0.327878,0.441613,-1.10982,1.2556,-0.056649,-1.507673,0.107981,-0.846457,0.196285,-1.8675,0.225993,0.176354,0.922889,0.0,0.0,-0.030326,0.0,-0.2618,-0.010108,1.5,0.2,0.6,0.6,0.6,0.55,0.0,0.2,0.524727,0.487364,0.587545,0.3,
0.01,0.165261,0.327878,0.441613,-1.10982,1.2556,-0.056649,-1.507673,0.10799,-0.846538,0.196271,-1.8675,0.225983,0.176355,0.922904,0.0,0.0,-0.030326,0.0,-0.2618,-0.010108,1.5,0.2,0.6,0.6,0.6,0.55,0.0,0.2,0.523636,0.486818,0.587727,0.3,
0.01,0.165261,0.327878,0.441613,-1.10982,1.2556,-0.056649,-1.507673,0.108,-0.846619,0.196257,-1.8675,0.225973,0.176355,0.922917,0.0,0.0,-0.030326,0.0,-0.2618,-0.010108,1.5,0.2,0.6,0.6,0.6,0.55,0.0,0.2,0.522545,0.486273,0.587909,0.3,
0.01,0.165261,0.327878,0.441613,-1.10982,1.2556,-0.056649,-1.507673,0.108009,-0.846701,0.196243,-1.8675,0.225962,0.176356,0.922932,0.0,0.0,-0.030326,0.0,-0.2618,-0.010108,1.5,0.2,0.6,0.6,0.6,0.55,0.0,0.2,0.521455,0.485727,0.588091,0.3,
0.01,0.165261,0.327878,0.441613,-1.10982,1.2556,-0.056649,-1.507673,0.108019,-0.846782,0.196228,-1.8675,0.225953,0.176357,0.922946,0.0,0.0,-0.030326,0.0,-0.2618,-0.010108,1.5,0.2,0.6,0.6,0.6,0.55,0.0,0.2,0.520364,0.485182,0.588273,0.3,
0.01,0.165261,0.327878,0.441613,-1.10982,1.2556,-0.056649,-1.507673,0.108029,-0.846864,0.196215,-1.8675,0.225942,0.176357,0.92296,0.0,0.0,-0.030326,0.0,-0.2618,-0.010108,1.5,0.2,0.6,0.6,0.6,0.55,0.0,0.2,0.519273,0.484636,0.588455,0.3,
0.01,0.165261,0.327878,0.441613,-1.10982,1.2556,-0.056649,-1.507673,0.108038,-0.846944,0.1962,-1.8675,0.225932,0.176358,0.922975,0.0,0.0,-0.030326,0.0,-0.2618,-0.010108,1.5,0.2,0.6,0.6,0.6,0.55,0.0,0.2,0.518182,0.484091,0.588636,0.3,
0.01,0.165261,0.327878,0.441613,-1.10982,1.2556,-0.056649,-1.507673,0.108047,-0.847026,0.196187,-1.8675,0.225921,0.17636,0.922989,0.0,0.0,-0.030326,0.0,-0.2618,-0.010108,1.5,0.2,0.6,0.6,0.6,0.55,0.0,0.2,0.517091,0.483545,0.588818,0.3,
0.01,0.165261,0.327878,0.441613,-1.10982,1.2556,-0.056649,-1.507673,0.108057,-0.847107,0.196173,-1.8675,0.225911,0.17636,0.923003,0.0,0.0,-0.030326,0.0,-0.2618,-0.010108,1.5,0.2,0.6,0.6,0.6,0.55,0.0,0.2,0.516,0.483,0.589,0.3,
0.01,0.165261,0.327878,0.441613,-1.10982,1.2556,-0.056649,-1.507673,0.108067,-0.847189,0.196158,-1.8675,0.225901,0.176361,0.923017,0.0,0.0,-0.030326,0.0,-0.2618,-0.010108,1.5,0.2,0.6,0.6,0.6,0.55,0.0,0.2,0.514909,0.482455,0.589182,0.3,
0.01,0.165261,0.327878,0.441613,-1.10982,1.2556,-0.056649,-1.507673,0.108076,-0.847269,0.196145,-1.8675,0.22589,0.176361,0.923032,0.0,0.0,-0.030326,0.0,-0.2618,-0.010108,1.5,0.2,0.6,0.6,0.6,0.55,0.0,0.2,0.513818,0.481909,0.589364,0.3,
0.01,0.165261,0.327878,0.441613,-1.10982,1.2556,-0.056649,-1.507673,0.108086,-0.847351,0.19613,-1.8675,0.225881,0.176362,0.923045,0.0,0.0,-0.030326,0.0,-0.2618,-0.010108,1.5,0.2,0.6,0.6,0.6,0.55,0.0,0.2,0.512727,0.481364,0.589545,0.3,
0.01,0.165261,0.327878,0.441613,-1.10982,1.2556,-0.056649,-1.507673,0.108095,-0.847432,0.196116,-1.8675,0.22587,0.176362,0.92306,0.0,0.0,-0.030326,0.0,-0.2618,-0.010108,1.5,0.2,0.6,0.6,0.6,0.55,0.0,0.2,0.511636,0.480818,0.589727,0.3,
0.01,0.165261,0.327878,0.441613,-1.10982,1.2556,-0.056649,-1.507673,0.108105,-0.847513,0.196103,-1.8675,0.22586,0.176363,0.923074,0.0,0.0,-0.030326,0.0,-0.2618,-0.010108,1.5,0.2,0.6,0.6,0.6,0.55,0.0,0.2,0.510545,0.480273,0.589909,0.3,
0.01,0.165261,0.327878,0.441613,-1.10982,1.2556,-0.056649,-1.507673,0.108114,-0.847594,0.196088,-1.8675,0.22585,0.176364,0.923088,0.0,0.0,-0.030326,0.0,-0.2618,-0.010108,1.5,0.2,0.6,0.6,0.6,0.55,0.0,0.2,0.509455,0.479727,0.590091,0.3,
0.01,0.165261,0.327878,0.441613,-1.10982,1.2556,-0.056649,-1.507673,0.108124,-0.847675,0.196073,-1.8675,0.225839,0.176364,0.923103,0.0,0.0,-0.030326,0.0,-0.2618,-0.010108,1.5,0.2,0.6,0.6,0.6,0.55,0.0,0.2,0.508364,0.479182,0.590273,0.3,
0.01,0.165261,0.327878,0.441613,-1.10982,1.2556,-0.056649,-1.507673,0.108133,-0.847757,0.19606,-1.8675,0.22583,0.176366,0.923116,0.0,0.0,-0.030326,0.0,-0.2618,-0.010108,1.5,0.2,0.6,0.6,0.6,0.55,0.0,0.2,0.507273,0.478636,0.590455,0.3,
0.01,0.165261,0.327878,0.441613,-1.10982,1.2556,-0.056649,-1.507673,0.108143,-0.847838,0.196046,-1.8675,0.225819,0.176366,0.923131,0.0,0.0,-0.030326,0.0,-0.2618,-0.010108,1.5,0.2,0.6,0.6,0.6,0.55,0.0,0.2,0.506182,0.478091,0.590636,0.3,
0.01,0.165261,0.327878,0.441613,-1.10982,1.2556,-0.056649,-1.507673,0.108152,-0.84792,0.196032,-1.8675,0.225809,0.176367,0.923145,0.0,0.0,-0.030326,0.0,-0.2618,-0.010108,1.5,0.2,0.6,0.6,0.6,0.55,0.0,0.2,0.505091,0.477545,0.590818,0.3,
0.01,0.165261,0.327878,0.441613,-1.10982,1.2556,-0.056649,-1.507673,0.108162,-0.848,0.196018,-1.8675,0.225799,0.176367,0.923159,0.0,0.0,-0.030326,0.0,-0.2618,-0.010108,1.5,0.2,0.6,0.6,0.6,0.55,0.0,0.2,0.504,0.477,0.591,0.3,
0.01,0.165261,0.327878,0.441613,-1.10982,1.2556,-0.056649,-1.507673,0.108172,-0.848082,0.196003,-1.8675,0.225788,0.176368,0.923174,0.0,0.0,-0.030326,0.0,-0.2618,-0.010108,1.5,0.2,0.6,0.6,0.6,0.55,0.0,0.2,0.502909,0.476455,0.591182,0.3,
0.01,0.165261,0.327878,0.441613,-1.10982,1.2556,-0.056649,-1.507673,0.108181,-0.848163,0.19599,-1.8675,0.225778,0.176368,0.923187,0.0,0.0,-0.030326,0.0,-0.2618,-0.010108,1.5,0.2,0.6,0.6,0.6,0.55,0.0,0.2,0.501818,0.475909,0.591364,0.3,
0.01,0.165261,0.327878,0.441613,-1.10982,1.2556,-0.056649,-1.507673,0.10819,-0.848244,0.195976,-1.8675,0.225768,0.176369,0.923202,0.0,0.0,-0.030326,0.0,-0.2618,-0.010108,1.5,0.2,0.6,0.6,0.6,0.55,0.0,0.2,0.500727,0.475364,0.591545,0.3,
0.01,0.165261,0.327878,0.441613,-1.10982,1.2556,-0.056649,-1.507673,0.1082,-0.848326,0.195962,-1.8675,0.225758,0.17637,0.923215,0.0,0.0,-0.030326,0.0,-0.2618,-0.010108,1.5,0.2,0.6,0.6,0.6,0.55,0.0,0.2,0.499636,0.474818,0.591727,0.3,
0.01,0.165261,0.327878,0.441613,-1.10982,1.2556,-0.056649,-1.507673,0.10821,-0.848406,0.195948,-1.8675,0.225747,0.176371,0.92323,0.0,0.0,-0.030326,0.0,-0.2618,-0.010108,1.5,0.2,0.6,0.6,0.6,0.55,0.0,0.2,0.498545,0.474273,0.591909,0.3,
0.01,0.165261,0.327878,0.441613,-1.10982,1.2556,-0.056649,-1.507673,0.108219,-0.848488,0.195934,-1.8675,0.225738,0.176371,0.923244,0.0,0.0,-0.030326,0.0,-0.2618,-0.010108,1.5,0.2,0.6,0.6,0.6,0.55,0.0,0.2,0.497455,0.473727,0.592091,0.3,
0.01,0.165261,0.327878,0.441613,-1.10982,1.2556,-0.056649,-1.507673,0.108229,-0.848569,0.19592,-1.8675,0.225727,0.176372,0.923258,0.0,0.0,-0.030326,0.0,-0.2618,-0.010108,1.5,0.2,0.6,0.6,0.6,0.55,0.0,0.2,0.496364,0.473182,0.592273,0.3,
0.01,0.165261,0.327878,0.441613,-1.10982,1.2556,-0.056649,-1.507673,0.108238,-0.84865,0.195906,-1.8675,0.225717,0.176372,0.923273,0.0,0.0,-0.030326,0.0,-0.2618,-0.010108,1.5,0.2,0.6,0.6,0.6,0.55,0.0,0.2,0.495273,0.472636,0.592455,0.3,
0.01,0.165261,0.327878,0.441613,-1.10982,1.2556,-0.056649,-1.507673,0.108248,-0.848732,0.195892,-1.8675,0.225707,0.176373,0.923286,0.0,0.0,-0.030326,0.0,-0.2618,-0.010108,1.5,0.2,0.6,0.6,0.6,0.55,0.0,0.2,0.494182,0.472091,0.592636,0.3,
0.01,0.165261,0.327878,0.441613,-1.10982,1.2556,-0.056649,-1.507673,0.108257,-0.848812,0.195878,-1.8675,0.225697,0.176373,0.923301,0.0,0.0,-0.030326,0.0,-0.2618,-0.010108,1.5,0.2,0.6,0.6,0.6,0.55,0.0,0.2,0.493091,0.471545,0.592818,0.3,
0.01,0.165261,0.327878,0.441613,-1.10982,1.2556,-0.056649,-1.507673,0.108267,-0.848894,0.195864,-1.8675,0.225687,0.176374,0.923314,0.0,0.0,-0.030326,0.0,-0.2618,-0.010108,1.5,0.2,0.6,0.6,0.6,0.55,0.0,0.2,0.492,0.471,0.593,0.3,
0.01,0.165261,0.327878,0.441613,-1.10982,1.2556,-0.056649,-1.507673,0.108277,-0.848975,0.19585,-1.8675,0.225676,0.176375,0.923329,0.0,0.0,-0.030326,0.0,-0.2618,-0.010108,1.5,0.2,0.6,0.6,0.6,0.55,0.0,0.2,0.490909,0.470455,0.593182,0.3,
0.01,0.165261,0.327878,0.441613,-1.10982,1.2556,-0.056649,-1.507673,0.108286,-0.849056,0.195837,-1.8675,0.225667,0.176376,0.923342,0.0,0.0,-0.030326,0.0,-0.2618,-0.010108,1.5,0.2,0.6,0.6,0.6,0.55,0.0,0.2,0.489818,0.469909,0.593364,0.3,
0.01,0.165261,0.327878,0.441613,-1.10982,1.2556,-0.056649,-1.507673,0.108296,-0.849138,0.195822,-1.8675,0.225656,0.176376,0.923357,0.0,0.0,-0.030326,0.0,-0.2618,-0.010108,1.5,0.2,0.6,0.6,0.6,0.55,0.0,0.2,0.488727,0.469364,0.593545,0.3,
0.01,0.165261,0.327878,0.441613,-1.10982,1.2556,-0.056649,-1.507673,0.108305,-0.849219,0.195809,-1.8675,0.225646,0.176377,0.92337,0.0,0.0,-0.030326,0.0,-0.2618,-0.010108,1.5,0.2,0.6,0.6,0.6,0.55,0.0,0.2,0.487636,0.468818,0.593727,0.3,
0.01,0.165261,0.327878,0.441613,-1.10982,1.2556,-0.056649,-1.507673,0.108315,-0.849299,0.195795,-1.8675,0.225636,0.176377,0.923385,0.0,0.0,-0.030326,0.0,-0.2618,-0.010108,1.5,0.2,0.6,0.6,0.6,0.55,0.0,0.2,0.486545,0.468273,0.593909,0.3,
0.01,0.165261,0.327878,0.441613,-1.10982,1.2556,-0.056649,-1.507673,0.108324,-0.84938,0.195781,-1.8675,0.225625,0.176378,0.923399,0.0,0.0,-0.030326,0.0,-0.2618,-0.010108,1.5,0.2,0.6,0.6,0.6,0.55,0.0,0.2,0.485471,0.467735,0.594088,0.3,
0.01,0.165261,0.327878,0.441613,-1.10982,1.2556,-0.056649,-1.507673,0.108334,-0.849459,0.195767,-1.8675,0.225616,0.176378,0.923413,0.0,0.0,-0.030326,0.0,-0.2618,-0.010108,1.5,0.2,0.6,0.6,0.6,0.55,0.0,0.2,0.484412,0.467206,0.594265,0.3,
0.01,0.165261,0.327878,0.441613,-1.10982,1.2556,-0.056649,-1.507673,0.108342,-0.849536,0.195755,-1.8675,0.225606,0.176379,0.923425,0.0,0.0,-0.030326,0.0,-0.2618,-0.010108,1.5,0.2,0.6,0.6,0.6,0.55,0.0,0.2,0.483369,0.466684,0.594439,0.3,
0.01,0.165261,0.327878,0.441613,-1.10982,1.2556,-0.056649,-1.507673,0.108352,-0.849612,0.195741,-1.8675,0.225597,0.17638,0.92344,0.0,0.0,-0.030326,0.0,-0.2618,-0.010108,1.5,0.2,0.6,0.6,0.6,0.55,0.0,0.2,0.482342,0.466171,0.59461,0.3,
0.01,0.165261,0.327878,0.441613,-1.10982,1.2556,-0.056649,-1.507673,0.10836,-0.849688,0.195729,-1.8675,0.225587,0.176381,0.923452,0.0,0.0,-0.030326,0.0,-0.2618,-0.010108,1.5,0.2,0.6,0.6,0.6,0.55,0.0,0.2,0.481332,0.465666,0.594778,0.3,
0.01,0.165261,0.327878,0.441613,-1.10982,1.2556,-0.056649,-1.507673,0.108369,-0.849762,0.195716,-1.8675,0.225579,0.176381,0.923465,0.0,0.0,-0.030326,0.0,-0.2618,-0.010108,1.5,0.2,0.6,0.6,0.6,0.55,0.0,0.2,0.480337,0.465168,0.594944,0.3,
0.01,0.165261,0.327878,0.441613,-1.10982,1.2556,-0.056649,-1.507673,0.108378,-0.849835,0.195703,-1.8675,0.225569,0.176382,0.923478,0.0,0.0,-0.030326,0.0,-0.2618,-0.010108,1.5,0.2,0.6,0.6,0.6,0.55,0.0,0.2,0.479358,0.464679,0.595107,0.3,
0.01,0.165261,0.327878,0.441613,-1.10982,1.2556,-0.056649,-1.507673,0.108386,-0.849906,0.195691,-1.8675,0.22556,0.176382,0.923489,0.0,0.0,-0.030326,0.0,-0.2618,-0.010108,1.5,0.2,0.6,0.6,0.6,0.55,0.0,0.2,0.478396,0.464198,0.595267,0.3,
0.01,0.165261,0.327878,0.441613,-1.10982,1.2556,-0.056649,-1.507673,0.108394,-0.849977,0.195678,-1.8675,0.225552,0.176382,0.923502,0.0,0.0,-0.030326,0.0,-0.2618,-0.010108,1.5,0.2,0.6,0.6,0.6,0.55,0.0,0.2,0.477449,0.463725,0.595425,0.3,
0.01,0.165261,0.327878,0.441613,-1.10982,1.2556,-0.056649,-1.507673,0.108403,-0.850047,0.195667,-1.8675,0.225542,0.176383,0.923514,0.0,0.0,-0.030326,0.0,-0.2618,-0.010108,1.5,0.2,0.6,0.6,0.6,0.55,0.0,0.2,0.476519,0.463259,0.59558,0.3,
0.01,0.165261,0.327878,0.441613,-1.10982,1.2556,-0.056649,-1.507673,0.108412,-0.850114,0.195655,-1.8675,0.225535,0.176383,0.923526,0.0,0.0,-0.030326,0.0,-0.2618,-0.010108,1.5,0.2,0.6,0.6,0.6,0.55,0.0,0.2,0.475604,0.462802,0.595733,0.3,
0.01,0.165261,0.327878,0.441613,-1.10982,1.2556,-0.056649,-1.507673,0.10842,-0.850181,0.195644,-1.8675,0.225526,0.176383,0.923537,0.0,0.0,-0.030326,0.0,-0.2618,-0.010108,1.5,0.2,0.6,0.6,0.6,0.55,0.0,0.2,0.474706,0.462353,0.595882,0.3,
0.01,0.165261,0.327878,0.441613,-1.10982,1.2556,-0.056649,-1.507673,0.108427,-0.850247,0.195633,-1.8675,0.225517,0.176383,0.923548,0.0,0.0,-0.030326,0.0,-0.2618,-0.010108,1.5,0.2,0.6,0.6,0.6,0.55,0.0,0.2,0.473824,0.461912,0.596029,0.3,
0.01,0.165261,0.327878,0.441613,-1.10982,1.2556,-0.056649,-1.507673,0.108435,-0.850312,0.195623,-1.8675,0.22551,0.176384,0.923559,0.0,0.0,-0.030326,0.0,-0.2618,-0.010108,1.5,0.2,0.6,0.6,0.6,0.55,0.0,0.2,0.472957,0.461479,0.596174,0.3,
0.01,0.165261,0.327878,0.441613,-1.10982,1.2556,-0.056649,-1.507673,0.108443,-0.850374,0.195611,-1.8675,0.225502,0.176385,0.923571,0.0,0.0,-0.030326,0.0,-0.2618,-0.010108,1.5,0.2,0.6,0.6,0.6,0.55,0.0,0.2,0.472107,0.461053,0.596316,0.3,
0.01,0.165261,0.327878,0.441613,-1.10982,1.2556,-0.056649,-1.507673,0.10845,-0.850436,0.1956,-1.8675,0.225495,0.176385,0.923581,0.0,0.0,-0.030326,0.0,-0.2618,-0.010108,1.5,0.2,0.6,0.6,0.6,0.55,0.0,0.2,0.471273,0.460636,0.596455,0.3,
0.01,0.165261,0.327878,0.441613,-1.10982,1.2556,-0.056649,-1.507673,0.108457,-0.850498,0.19559,-1.8675,0.225487,0.176386,0.923591,0.0,0.0,-0.030326,0.0,-0.2618,-0.010108,1.5,0.2,0.6,0.6,0.6,0.55,0.0,0.2,0.470455,0.460227,0.596591,0.3,
0.01,0.165261,0.327878,0.441613,-1.10982,1.2556,-0.056649,-1.507673,0.108464,-0.850557,0.19558,-1.8675,0.225479,0.176386,0.923601,0.0,0.0,-0.030326,0.0,-0.2618,-0.010108,1.5,0.2,0.6,0.6,0.6,0.55,0.0,0.2,0.469652,0.459826,0.596725,0.3,
0.01,0.165261,0.327878,0.441613,-1.10982,1.2556,-0.056649,-1.507673,0.108471,-0.850616,0.195571,-1.8675,0.225472,0.176387,0.923611,0.0,0.0,-0.030326,0.0,-0.2618,-0.010108,1.5,0.2,0.6,0.6,0.6,0.55,0.0,0.2,0.468866,0.459433,0.596856,0.3,
0.01,0.165261,0.327878,0.441613,-1.10982,1.2556,-0.056649,-1.507673,0.108478,-0.850673,0.19556,-1.8675,0.225465,0.176386,0.923622,0.0,0.0,-0.030326,0.0,-0.2618,-0.010108,1.5,0.2,0.6,0.6,0.6,0.55,0.0,0.2,0.468096,0.459048,0.596984,0.3,
0.01,0.165261,0.327878,0.441613,-1.10982,1.2556,-0.056649,-1.507673,0.108484,-0.850729,0.19555,-1.8675,0.225457,0.176387,0.923631,0.0,0.0,-0.030326,0.0,-0.2618,-0.010108,1.5,0.2,0.6,0.6,0.6,0.55,0.0,0.2,0.467342,0.458671,0.59711,0.3,
0.01,0.165261,0.327878,0.441613,-1.10982,1.2556,-0.056649,-1.507673,0.108491,-0.850784,0.195542,-1.8675,0.225451,0.176387,0.923641,0.0,0.0,-0.030326,0.0,-0.2618,-0.010108,1.5,0.2,0.6,0.6,0.6,0.55,0.0,0.2,0.466604,0.458302,0.597233,0.3,
0.01,0.165261,0.327878,0.441613,-1.10982,1.2556,-0.056649,-1.507673,0.108497,-0.850838,0.195532,-1.8675,0.225444,0.176388,0.923649,0.0,0.0,-0.030326,0.0,-0.2618,-0.010108,1.5,0.2,0.6,0.6,0.6,0.55,0.0,0.2,0.465882,0.457941,0.597353,0.3,
0.01,0.165261,0.327878,0.441613,-1.10982,1.2556,-0.056649,-1.507673,0.108503,-0.85089,0.195524,-1.8675,0.225438,0.176389,0.923659,0.0,0.0,-0.030326,0.0,-0.2618,-0.010108,1.5,0.2,0.6,0.6,0.6,0.55,0.0,0.2,0.465176,0.457588,0.597471,0.3,
0.01,0.165261,0.327878,0.441613,-1.10982,1.2556,-0.056649,-1.507673,0.108509,-0.850941,0.195515,-1.8675,0.225432,0.176388,0.923667,0.0,0.0,-0.030326,0.0,-0.2618,-0.010108,1.5,0.2,0.6,0.6,0.6,0.55,0.0,0.2,0.464487,0.457243,0.597586,0.3,
0.01,0.165261,0.327878,0.441613,-1.10982,1.2556,-0.056649,-1.507673,0.108515,-0.850992,0.195506,-1.8675,0.225425,0.176389,0.923676,0.0,0.0,-0.030326,0.0,-0.2618,-0.010108,1.5,0.2,0.6,0.6,0.6,0.55,0.0,0.2,0.463813,0.456906,0.597698,0.3,
0.01,0.165261,0.327878,0.441613,-1.10982,1.2556,-0.056649,-1.507673,0.108521,-0.85104,0.195499,-1.8675,0.225419,0.176389,0.923685,0.0,0.0,-0.030326,0.0,-0.2618,-0.010108,1.5,0.2,0.6,0.6,0.6,0.55,0.0,0.2,0.463155,0.456578,0.597807,0.3,
0.01,0.165261,0.327878,0.441613,-1.10982,1.2556,-0.056649,-1.507673,0.108527,-0.851088,0.19549,-1.8675,0.225414,0.176389,0.923693,0.0,0.0,-0.030326,0.0,-0.2618,-0.010108,1.5,0.2,0.6,0.6,0.6,0.55,0.0,0.2,0.462513,0.456257,0.597914,0.3,
0.01,0.165261,0.327878,0.441613,-1.10982,1.2556,-0.056649,-1.507673,0.108532,-0.851134,0.195482,-1.8675,0.225408,0.17639,0.923701,0.0,0.0,-0.030326,0.0,-0.2618,-0.010108,1.5,0.2,0.6,0.6,0.6,0.55,0.0,0.2,0.461888,0.455944,0.598019,0.3,
0.01,0.165261,0.327878,0.441613,-1.10982,1.2556,-0.056649,-1.507673,0.108537,-0.85118,0.195475,-1.8675,0.225402,0.17639,0.923708,0.0,0.0,-0.030326,0.0,-0.2618,-0.010108,1.5,0.2,0.6,0.6,0.6,0.55,0.0,0.2,0.461278,0.455639,0.59812,0.3,
0.01,0.165261,0.327878,0.441613,-1.10982,1.2556,-0.056649,-1.507673,0.108543,-0.851224,0.195467,-1.8675,0.225397,0.17639,0.923716,0.0,0.0,-0.030326,0.0,-0.2618,-0.010108,1.5,0.2,0.6,0.6,0.6,0.55,0.0,0.2,0.460684,0.455342,0.598219,0.3,
0.01,0.165261,0.327878,0.441613,-1.10982,1.2556,-0.056649,-1.507673,0.108548,-0.851267,0.195459,-1.8675,0.225391,0.17639,0.923723,0.0,0.0,-0.030326,0.0,-0.2618,-0.010108,1.5,0.2,0.6,0.6,0.6,0.55,0.0,0.2,0.460107,0.455053,0.598316,0.3,
0.01,0.165261,0.327878,0.441613,-1.10982,1.2556,-0.056649,-1.507673,0.108553,-0.85131,0.195453,-1.8675,0.225386,0.176391,0.92373,0.0,0.0,-0.030326,0.0,-0.2618,-0.010108,1.5,0.2,0.6,0.6,0.6,0.55,0.0,0.2,0.459545,0.454773,0.598409,0.3,
0.01,0.165261,0.327878,0.441613,-1.10982,1.2556,-0.056649,-1.507673,0.108557,-0.85135,0.195446,-1.8675,0.22538,0.176391,0.923737,0.0,0.0,-0.030326,0.0,-0.2618,-0.010108,1.5,0.2,0.6,0.6,0.6,0.55,0.0,0.2,0.459,0.4545,0.5985,0.3,
0.01,0.165261,0.327878,0.441613,-1.10982,1.2556,-0.056649,-1.507673,0.108562,-0.851389,0.195439,-1.8675,0.225376,0.176391,0.923745,0.0,0.0,-0.030326,0.0,-0.2618,-0.010108,1.5,0.2,0.6,0.6,0.6,0.55,0.0,0.2,0.458471,0.454235,0.598588,0.3,
0.01,0.165261,0.327878,0.441613,-1.10982,1.2556,-0.056649,-1.507673,0.108567,-0.851427,0.195432,-1.8675,0.225371,0.176391,0.923751,0.0,0.0,-0.030326,0.0,-0.2618,-0.010108,1.5,0.2,0.6,0.6,0.6,0.55,0.0,0.2,0.457957,0.453979,0.598674,0.3,
0.01,0.165261,0.327878,0.441613,-1.10982,1.2556,-0.056649,-1.507673,0.108571,-0.851465,0.195427,-1.8675,0.225367,0.176392,0.923757,0.0,0.0,-0.030326,0.0,-0.2618,-0.010108,1.5,0.2,0.6,0.6,0.6,0.55,0.0,0.2,0.45746,0.45373,0.598757,0.3,
0.01,0.165261,0.327878,0.441613,-1.10982,1.2556,-0.056649,-1.507673,0.108575,-0.8515,0.19542,-1.8675,0.225362,0.176392,0.923763,0.0,0.0,-0.030326,0.0,-0.2618,-0.010108,1.5,0.2,0.6,0.6,0.6,0.55,0.0,0.2,0.456979,0.453489,0.598837,0.3,
0.01,0.165261,0.327878,0.441613,-1.10982,1.2556,-0.056649,-1.507673,0.108579,-0.851535,0.195414,-1.8675,0.225358,0.176392,0.923769,0.0,0.0,-0.030326,0.0,-0.2618,-0.010108,1.5,0.2,0.6,0.6,0.6,0.55,0.0,0.2,0.456513,0.453257,0.598914,0.3,
0.01,0.165261,0.327878,0.441613,-1.10982,1.2556,-0.056649,-1.507673,0.108583,-0.851568,0.195409,-1.8675,0.225354,0.176392,0.923775,0.0,0.0,-0.030326,0.0,-0.2618,-0.010108,1.5,0.2,0.6,0.6,0.6,0.55,0.0,0.2,0.456064,0.453032,0.598989,0.3,
0.01,0.165261,0.327878,0.441613,-1.10982,1.2556,-0.056649,-1.507673,0.108587,-0.8516,0.195404,-1.8675,0.22535,0.176393,0.92378,0.0,0.0,-0.030326,0.0,-0.2618,-0.010108,1.5,0.2,0.6,0.6,0.6,0.55,0.0,0.2,0.455631,0.452816,0.599061,0.3,
0.01,0.165261,0.327878,0.441613,-1.10982,1.2556,-0.056649,-1.507673,0.108591,-0.851632,0.195398,-1.8675,0.225346,0.176392,0.923785,0.0,0.0,-0.030326,0.0,-0.2618,-0.010108,1.5,0.2,0.6,0.6,0.6,0.55,0.0,0.2,0.455214,0.452607,0.599131,0.3,
0.01,0.165261,0.327878,0.441613,-1.10982,1.2556,-0.056649,-1.507673,0.108594,-0.851661,0.195393,-1.8675,0.225342,0.176393,0.923791,0.0,0.0,-0.030326,0.0,-0.2618,-0.010108,1.5,0.2,0.6,0.6,0.6,0.55,0.0,0.2,0.454813,0.452406,0.599198,0.3,
0.01,0.165261,0.327878,0.441613,-1.10982,1.2556,-0.056649,-1.507673,0.108598,-0.85169,0.195388,-1.8675,0.225339,0.176393,0.923796,0.0,0.0,-0.030326,0.0,-0.2618,-0.010108,1.5,0.2,0.6,0.6,0.6,0.55,0.0,0.2,0.454428,0.452214,0.599262,0.3,
0.01,0.165261,0.327878,0.441613,-1.10982,1.2556,-0.056649,-1.507673,0.108601,-0.851717,0.195384,-1.8675,0.225336,0.176393,0.9238,0.0,0.0,-0.030326,0.0,-0.2618,-0.010108,1.5,0.2,0.6,0.6,0.6,0.55,0.0,0.2,0.454059,0.452029,0.599324,0.3,
0.01,0.165261,0.327878,0.441613,-1.10982,1.2556,-0.056649,-1.507673,0.108604,-0.851744,0.195379,-1.8675,0.225332,0.176393,0.923805,0.0,0.0,-0.030326,0.0,-0.2618,-0.010108,1.5,0.2,0.6,0.6,0.6,0.55,0.0,0.2,0.453706,0.451853,0.599382,0.3,
0.01,0.165261,0.327878,0.441613,-1.10982,1.2556,-0.056649,-1.507673,0.108607,-0.851769,0.195375,-1.8675,0.225329,0.176393,0.923809,0.0,0.0,-0.030326,0.0,-0.2618,-0.010108,1.5,0.2,0.6,0.6,0.6,0.55,0.0,0.2,0.453369,0.451684,0.599439,0.3,
0.01,0.165261,0.327878,0.441613,-1.10982,1.2556,-0.056649,-1.507673,0.10861,-0.851792,0.195371,-1.8675,0.225326,0.176393,0.923814,0.0,0.0,-0.030326,0.0,-0.2618,-0.010108,1.5,0.2,0.6,0.6,0.6,0.55,0.0,0.2,0.453048,0.451524,0.599492,0.3,
0.01,0.165261,0.327878,0.441613,-1.10982,1.2556,-0.056649,-1.507673,0.108612,-0.851815,0.195367,-1.8675,0.225324,0.176394,0.923817,0.0,0.0,-0.030326,0.0,-0.2618,-0.010108,1.5,0.2,0.6,0.6,0.6,0.55,0.0,0.2,0.452743,0.451372,0.599543,0.3,
0.01,0.165261,0.327878,0.441613,-1.10982,1.2556,-0.056649,-1.507673,0.108615,-0.851836,0.195364,-1.8675,0.225321,0.176394,0.92382,0.0,0.0,-0.030326,0.0,-0.2618,-0.010108,1.5,0.2,0.6,0.6,0.6,0.55,0.0,0.2,0.452455,0.451227,0.599591,0.3,
0.01,0.165261,0.327878,0.441613,-1.10982,1.2556,-0.056649,-1.507673,0.108617,-0.851856,0.195361,-1.8675,0.225318,0.176393,0.923824,0.0,0.0,-0.030326,0.0,-0.2618,-0.010108,1.5,0.2,0.6,0.6,0.6,0.55,0.0,0.2,0.452182,0.451091,0.599636,0.3,
0.01,0.165261,0.327878,0.441613,-1.10982,1.2556,-0.056649,-1.507673,0.10862,-0.851876,0.195357,-1.8675,0.225316,0.176394,0.923828,0.0,0.0,-0.030326,0.0,-0.2618,-0.010108,1.5,0.2,0.6,0.6,0.6,0.55,0.0,0.2,0.451925,0.450963,0.599679,0.3,
0.01,0.165261,0.327878,0.441613,-1.10982,1.2556,-0.056649,-1.507673,0.108622,-0.851893,0.195354,-1.8675,0.225314,0.176394,0.923831,0.0,0.0,-0.030326,0.0,-0.2618,-0.010108,1.5,0.2,0.6,0.6,0.6,0.55,0.0,0.2,0.451684,0.450842,0.599719,0.3,
0.01,0.165261,0.327878,0.441613,-1.10982,1.2556,-0.056649,-1.507673,0.108624,-0.85191,0.195351,-1.8675,0.225311,0.176394,0.923834,0.0,0.0,-0.030326,0.0,-0.2618,-0.010108,1.5,0.2,0.6,0.6,0.6,0.55,0.0,0.2,0.45146,0.45073,0.599757,0.3,
0.01,0.165261,0.327878,0.441613,-1.10982,1.2556,-0.056649,-1.507673,0.108625,-0.851926,0.195348,-1.8675,0.225309,0.176394,0.923836,0.0,0.0,-0.030326,0.0,-0.2618,-0.010108,1.5,0.2,0.6,0.6,0.6,0.55,0.0,0.2,0.451251,0.450626,0.599791,0.3,
0.01,0.165261,0.327878,0.441613,-1.10982,1.2556,-0.056649,-1.507673,0.108627,-0.851941,0.195346,-1.8675,0.225307,0.176395,0.923838,0.0,0.0,-0.030326,0.0,-0.2618,-0.010108,1.5,0.2,0.6,0.6,0.6,0.55,0.0,0.2,0.451059,0.450529,0.599824,0.3,
0.01,0.165261,0.327878,0.441613,-1.10982,1.2556,-0.056649,-1.507673,0.108629,-0.851954,0.195343,-1.8675,0.225307,0.176395,0.923841,0.0,0.0,-0.030326,0.0,-0.2618,-0.010108,1.5,0.2,0.6,0.6,0.6,0.55,0.0,0.2,0.450882,0.450441,0.599853,0.3,
0.01,0.165261,0.327878,0.441613,-1.10982,1.2556,-0.056649,-1.507673,0.10863,-0.851965,0.195342,-1.8675,0.225305,0.176394,0.923843,0.0,0.0,-0.030326,0.0,-0.2618,-0.010108,1.5,0.2,0.6,0.6,0.6,0.55,0.0,0.2,0.450722,0.450361,0.59988,0.3,
0.01,0.165261,0.327878,0.441613,-1.10982,1.2556,-0.056649,-1.507673,0.108632,-0.851977,0.19534,-1.8675,0.225304,0.176394,0.923845,0.0,0.0,-0.030326,0.0,-0.2618,-0.010108,1.5,0.2,0.6,0.6,0.6,0.55,0.0,0.2,0.450578,0.450289,0.599904,0.3,
0.01,0.165261,0.327878,0.441613,-1.10982,1.2556,-0.056649,-1.507673,0.108633,-0.851986,0.195339,-1.8675,0.225303,0.176394,0.923846,0.0,0.0,-0.030326,0.0,-0.2618,-0.010108,1.5,0.2,0.6,0.6,0.6,0.55,0.0,0.2,0.450449,0.450225,0.599925,0.3,
0.01,0.165261,0.327878,0.441613,-1.10982,1.2556,-0.056649,-1.507673,0.108634,-0.851995,0.195337,-1.8675,0.225301,0.176394,0.923848,0.0,0.0,-0.030326,0.0,-0.2618,-0.010108,1.5,0.2,0.6,0.6,0.6,0.55,0.0,0.2,0.450337,0.450168,0.599944,0.3,
0.01,0.165261,0.327878,0.441613,-1.10982,1.2556,-0.056649,-1.507673,0.108634,-0.852001,0.195336,-1.8675,0.2253,0.176395,0.923849,0.0,0.0,-0.030326,0.0,-0.2618,-0.010108,1.5,0.2,0.6,0.6,0.6,0.55,0.0,0.2,0.450241,0.45012,0.59996,0.3,
0.01,0.165261,0.327878,0.441613,-1.10982,1.2556,-0.056649,-1.507673,0.108635,-0.852007,0.195335,-1.8675,0.2253,0.176395,0.92385,0.0,0.0,-0.030326,0.0,-0.2618,-0.010108,1.5,0.2,0.6,0.6,0.6,0.55,0.0,0.2,0.45016,0.45008,0.599973,0.3,
0.01,0.165261,0.327878,0.441613,-1.10982,1.2556,-0.056649,-1.507673,0.108636,-0.852013,0.195334,-1.8675,0.225299,0.176395,0.923851,0.0,0.0,-0.030326,0.0,-0.2618,-0.010108,1.5,0.2,0.6,0.6,0.6,0.55,0.0,0.2,0.450096,0.450048,0.599984,0.3,
0.01,0.165261,0.327878,0.441613,-1.10982,1.2556,-0.056649,-1.507673,0.108636,-0.852016,0.195333,-1.8675,0.225299,0.176395,0.923851,0.0,0.0,-0.030326,0.0,-0.2618,-0.010108,1.5,0.2,0.6,0.6,0.6,0.55,0.0,0.2,0.450048,0.450024,0.599992,0.3,
0.01,0.165261,0.327878,0.441613,-1.10982,1.2556,-0.056649,-1.507673,0.108636,-0.852018,0.195333,-1.8675,0.225298,0.176395,0.923852,0.0,0.0,-0.030326,0.0,-0.2618,-0.010108,1.5,0.2,0.6,0.6,0.6,0.55,0.0,0.2,0.450016,0.450008,0.599997,0.3,
0.01,0.165261,0.327878,0.441613,-1.10982,1.2556,-0.056649,-1.507673,0.108636,-0.852019,0.195333,-1.8675,0.225298,0.176395,0.923852,0.0,0.0,-0.030326,0.0,-0.2618,-0.010108,1.5,0.2,0.6,0.6,0.6,0.55,0.0,0.2,0.45,0.45,0.6,0.3,
0.01,0.165261,0.327878,0.441613,-1.10982,1.2556,-0.056649,-1.507673,0.113234,-0.846698,0.195063,-1.8675,0.225363,0.175619,0.958567,0.0,0.0,-0.030326,0.0,-0.2618,-0.010108,1.5,0.2,0.6,0.6,0.6,0.55,0.0,0.2,0.45,0.45,0.6,0.3,
0.01,0.165261,0.327878,0.441613,-1.10982,1.2556,-0.056649,-1.507673,0.117954,-0.841073,0.195853,-1.8675,0.226113,0.174929,0.99236,0.0,0.0,-0.030326,0.0,-0.2618,-0.010108,1.5,0.2,0.6,0.6,0.6,0.55,0.0,0.2,0.45,0.45,0.6,0.3,
0.01,0.165261,0.327878,0.441613,-1.10982,1.2556,-0.056649,-1.507673,0.12285,-0.835145,0.197662,-1.8675,0.227561,0.174291,1.02523,0.0,0.0,-0.030326,0.0,-0.2618,-0.010108,1.5,0.2,0.6,0.6,0.6,0.55,0.0,0.2,0.45,0.45,0.6,0.3,
0.01,0.165261,0.327878,0.441613,-1.10982,1.2556,-0.056649,-1.507673,0.127974,-0.828916,0.200444,-1.8675,0.229717,0.173676,1.057177,0.0,0.0,-0.030326,0.0,-0.2618,-0.010108,1.5,0.2,0.6,0.6,0.6,0.55,0.0,0.2,0.45,0.45,0.6,0.3,
0.01,0.165261,0.327878,0.441613,-1.10982,1.2556,-0.056649,-1.507673,0.127974,-0.828916,0.200444,-1.8675,0.229717,0.173676,1.057177,0.0,0.0,-0.030326,0.0,-0.2618,-0.010108,1.5,0.2,0.6,0.6,0.6,0.55,0.0,0.2,0.45,0.45,0.675,0.3,
0.01,0.165261,0.327878,0.441613,-1.10982,1.2556,-0.056649,-1.507673,0.127974,-0.828916,0.200444,-1.8675,0.229717,0.173676,1.057177,0.0,0.0,-0.030326,0.0,-0.2618,-0.010108,1.5,0.2,0.6,0.6,0.6,0.55,0.0,0.2,0.45,0.45,0.75,0.3,
0.01,0.165261,0.327878,0.441613,-1.10982,1.2556,-0.056649,-1.507673,0.127974,-0.828916,0.200444,-1.8675,0.229717,0.173676,1.057177,0.0,0.0,-0.030326,0.0,-0.2618,-0.010108,1.5,0.2,0.6,0.6,0.6,0.55,0.0,0.2,0.45,0.45,0.825,0.3,
0.01,0.165261,0.327878,0.441613,-1.10982,1.2556,-0.056649,-1.507673,0.127974,-0.828916,0.200444,-1.8675,0.229717,0.173676,1.057177,0.0,0.0,-0.030326,0.0,-0.2618,-0.010108,1.5,0.2,0.6,0.6,0.6,0.55,0.0,0.2,0.45,0.45,0.9,0.3,
0.01,0.165261,0.327878,0.441613,-1.10982,1.2556,-0.056649,-1.507673,0.127924,-0.828994,0.200196,-1.8675,0.229549,0.173692,1.042406,0.0,0.0,-0.030326,0.0,-0.2618,-0.010108,1.5,0.2,0.6,0.6,0.6,0.55,0.0,0.2,0.45,0.45,0.9,0.3,
0.01,0.165261,0.327878,0.441613,-1.10982,1.2556,-0.056649,-1.507673,0.12791,-0.82902,0.200112,-1.8675,0.229493,0.173697,1.027481,0.0,0.0,-0.030326,0.0,-0.2618,-0.010108,1.5,0.2,0.6,0.6,0.6,0.55,0.0,0.2,0.45,0.45,0.9,0.3,
0.01,0.165261,0.327878,0.441613,-1.10982,1.2556,-0.056649,-1.507673,0.127928,-0.828995,0.200194,-1.8675,0.229549,0.173691,1.012405,0.0,0.0,-0.030326,0.0,-0.2618,-0.010108,1.5,0.2,0.6,0.6,0.6,0.55,0.0,0.2,0.45,0.45,0.9,0.3,
0.01,0.165261,0.327878,0.441613,-1.10982,1.2556,-0.056649,-1.507673,0.127974,-0.828916,0.200444,-1.8675,0.229717,0.173676,0.997177,0.0,0.0,-0.030326,0.0,-0.2618,-0.010108,1.5,0.2,0.6,0.6,0.6,0.55,0.0,0.2,0.45,0.45,0.9,0.3,
0.01,0.165261,0.327878,0.441613,-1.10982,1.2556,-0.056649,-1.507673,0.127974,-0.828916,0.200444,-1.8675,0.229717,0.173676,0.997177,0.0,0.0,-0.030326,0.0,-0.2618,-0.010108,1.5,0.2,0.6,0.6,0.6,0.55,0.0,0.2,0.45,0.45,0.825,0.3,
0.01,0.165261,0.327878,0.441613,-1.10982,1.2556,-0.056649,-1.507673,0.127974,-0.828916,0.200444,-1.8675,0.229717,0.173676,0.997177,0.0,0.0,-0.030326,0.0,-0.2618,-0.010108,1.5,0.2,0.6,0.6,0.6,0.55,0.0,0.2,0.45,0.45,0.75,0.3,
0.01,0.165261,0.327878,0.441613,-1.10982,1.2556,-0.056649,-1.507673,0.127974,-0.828916,0.200444,-1.8675,0.229717,0.173676,0.997177,0.0,0.0,-0.030326,0.0,-0.2618,-0.010108,1.5,0.2,0.6,0.6,0.6,0.55,0.0,0.2,0.45,0.45,0.675,0.3,
0.01,0.165261,0.327878,0.441613,-1.10982,1.2556,-0.056649,-1.507673,0.127974,-0.828916,0.200444,-1.8675,0.229717,0.173676,0.997177,0.0,0.0,-0.030326,0.0,-0.2618,-0.010108,1.5,0.2,0.6,0.6,0.6,0.55,0.0,0.2,0.45,0.45,0.6,0.3,
0.01,0.165261,0.327878,0.441613,-1.10982,1.2556,-0.056649,-1.507673,0.127974,-0.828916,0.200444,-1.8675,0.229717,0.173676,0.997206,0.0,0.0,-0.030326,0.0,-0.2618,-0.010108,1.5,0.2,0.6,0.6,0.6,0.55,0.0,0.2,0.45,0.45,0.6,0.3,
0.01,0.165261,0.327878,0.441613,-1.10982,1.2556,-0.056649,-1.507673,0.127974,-0.828917,0.200443,-1.8675,0.229716,0.173675,0.997265,0.0,0.0,-0.030326,0.0,-0.2618,-0.010108,1.5,0.2,0.6,0.6,0.6,0.55,0.0,0.2,0.45,0.45,0.6,0.3,
0.01,0.165261,0.327878,0.441613,-1.10982,1.2556,-0.056649,-1.507673,0.127973,-0.828918,0.20044,-1.8675,0.229714,0.173675,0.997353,0.0,0.0,-0.030326,0.0,-0.2618,-0.010108,1.5,0.2,0.6,0.6,0.6,0.55,0.0,0.2,0.45,0.45,0.6,0.3,
0.01,0.165261,0.327878,0.441613,-1.10982,1.2556,-0.056649,-1.507673,0.127973,-0.828919,0.200437,-1.8675,0.229713,0.173676,0.99747,0.0,0.0,-0.030326,0.0,-0.2618,-0.010108,1.5,0.2,0.6,0.6,0.6,0.55,0.0,0.2,0.45,0.45,0.6,0.3,
0.01,0.165261,0.327878,0.441613,-1.10982,1.2556,-0.056649,-1.507673,0.127972,-0.828919,0.200435,-1.8675,0.229711,0.173676,0.997616,0.0,0.0,-0.030326,0.0,-0.2618,-0.010108,1.5,0.2,0.6,0.6,0.6,0.55,0.0,0.2,0.45,0.45,0.6,0.3,
0.01,0.165261,0.327878,0.441613,-1.10982,1.2556,-0.056649,-1.507673,0.127971,-0.82892,0.200431,-1.8675,0.229708,0.173676,0.997792,0.0,0.0,-0.030326,0.0,-0.2618,-0.010108,1.5,0.2,0.6,0.6,0.6,0.55,0.0,0.2,0.45,0.45,0.6,0.3,
0.01,0.165261,0.327878,0.441613,-1.10982,1.2556,-0.056649,-1.507673,0.12797,-0.828922,0.200427,-1.8675,0.229705,0.173677,0.997996,0.0,0.0,-0.030326,0.0,-0.2618,-0.010108,1.5,0.2,0.6,0.6,0.6,0.55,0.0,0.2,0.45,0.45,0.6,0.3,
0.01,0.165261,0.327878,0.441613,-1.10982,1.2556,-0.056649,-1.507673,0.12797,-0.828923,0.200421,-1.8675,0.229702,0.173676,0.99823,0.0,0.0,-0.030326,0.0,-0.2618,-0.010108,1.5,0.2,0.6,0.6,0.6,0.55,0.0,0.2,0.45,0.45,0.6,0.3,
0.01,0.165261,0.327878,0.441613,-1.10982,1.2556,-0.056649,-1.507673,0.127969,-0.828925,0.200416,-1.8675,0.229698,0.173677,0.998493,0.0,0.0,-0.030326,0.0,-0.2618,-0.010108,1.5,0.2,0.6,0.6,0.6,0.55,0.0,0.2,0.45,0.45,0.6,0.3,
0.01,0.165261,0.327878,0.441613,-1.10982,1.2556,-0.056649,-1.507673,0.127968,-0.828927,0.200409,-1.8675,0.229693,0.173678,0.998785,0.0,0.0,-0.030326,0.0,-0.2618,-0.010108,1.5,0.2,0.6,0.6,0.6,0.55,0.0,0.2,0.45,0.45,0.6,0.3,
0.01,0.165261,0.327878,0.441613,-1.10982,1.2556,-0.056649,-1.507673,0.127966,-0.828929,0.200403,-1.8675,0.22969,0.173678,0.999106,0.0,0.0,-0.030326,0.0,-0.2618,-0.010108,1.5,0.2,0.6,0.6,0.6,0.55,0.0,0.2,0.45,0.45,0.6,0.3,
0.01,0.165261,0.327878,0.441613,-1.10982,1.2556,-0.056649,-1.507673,0.127966,-0.828931,0.200396,-1.8675,0.229685,0.173678,0.999457,0.0,0.0,-0.030326,0.0,-0.2618,-0.010108,1.5,0.2,0.6,0.6,0.6,0.55,0.0,0.2,0.45,0.45,0.6,0.3,
0.01,0.165261,0.327878,0.441613,-1.10982,1.2556,-0.056649,-1.507673,0.127964,-0.828934,0.200388,-1.8675,0.22968,0.173679,0.999837,0.0,0.0,-0.030326,0.0,-0.2618,-0.010108,1.5,0.2,0.6,0.6,0.6,0.55,0.0,0.2,0.45,0.45,0.6,0.3,
0.01,0.165261,0.327878,0.441613,-1.10982,1.2556,-0.056649,-1.507673,0.127962,-0.828936,0.20038,-1.8675,0.229674,0.173679,1.000245,0.0,0.0,-0.030326,0.0,-0.2618,-0.010108,1.5,0.2,0.6,0.6,0.6,0.55,0.0,0.2,0.45,0.45,0.6,0.3,
0.01,0.165261,0.327878,0.441613,-1.10982,1.2556,-0.056649,-1.507673,0.127961,-0.828939,0.200372,-1.8675,0.229669,0.17368,1.000683,0.0,0.0,-0.030326,0.0,-0.2618,-0.010108,1.5,0.2,0.6,0.6,0.6,0.55,0.0,0.2,0.45,0.45,0.6,0.3,
0.01,0.165261,0.327878,0.441613,-1.10982,1.2556,-0.056649,-1.507673,0.12796,-0.828941,0.200362,-1.8675,0.229662,0.17368,1.00115,0.0,0.0,-0.030326,0.0,-0.2618,-0.010108,1.5,0.2,0.6,0.6,0.6,0.55,0.0,0.2,0.45,0.45,0.6,0.3,
0.01,0.165261,0.327878,0.441613,-1.10982,1.2556,-0.056649,-1.507673,0.127958,-0.828945,0.200353,-1.8675,0.229656,0.173681,1.001646,0.0,0.0,-0.030326,0.0,-0.2618,-0.010108,1.5,0.2,0.6,0.6,0.6,0.55,0.0,0.2,0.45,0.45,0.6,0.3,
0.01,0.165261,0.327878,0.441613,-1.10982,1.2556,-0.056649,-1.507673,0.127956,-0.828948,0.200343,-1.8675,0.22965,0.173681,1.002171,0.0,0.0,-0.030326,0.0,-0.2618,-0.010108,1.5,0.2,0.6,0.6,0.6,0.55,0.0,0.2,0.45,0.45,0.6,0.3,
0.01,0.165261,0.327878,0.441613,-1.10982,1.2556,-0.056649,-1.507673,0.127954,-0.828951,0.200334,-1.8675,0.229643,0.173682,1.002724,0.0,0.0,-0.030326,0.0,-0.2618,-0.010108,1.5,0.2,0.6,0.6,0.6,0.55,0.0,0.2,0.45,0.45,0.6,0.3,
0.01,0.165261,0.327878,0.441613,-1.10982,1.2556,-0.056649,-1.507673,0.127952,-0.828954,0.200323,-1.8675,0.229636,0.173683,1.003307,0.0,0.0,-0.030326,0.0,-0.2618,-0.010108,1.5,0.2,0.6,0.6,0.6,0.55,0.0,0.2,0.45,0.45,0.6,0.3,
0.01,0.165261,0.327878,0.441613,-1.10982,1.2556,-0.056649,-1.507673,0.12795,-0.828957,0.200313,-1.8675,0.229629,0.173683,1.003919,0.0,0.0,-0.030326,0.0,-0.2618,-0.010108,1.5,0.2,0.6,0.6,0.6,0.55,0.0,0.2,0.45,0.45,0.6,0.3,
0.01,0.165261,0.327878,0.441613,-1.10982,1.2556,-0.056649,-1.507673,0.127949,-0.82896,0.200302,-1.8675,0.229622,0.173684,1.004559,0.0,0.0,-0.030326,0.0,-0.2618,-0.010108,1.5,0.2,0.6,0.6,0.6,0.55,0.0,0.2,0.45,0.45,0.6,0.3,
0.01,0.165261,0.327878,0.441613,-1.10982,1.2556,-0.056649,-1.507673,0.127946,-0.828965,0.200291,-1.8675,0.229614,0.173685,1.005228,0.0,0.0,-0.030326,0.0,-0.2618,-0.010108,1.5,0.2,0.6,0.6,0.6,0.55,0.0,0.2,0.45,0.45,0.6,0.3,
0.01,0.165261,0.327878,0.441613,-1.10982,1.2556,-0.056649,-1.507673,0.127945,-0.828968,0.20028,-1.8675,0.229607,0.173685,1.005897,0.0,0.0,-0.030326,0.0,-0.2618,-0.010108,1.5,0.2,0.6,0.6,0.6,0.55,0.0,0.2,0.45,0.45,0.6,0.3,
0.01,0.165261,0.327878,0.441613,-1.10982,1.2556,-0.056649,-1.507673,0.127942,-0.828971,0.20027,-1.8675,0.229601,0.173686,1.006567,0.0,0.0,-0.030326,0.0,-0.2618,-0.010108,1.5,0.2,0.6,0.6,0.6,0.55,0.0,0.2,0.45,0.45,0.6,0.3,
0.01,0.165261,0.327878,0.441613,-1.10982,1.2556,-0.056649,-1.507673,0.12794,-0.828974,0.20026,-1.8675,0.229593,0.173686,1.007235,0.0,0.0,-0.030326,0.0,-0.2618,-0.010108,1.5,0.2,0.6,0.6,0.6,0.55,0.0,0.2,0.45,0.45,0.6,0.3,
0.01,0.165261,0.327878,0.441613,-1.10982,1.2556,-0.056649,-1.507673,0.127939,-0.828977,0.200251,-1.8675,0.229587,0.173687,1.007903,0.0,0.0,-0.030326,0.0,-0.2618,-0.010108,1.5,0.2,0.6,0.6,0.6,0.55,0.0,0.2,0.45,0.45,0.6,0.3,
0.01,0.165261,0.327878,0.441613,-1.10982,1.2556,-0.056649,-1.507673,0.127937,-0.82898,0.200241,-1.8675,0.229581,0.173687,1.008571,0.0,0.0,-0.030326,0.0,-0.2618,-0.010108,1.5,0.2,0.6,0.6,0.6,0.55,0.0,0.2,0.45,0.45,0.6,0.3,
0.01,0.165261,0.327878,0.441613,-1.10982,1.2556,-0.056649,-1.507673,0.127935,-0.828983,0.200232,-1.8675,0.229575,0.173688,1.009238,0.0,0.0,-0.030326,0.0,-0.2618,-0.010108,1.5,0.2,0.6,0.6,0.6,0.55,0.0,0.2,0.45,0.45,0.6,0.3,
0.01,0.165261,0.327878,0.441613,-1.10982,1.2556,-0.056649,-1.507673,0.127934,-0.828985,0.200224,-1.8675,0.229569,0.173689,1.009906,0.0,0.0,-0.030326,0.0,-0.2618,-0.010108,1.5,0.2,0.6,0.6,0.6,0.55,0.0,0.2,0.45,0.45,0.6,0.3,
0.01,0.165261,0.327878,0.441613,-1.10982,1.2556,-0.056649,-1.507673,0.127932,-0.828989,0.200214,-1.8675,0.229564,0.173689,1.010573,0.0,0.0,-0.030326,0.0,-0.2618,-0.010108,1.5,0.2,0.6,0.6,0.6,0.55,0.0,0.2,0.45,0.45,0.6,0.3,
0.01,0.165261,0.327878,0.441613,-1.10982,1.2556,-0.056649,-1.507673,0.12793,-0.828991,0.200206,-1.8675,0.229558,0.17369,1.011239,0.0,0.0,-0.030326,0.0,-0.2618,-0.010108,1.5,0.2,0.6,0.6,0.6,0.55,0.0,0.2,0.45,0.45,0.6,0.3,
0.01,0.165261,0.327878,0.441613,-1.10982,1.2556,-0.056649,-1.507673,0.127928,-0.828993,0.2002,-1.8675,0.229553,0.173691,1.011906,0.0,0.0,-0.030326,0.0,-0.2618,-0.010108,1.5,0.2,0.6,0.6,0.6,0.55,0.0,0.2,0.45,0.45,0.6,0.3,
0.01,0.165261,0.327878,0.441613,-1.10982,1.2556,-0.056649,-1.507673,0.127928,-0.828996,0.200192,-1.8675,0.229548,0.173691,1.012572,0.0,0.0,-0.030326,0.0,-0.2618,-0.010108,1.5,0.2,0.6,0.6,0.6,0.55,0.0,0.2,0.45,0.45,0.6,0.3,
0.01,0.165261,0.327878,0.441613,-1.10982,1.2556,-0.056649,-1.507673,0.127926,-0.828997,0.200185,-1.8675,0.229543,0.173692,1.013238,0.0,0.0,-0.030326,0.0,-0.2618,-0.010108,1.5,0.2,0.6,0.6,0.6,0.55,0.0,0.2,0.45,0.45,0.6,0.3,
0.01,0.165261,0.327878,0.441613,-1.10982,1.2556,-0.056649,-1.507673,0.127925,-0.829,0.200178,-1.8675,0.229539,0.173691,1.013903,0.0,0.0,-0.030326,0.0,-0.2618,-0.010108,1.5,0.2,0.6,0.6,0.6,0.55,0.0,0.2,0.45,0.45,0.6,0.3,
0.01,0.165261,0.327878,0.441613,-1.10982,1.2556,-0.056649,-1.507673,0.127923,-0.829002,0.200171,-1.8675,0.229534,0.173692,1.014568,0.0,0.0,-0.030326,0.0,-0.2618,-0.010108,1.5,0.2,0.6,0.6,0.6,0.55,0.0,0.2,0.45,0.45,0.6,0.3,
0.01,0.165261,0.327878,0.441613,-1.10982,1.2556,-0.056649,-1.507673,0.127923,-0.829004,0.200166,-1.8675,0.22953,0.173693,1.015233,0.0,0.0,-0.030326,0.0,-0.2618,-0.010108,1.5,0.2,0.6,0.6,0.6,0.55,0.0,0.2,0.45,0.45,0.6,0.3,
0.01,0.165261,0.327878,0.441613,-1.10982,1.2556,-0.056649,-1.507673,0.127921,-0.829005,0.200161,-1.8675,0.229527,0.173693,1.015897,0.0,0.0,-0.030326,0.0,-0.2618,-0.010108,1.5,0.2,0.6,0.6,0.6,0.55,0.0,0.2,0.45,0.45,0.6,0.3,
0.01,0.165261,0.327878,0.441613,-1.10982,1.2556,-0.056649,-1.507673,0.12792,-0.829007,0.200155,-1.8675,0.229523,0.173693,1.016562,0.0,0.0,-0.030326,0.0,-0.2618,-0.010108,1.5,0.2,0.6,0.6,0.6,0.55,0.0,0.2,0.45,0.45,0.6,0.3,
0.01,0.165261,0.327878,0.441613,-1.10982,1.2556,-0.056649,-1.507673,0.127919,-0.829008,0.20015,-1.8675,0.229519,0.173694,1.017226,0.0,0.0,-0.030326,0.0,-0.2618,-0.010108,1.5,0.2,0.6,0.6,0.6,0.55,0.0,0.2,0.45,0.45,0.6,0.3,
0.01,0.165261,0.327878,0.441613,-1.10982,1.2556,-0.056649,-1.507673,0.127917,-0.82901,0.200145,-1.8675,0.229516,0.173694,1.01789,0.0,0.0,-0.030326,0.0,-0.2618,-0.010108,1.5,0.2,0.6,0.6,0.6,0.55,0.0,0.2,0.45,0.45,0.6,0.3,
0.01,0.165261,0.327878,0.441613,-1.10982,1.2556,-0.056649,-1.507673,0.127917,-0.829011,0.20014,-1.8675,0.229513,0.173695,1.018554,0.0,0.0,-0.030326,0.0,-0.2618,-0.010108,1.5,0.2,0.6,0.6,0.6,0.55,0.0,0.2,0.45,0.45,0.6,0.3,
0.01,0.165261,0.327878,0.441613,-1.10982,1.2556,-0.056649,-1.507673,0.127916,-0.829013,0.200136,-1.8675,0.22951,0.173695,1.019216,0.0,0.0,-0.030326,0.0,-0.2618,-0.010108,1.5,0.2,0.6,0.6,0.6,0.55,0.0,0.2,0.45,0.45,0.6,0.3,
0.01,0.165261,0.327878,0.441613,-1.10982,1.2556,-0.056649,-1.507673,0.127915,-0.829014,0.200132,-1.8675,0.229507,0.173695,1.01988,0.0,0.0,-0.030326,0.0,-0.2618,-0.010108,1.5,0.2,0.6,0.6,0.6,0.55,0.0,0.2,0.45,0.45,0.6,0.3,
0.01,0.165261,0.327878,0.441613,-1.10982,1.2556,-0.056649,-1.507673,0.127914,-0.829016,0.200129,-1.8675,0.229505,0.173695,1.020542,0.0,0.0,-0.030326,0.0,-0.2618,-0.010108,1.5,0.2,0.6,0.6,0.6,0.55,0.0,0.2,0.45,0.45,0.6,0.3,
0.01,0.165261,0.327878,0.441613,-1.10982,1.2556,-0.056649,-1.507673,0.127914,-0.829016,0.200126,-1.8675,0.229503,0.173695,1.021205,0.0,0.0,-0.030326,0.0,-0.2618,-0.010108,1.5,0.2,0.6,0.6,0.6,0.55,0.0,0.2,0.45,0.45,0.6,0.3,
0.01,0.165261,0.327878,0.441613,-1.10982,1.2556,-0.056649,-1.507673,0.127913,-0.829017,0.200123,-1.8675,0.229501,0.173696,1.021866,0.0,0.0,-0.030326,0.0,-0.2618,-0.010108,1.5,0.2,0.6,0.6,0.6,0.55,0.0,0.2,0.45,0.45,0.6,0.3,
0.01,0.165261,0.327878,0.441613,-1.10982,1.2556,-0.056649,-1.507673,0.127912,-0.829018,0.20012,-1.8675,0.229499,0.173696,1.022528,0.0,0.0,-0.030326,0.0,-0.2618,-0.010108,1.5,0.2,0.6,0.6,0.6,0.55,0.0,0.2,0.45,0.45,0.6,0.3,
0.01,0.165261,0.327878,0.441613,-1.10982,1.2556,-0.056649,-1.507673,0.127912,-0.829019,0.200119,-1.8675,0.229498,0.173696,1.023189,0.0,0.0,-0.030326,0.0,-0.2618,-0.010108,1.5,0.2,0.6,0.6,0.6,0.55,0.0,0.2,0.45,0.45,0.6,0.3,
0.01,0.165261,0.327878,0.441613,-1.10982,1.2556,-0.056649,-1.507673,0.127911,-0.829019,0.200116,-1.8675,0.229497,0.173696,1.023851,0.0,0.0,-0.030326,0.0,-0.2618,-0.010108,1.5,0.2,0.6,0.6,0.6,0.55,0.0,0.2,0.45,0.45,0.6,0.3,
0.01,0.165261,0.327878,0.441613,-1.10982,1.2556,-0.056649,-1.507673,0.127911,-0.82902,0.200115,-1.8675,0.229496,0.173697,1.024511,0.0,0.0,-0.030326,0.0,-0.2618,-0.010108,1.5,0.2,0.6,0.6,0.6,0.55,0.0,0.2,0.45,0.45,0.6,0.3,
0.01,0.165261,0.327878,0.441613,-1.10982,1.2556,-0.056649,-1.507673,0.127911,-0.82902,0.200113,-1.8675,0.229494,0.173697,1.025172,0.0,0.0,-0.030326,0.0,-0.2618,-0.010108,1.5,0.2,0.6,0.6,0.6,0.55,0.0,0.2,0.45,0.45,0.6,0.3,
0.01,0.165261,0.327878,0.441613,-1.10982,1.2556,-0.056649,-1.507673,0.127911,-0.82902,0.200113,-1.8675,0.229493,0.173696,1.025832,0.0,0.0,-0.030326,0.0,-0.2618,-0.010108,1.5,0.2,0.6,0.6,0.6,0.55,0.0,0.2,0.45,0.45,0.6,0.3,
0.01,0.165261,0.327878,0.441613,-1.10982,1.2556,-0.056649,-1.507673,0.12791,-0.82902,0.200112,-1.8675,0.229493,0.173697,1.026492,0.0,0.0,-0.030326,0.0,-0.2618,-0.010108,1.5,0.2,0.6,0.6,0.6,0.55,0.0,0.2,0.45,0.45,0.6,0.3,
0.01,0.165261,0.327878,0.441613,-1.10982,1.2556,-0.056649,-1.507673,0.12791,-0.82902,0.200112,-1.8675,0.229493,0.173697,1.027151,0.0,0.0,-0.030326,0.0,-0.2618,-0.010108,1.5,0.2,0.6,0.6,0.6,0.55,0.0,0.2,0.45,0.45,0.6,0.3,
0.01,0.165261,0.327878,0.441613,-1.10982,1.2556,-0.056649,-1.507673,0.12791,-0.82902,0.200112,-1.8675,0.229493,0.173697,1.027811,0.0,0.0,-0.030326,0.0,-0.2618,-0.010108,1.5,0.2,0.6,0.6,0.6,0.55,0.0,0.2,0.45,0.45,0.6,0.3,
0.01,0.165261,0.327878,0.441613,-1.10982,1.2556,-0.056649,-1.507673,0.127909,-0.82902,0.200113,-1.8675,0.229493,0.173697,1.02847,0.0,0.0,-0.030326,0.0,-0.2618,-0.010108,1.5,0.2,0.6,0.6,0.6,0.55,0.0,0.2,0.45,0.45,0.6,0.3,
0.01,0.165261,0.327878,0.441613,-1.10982,1.2556,-0.056649,-1.507673,0.12791,-0.829021,0.200113,-1.8675,0.229493,0.173697,1.029129,0.0,0.0,-0.030326,0.0,-0.2618,-0.010108,1.5,0.2,0.6,0.6,0.6,0.55,0.0,0.2,0.45,0.45,0.6,0.3,
0.01,0.165261,0.327878,0.441613,-1.10982,1.2556,-0.056649,-1.507673,0.127909,-0.82902,0.200115,-1.8675,0.229495,0.173697,1.029787,0.0,0.0,-0.030326,0.0,-0.2618,-0.010108,1.5,0.2,0.6,0.6,0.6,0.55,0.0,0.2,0.45,0.45,0.6,0.3,
0.01,0.165261,0.327878,0.441613,-1.10982,1.2556,-0.056649,-1.507673,0.127909,-0.82902,0.200116,-1.8675,0.229496,0.173697,1.030446,0.0,0.0,-0.030326,0.0,-0.2618,-0.010108,1.5,0.2,0.6,0.6,0.6,0.55,0.0,0.2,0.45,0.45,0.6,0.3,
0.01,0.165261,0.327878,0.441613,-1.10982,1.2556,-0.056649,-1.507673,0.12791,-0.829019,0.200117,-1.8675,0.229497,0.173697,1.031104,0.0,0.0,-0.030326,0.0,-0.2618,-0.010108,1.5,0.2,0.6,0.6,0.6,0.55,0.0,0.2,0.45,0.45,0.6,0.3,
0.01,0.165261,0.327878,0.441613,-1.10982,1.2556,-0.056649,-1.507673,0.12791,-0.829018,0.20012,-1.8675,0.229498,0.173696,1.031762,0.0,0.0,-0.030326,0.0,-0.2618,-0.010108,1.5,0.2,0.6,0.6,0.6,0.55,0.0,0.2,0.45,0.45,0.6,0.3,
0.01,0.165261,0.327878,0.441613,-1.10982,1.2556,-0.056649,-1.507673,0.12791,-0.829017,0.200121,-1.8675,0.229499,0.173696,1.032418,0.0,0.0,-0.030326,0.0,-0.2618,-0.010108,1.5,0.2,0.6,0.6,0.6,0.55,0.0,0.2,0.45,0.45,0.6,0.3,
0.01,0.165261,0.327878,0.441613,-1.10982,1.2556,-0.056649,-1.507673,0.127911,-0.829016,0.200124,-1.8675,0.229501,0.173696,1.033075,0.0,0.0,-0.030326,0.0,-0.2618,-0.010108,1.5,0.2,0.6,0.6,0.6,0.55,0.0,0.2,0.45,0.45,0.6,0.3,
0.01,0.165261,0.327878,0.441613,-1.10982,1.2556,-0.056649,-1.507673,0.127911,-0.829016,0.200128,-1.8675,0.229503,0.173695,1.033732,0.0,0.0,-0.030326,0.0,-0.2618,-0.010108,1.5,0.2,0.6,0.6,0.6,0.55,0.0,0.2,0.45,0.45,0.6,0.3,
0.01,0.165261,0.327878,0.441613,-1.10982,1.2556,-0.056649,-1.507673,0.127912,-0.829015,0.200131,-1.8675,0.229505,0.173696,1.034388,0.0,0.0,-0.030326,0.0,-0.2618,-0.010108,1.5,0.2,0.6,0.6,0.6,0.55,0.0,0.2,0.45,0.45,0.6,0.3,
0.01,0.165261,0.327878,0.441613,-1.10982,1.2556,-0.056649,-1.507673,0.127913,-0.829013,0.200135,-1.8675,0.229508,0.173696,1.035045,0.0,0.0,-0.030326,0.0,-0.2618,-0.010108,1.5,0.2,0.6,0.6,0.6,0.55,0.0,0.2,0.45,0.45,0.6,0.3,
